(.../EAGLE-7.2.0/ulp/pcb-gcode/pcb-gcode.ulp)
(Copyright 2005 - 2012 by John Johnson)
(See readme.txt for licensing terms.)
(This file generated from the board:)
(.../EAGLE-7.2.0/projects/xc6lx9/xc6xl9.brd)
(Current profile is .../pcb-gcode/profiles/generic.pp  )
(This file generated 2020/06/29 10:17:10)
(Settings from pcb-machine.h)
(spindle on time = 2.0000)
(  Tool Size)
(0.1800 )
(spindle speed = 1000.0000)
(tool change at 0.0000 0.0000 5.0000 )
(feed rate xy = F100.00 )
(feed rate z  = F50.00 )
(Z Axis Settings)
(  High     Up        Down     Drill)
(5.0000 	1.0000 	-0.0800 	-1.8000 )
(Settings from pcb-defaults.h)
(isolate min = 0.0000)
(isolate max = 0.1800)
(isolate step = 0.1800)
(Generated top outlines, top drill, )
(Unit of measure: mm)
(Metric Mode)
G21
(Absolute Coordinates)
G90
S1000
G00 Z5.0000 
G00 X0.0000 Y0.0000 
M03
G04 P2.000000
G00 Z1.0000 
G00 X-1.2840 Y-0.6229 
G01 Z-0.0800 F50.00 
G01 X-1.3166 Y-0.5925 F100.00 
G01 X-1.3480 Y-0.5610 
G01 X-1.3591 Y-0.5529 
G01 X-1.3984 Y-0.5320 
G01 X-1.4370 Y-0.5097 
G01 X-1.4498 Y-0.5047 
G01 X-1.4932 Y-0.4946 
G01 X-1.5362 Y-0.4831 
G01 X-2.5247 Y-0.2566 
G01 X-2.5674 Y-0.2451 
G01 X-2.5817 Y-0.2434 
G01 X-2.6258 Y-0.2450 
G01 X-22.0102 Y-0.2118 
G01 X-22.1327 Y-0.1379 
G01 X-22.2591 Y-0.1046 
G01 X-22.3898 Y-0.1051 
G01 X-22.5159 Y-0.1394 
G01 X-22.6288 Y-0.2052 
G01 X-31.8478 Y-0.2034 
G01 X-31.9688 Y-0.1304 
G01 X-32.0950 Y-0.0967 
G01 X-32.2257 Y-0.0968 
G01 X-32.3520 Y-0.1307 
G01 X-32.4651 Y-0.1961 
G01 X-39.0537 Y-0.2450 
G01 X-39.1038 Y-0.2450 
G01 X-39.1545 Y-0.2586 
G01 X-39.2030 Y-0.2716 
G01 X-39.2486 Y-0.2979 
G01 X-39.2920 Y-0.3229 
G01 X-39.3293 Y-0.3603 
G01 X-39.8462 Y-0.8772 
G01 X-40.3279 Y-0.3955 
G01 X-40.4005 Y-0.3229 
G01 X-40.4895 Y-0.2716 
G01 X-40.5887 Y-0.2450 
G01 X-52.0327 Y-0.2450 
G01 X-52.0466 Y-0.2423 
G01 X-52.0754 Y-0.2444 
G01 X-52.1044 Y-0.2431 
G01 X-52.1213 Y-0.2450 
G01 X-52.1350 Y-0.2486 
G01 X-53.2035 Y-0.3250 
G01 X-53.2495 Y-0.3270 
G01 X-53.2602 Y-0.3290 
G01 X-53.3036 Y-0.3440 
G01 X-53.3474 Y-0.3578 
G01 X-53.3954 Y-0.3884 
G01 X-53.4340 Y-0.4130 
G01 X-53.4724 Y-0.4549 
G01 X-54.3369 Y-1.3979 
G01 X-54.3678 Y-1.4292 
G01 X-54.3766 Y-1.4412 
G01 X-54.3969 Y-1.4802 
G01 X-54.4187 Y-1.5185 
G01 X-54.4240 Y-1.5323 
G01 X-54.4335 Y-1.5752 
G01 X-54.4447 Y-1.6178 
G01 X-54.4462 Y-1.6325 
G01 X-54.4443 Y-1.6765 
G01 X-54.3663 Y-15.0256 
G01 X-54.9077 Y-15.0260 
G01 X-54.9285 Y-15.0055 
G01 X-55.0178 Y-14.9548 
G01 X-55.1172 Y-14.9290 
G01 X-55.2199 Y-14.9298 
G01 X-55.3189 Y-14.9571 
G01 X-55.4074 Y-15.0091 
G01 X-55.4795 Y-15.0823 
G01 X-55.5302 Y-15.1716 
G01 X-55.5560 Y-15.2710 
G01 X-55.4762 Y-25.8777 
G01 X-55.4762 Y-35.0734 
G01 X-55.4784 Y-35.1144 
G01 X-55.4762 Y-35.1247 
G01 X-55.4762 Y-35.1351 
G01 X-55.4656 Y-35.1748 
G01 X-55.4571 Y-35.2149 
G01 X-55.4497 Y-35.2343 
G01 X-55.4291 Y-35.2698 
G01 X-55.4105 Y-35.3064 
G01 X-55.3983 Y-35.3232 
G01 X-55.3693 Y-35.3522 
G01 X-55.3418 Y-35.3828 
G01 X-55.3257 Y-35.3958 
G01 X-55.2902 Y-35.4163 
G01 X-55.0206 Y-35.5916 
G01 X-55.2373 Y-35.9533 
G01 X-55.2636 Y-35.9972 
G01 X-55.2884 Y-36.0386 
G01 X-55.3034 Y-36.0910 
G01 X-55.3166 Y-36.1373 
G01 X-55.3175 Y-36.1919 
G01 X-55.3183 Y-36.2400 
G01 X-55.3175 Y-40.1488 
G01 X-55.3203 Y-40.1851 
G01 X-55.3175 Y-40.2000 
G01 X-55.3175 Y-40.2151 
G01 X-55.3081 Y-40.2502 
G01 X-55.3014 Y-40.2860 
G01 X-55.2948 Y-40.2997 
G01 X-55.2909 Y-40.3143 
G01 X-55.2727 Y-40.3458 
G01 X-55.2570 Y-40.3786 
G01 X-55.2471 Y-40.3901 
G01 X-55.2396 Y-40.4032 
G01 X-55.2138 Y-40.4289 
G01 X-55.1902 Y-40.4566 
G01 X-55.1777 Y-40.4651 
G01 X-55.1670 Y-40.4758 
G01 X-55.1354 Y-40.4940 
G01 X-55.1054 Y-40.5146 
G01 X-55.0911 Y-40.5196 
G01 X-55.0780 Y-40.5272 
G01 X-55.0429 Y-40.5366 
G01 X-55.0085 Y-40.5487 
G01 X-54.9935 Y-40.5498 
G01 X-54.9788 Y-40.5537 
G01 X-54.9424 Y-40.5537 
G01 X-54.3475 Y-40.5994 
G01 X-54.3475 Y-40.8792 
G01 X-54.3338 Y-40.9122 
G01 X-54.3085 Y-40.9375 
G01 X-54.2754 Y-40.9512 
G01 X-54.0475 Y-40.9512 
G01 X-54.0475 Y-41.5988 
G01 X-54.2754 Y-41.5988 
G01 X-54.3085 Y-41.6125 
G01 X-54.3338 Y-41.6378 
G01 X-54.3475 Y-41.6708 
G01 X-54.3475 Y-42.9066 
G01 X-54.3338 Y-42.9397 
G01 X-54.3085 Y-42.9650 
G01 X-54.2754 Y-42.9787 
G01 X-53.0396 Y-42.9787 
G01 X-53.0065 Y-42.9650 
G01 X-52.9812 Y-42.9397 
G01 X-52.9675 Y-42.9066 
G01 X-52.9675 Y-41.6708 
G01 X-52.9812 Y-41.6378 
G01 X-53.0065 Y-41.6125 
G01 X-53.0396 Y-41.5988 
G01 X-53.2675 Y-41.5988 
G01 X-53.2675 Y-40.9512 
G01 X-53.0396 Y-40.9512 
G01 X-53.0065 Y-40.9375 
G01 X-52.9812 Y-40.9122 
G01 X-52.9675 Y-40.8792 
G01 X-52.9675 Y-39.6433 
G01 X-52.9812 Y-39.6103 
G01 X-53.0065 Y-39.5849 
G01 X-53.0396 Y-39.5712 
G01 X-54.2754 Y-39.5712 
G01 X-54.3085 Y-39.5849 
G01 X-54.3338 Y-39.6103 
G01 X-54.3475 Y-39.6433 
G01 X-54.3475 Y-39.8171 
G01 X-54.5375 Y-39.8025 
G01 X-54.5375 Y-36.3029 
G01 X-54.3662 Y-36.0169 
G01 X-53.7458 Y-36.4202 
G01 X-53.7029 Y-36.4481 
G01 X-53.6682 Y-36.4706 
G01 X-53.6498 Y-36.4788 
G01 X-53.6099 Y-36.4896 
G01 X-53.5706 Y-36.5024 
G01 X-53.5604 Y-36.5029 
G01 X-53.5093 Y-36.5056 
G01 X-53.4680 Y-36.5078 
G01 X-52.7505 Y-36.5066 
G01 X-52.0839 Y-36.5075 
G01 X-52.0322 Y-36.5076 
G01 X-51.4176 Y-36.5075 
G01 X-51.3845 Y-36.4938 
G01 X-51.3592 Y-36.4685 
G01 X-51.3455 Y-36.4354 
G01 X-51.3455 Y-35.7996 
G01 X-51.3592 Y-35.7665 
G01 X-51.3845 Y-35.7412 
G01 X-51.4176 Y-35.7275 
G01 X-52.0832 Y-35.7275 
G01 X-53.3829 Y-35.7258 
G01 X-53.9650 Y-35.3474 
G01 X-53.7990 Y-35.0703 
G01 X-53.3771 Y-35.0703 
G01 X-53.3440 Y-35.0566 
G01 X-53.3187 Y-35.0313 
G01 X-53.3050 Y-34.9982 
G01 X-53.3050 Y-34.7836 
G01 X-52.8205 Y-34.7944 
G01 X-52.8205 Y-34.8354 
G01 X-52.8068 Y-34.8685 
G01 X-52.7815 Y-34.8938 
G01 X-52.7484 Y-34.9075 
G01 X-51.4176 Y-34.9075 
G01 X-51.3845 Y-34.8938 
G01 X-51.3592 Y-34.8685 
G01 X-51.3455 Y-34.8354 
G01 X-51.3455 Y-34.1996 
G01 X-51.3592 Y-34.1665 
G01 X-51.3845 Y-34.1412 
G01 X-51.4176 Y-34.1275 
G01 X-52.7484 Y-34.1275 
G01 X-52.7815 Y-34.1412 
G01 X-52.8068 Y-34.1665 
G01 X-52.8205 Y-34.1996 
G01 X-53.3050 Y-34.1970 
G01 X-53.3050 Y-33.9560 
G01 X-53.3187 Y-33.9229 
G01 X-53.3440 Y-33.8976 
G01 X-53.3771 Y-33.8839 
G01 X-54.4193 Y-33.8839 
G01 X-54.4524 Y-33.8976 
G01 X-54.4777 Y-33.9229 
G01 X-54.4914 Y-33.9560 
G01 X-54.4914 Y-34.5105 
G01 X-54.6962 Y-34.6151 
G01 X-54.6962 Y-30.1219 
G01 X-52.8177 Y-30.0421 
G01 X-52.8068 Y-30.0685 
G01 X-52.7815 Y-30.0938 
G01 X-52.7484 Y-30.1075 
G01 X-51.4176 Y-30.1075 
G01 X-51.3845 Y-30.0938 
G01 X-51.3592 Y-30.0685 
G01 X-51.3455 Y-30.0354 
G01 X-51.3455 Y-29.3996 
G01 X-51.3592 Y-29.3665 
G01 X-51.3845 Y-29.3412 
G01 X-51.4176 Y-29.3275 
G01 X-52.7484 Y-29.3275 
G01 X-52.7815 Y-29.3412 
G01 X-52.8068 Y-29.3665 
G01 X-52.8205 Y-29.3996 
G01 X-52.8205 Y-29.4553 
G01 X-54.6962 Y-29.5350 
G01 X-54.6962 Y-26.1492 
G01 X-52.8145 Y-26.0498 
G01 X-52.8068 Y-26.0685 
G01 X-52.7815 Y-26.0938 
G01 X-52.7484 Y-26.1075 
G01 X-51.4176 Y-26.1075 
G01 X-51.3845 Y-26.0938 
G01 X-51.3592 Y-26.0685 
G01 X-51.3455 Y-26.0354 
G01 X-51.3455 Y-25.3996 
G01 X-51.3592 Y-25.3665 
G01 X-51.3845 Y-25.3412 
G01 X-51.4176 Y-25.3275 
G01 X-52.7484 Y-25.3275 
G01 X-52.7815 Y-25.3412 
G01 X-52.8068 Y-25.3665 
G01 X-52.8205 Y-25.3996 
G01 X-52.8205 Y-25.4629 
G01 X-54.6986 Y-25.5622 
G01 X-54.7734 Y-15.6123 
G01 X-54.0943 Y-15.6119 
G01 X-54.0241 Y-15.6303 
G01 X-53.9214 Y-15.6297 
G01 X-53.8560 Y-15.6118 
G01 X-52.8205 Y-15.6111 
G01 X-52.8205 Y-15.6354 
G01 X-52.8068 Y-15.6685 
G01 X-52.7815 Y-15.6938 
G01 X-52.7484 Y-15.7075 
G01 X-51.4176 Y-15.7075 
G01 X-51.3845 Y-15.6938 
G01 X-51.3592 Y-15.6685 
G01 X-51.3455 Y-15.6354 
G01 X-51.3455 Y-14.9996 
G01 X-51.3592 Y-14.9665 
G01 X-51.3845 Y-14.9412 
G01 X-51.4176 Y-14.9275 
G01 X-52.7484 Y-14.9275 
G01 X-52.7815 Y-14.9412 
G01 X-52.8068 Y-14.9665 
G01 X-52.8205 Y-14.9996 
G01 X-52.8205 Y-15.0247 
G01 X-53.5862 Y-15.0252 
G01 X-53.6635 Y-1.8176 
G01 X-52.9986 Y-1.0923 
G01 X-52.4786 Y-1.0552 
G01 X-52.5186 Y-1.9737 
G01 X-53.1198 Y-1.9737 
G01 X-53.1529 Y-1.9874 
G01 X-53.1782 Y-2.0128 
G01 X-53.1919 Y-2.0458 
G01 X-53.1919 Y-3.1304 
G01 X-53.2014 Y-3.9720 
G01 X-53.1919 Y-4.5423 
G01 X-53.1782 Y-4.5754 
G01 X-53.1529 Y-4.6007 
G01 X-53.1198 Y-4.6144 
G01 X-51.1790 Y-4.6144 
G01 X-51.1459 Y-4.6007 
G01 X-51.1206 Y-4.5754 
G01 X-51.1069 Y-4.5423 
G01 X-51.1069 Y-2.0458 
G01 X-51.1206 Y-2.0128 
G01 X-51.1459 Y-1.9874 
G01 X-51.1790 Y-1.9737 
G01 X-51.7378 Y-1.9737 
G01 X-51.6966 Y-1.0250 
G01 X-40.8015 Y-1.0250 
G01 X-40.1583 Y-1.6682 
G01 X-40.1309 Y-1.6956 
G01 X-40.1053 Y-1.7248 
G01 X-40.0947 Y-1.7318 
G01 X-40.0521 Y-1.7602 
G01 X-39.5147 Y-2.1185 
G01 X-39.4390 Y-4.3073 
G01 X-40.4892 Y-4.0787 
G01 X-41.0262 Y-3.7369 
G01 X-41.0262 Y-2.0458 
G01 X-41.0399 Y-2.0128 
G01 X-41.0653 Y-1.9874 
G01 X-41.0983 Y-1.9737 
G01 X-43.0391 Y-1.9737 
G01 X-43.0722 Y-1.9874 
G01 X-43.0975 Y-2.0128 
G01 X-43.1112 Y-2.0458 
G01 X-43.1112 Y-4.5423 
G01 X-43.0975 Y-4.5754 
G01 X-43.0722 Y-4.6007 
G01 X-43.0391 Y-4.6144 
G01 X-41.1003 Y-4.6144 
G01 X-40.8776 Y-4.7561 
G01 X-40.8644 Y-4.7681 
G01 X-40.8344 Y-4.7835 
G01 X-40.8061 Y-4.8016 
G01 X-40.7890 Y-4.8070 
G01 X-40.7731 Y-4.8152 
G01 X-40.7402 Y-4.8223 
G01 X-40.7081 Y-4.8324 
G01 X-40.6902 Y-4.8332 
G01 X-39.1239 Y-5.1741 
G01 X-39.0832 Y-5.1850 
G01 X-39.0697 Y-5.1865 
G01 X-39.0226 Y-5.1850 
G01 X-33.6032 Y-5.1850 
G01 X-33.5518 Y-5.1850 
G01 X-33.5037 Y-5.1850 
G01 X-30.3175 Y-5.1333 
G01 X-30.3175 Y-5.2985 
G01 X-30.3038 Y-5.3316 
G01 X-30.2785 Y-5.3569 
G01 X-30.2454 Y-5.3706 
G01 X-29.9175 Y-5.3706 
G01 X-29.9175 Y-5.9800 
G01 X-30.2454 Y-5.9800 
G01 X-30.2785 Y-5.9937 
G01 X-30.3038 Y-6.0190 
G01 X-30.3175 Y-6.0521 
G01 X-30.3175 Y-7.1879 
G01 X-30.3038 Y-7.2210 
G01 X-30.2785 Y-7.2463 
G01 X-30.2454 Y-7.2600 
G01 X-28.8096 Y-7.2600 
G01 X-28.7765 Y-7.2463 
G01 X-28.7512 Y-7.2210 
G01 X-28.7375 Y-7.1879 
G01 X-28.7375 Y-6.0521 
G01 X-28.7512 Y-6.0190 
G01 X-28.7765 Y-5.9937 
G01 X-28.8096 Y-5.9800 
G01 X-29.1375 Y-5.9800 
G01 X-29.1375 Y-5.3925 
G01 X-27.8537 Y-6.1036 
G01 X-27.8537 Y-9.7924 
G01 X-27.8537 Y-9.8437 
G01 X-27.8537 Y-9.8938 
G01 X-27.8401 Y-9.9448 
G01 X-27.8272 Y-9.9930 
G01 X-27.8008 Y-10.0387 
G01 X-27.7758 Y-10.0820 
G01 X-27.7385 Y-10.1193 
G01 X-27.7032 Y-10.1546 
G01 X-25.2643 Y-12.5624 
G01 X-25.2454 Y-12.5857 
G01 X-25.2279 Y-12.5984 
G01 X-25.2150 Y-12.6111 
G01 X-25.2150 Y-14.3602 
G01 X-30.7400 Y-14.3648 
G01 X-30.7389 Y-14.1569 
G01 X-30.7350 Y-13.3927 
G01 X-30.7348 Y-13.3455 
G01 X-30.7350 Y-12.6366 
G01 X-30.7487 Y-12.6035 
G01 X-30.7740 Y-12.5782 
G01 X-30.8071 Y-12.5645 
G01 X-31.1429 Y-12.5645 
G01 X-31.1760 Y-12.5782 
G01 X-31.2013 Y-12.6035 
G01 X-31.2150 Y-12.6366 
G01 X-31.2150 Y-13.3916 
G01 X-31.2200 Y-14.3650 
G01 X-31.7231 Y-14.3650 
G01 X-31.7435 Y-14.3604 
G01 X-31.7704 Y-14.3650 
G01 X-31.7977 Y-14.3650 
G01 X-31.8170 Y-14.3730 
G01 X-31.8376 Y-14.3765 
G01 X-31.8607 Y-14.3911 
G01 X-31.8859 Y-14.4015 
G01 X-31.9007 Y-14.4163 
G01 X-31.9184 Y-14.4274 
G01 X-31.9341 Y-14.4497 
G01 X-31.9535 Y-14.4690 
G01 X-31.9614 Y-14.4883 
G01 X-31.9735 Y-14.5054 
G01 X-31.9795 Y-14.5320 
G01 X-31.9900 Y-14.5573 
G01 X-31.9900 Y-14.5781 
G01 X-31.9946 Y-14.5985 
G01 X-31.9900 Y-14.6254 
G01 X-31.9900 Y-14.6527 
G01 X-31.9820 Y-14.6720 
G01 X-31.9600 Y-14.8004 
G01 X-31.9600 Y-17.1419 
G01 X-32.2042 Y-17.1414 
G01 X-32.9632 Y-17.1400 
G01 X-33.0103 Y-17.1399 
G01 X-33.7184 Y-17.1400 
G01 X-33.7515 Y-17.1537 
G01 X-33.7768 Y-17.1790 
G01 X-33.7905 Y-17.2121 
G01 X-33.7905 Y-17.5479 
G01 X-33.7768 Y-17.5810 
G01 X-33.7515 Y-17.6063 
G01 X-33.7184 Y-17.6200 
G01 X-32.9636 Y-17.6200 
G01 X-31.9600 Y-17.6219 
G01 X-31.9600 Y-21.4079 
G01 X-31.9463 Y-21.4410 
G01 X-31.9210 Y-21.4663 
G01 X-31.8879 Y-21.4800 
G01 X-31.4896 Y-21.4800 
G01 X-31.4652 Y-25.6368 
G01 X-32.9630 Y-25.6400 
G01 X-33.7184 Y-25.6400 
G01 X-33.7515 Y-25.6537 
G01 X-33.7768 Y-25.6790 
G01 X-33.7905 Y-25.7121 
G01 X-33.7905 Y-26.0479 
G01 X-33.7768 Y-26.0810 
G01 X-33.7515 Y-26.1063 
G01 X-33.7184 Y-26.1200 
G01 X-33.0105 Y-26.1200 
G01 X-32.9629 Y-26.1200 
G01 X-32.2076 Y-26.1200 
G01 X-31.8600 Y-26.1176 
G01 X-31.8600 Y-28.1266 
G01 X-31.9514 Y-28.6504 
G01 X-32.1884 Y-28.6480 
G01 X-32.2076 Y-28.6400 
G01 X-32.9618 Y-28.6400 
G01 X-33.0083 Y-28.6395 
G01 X-33.7184 Y-28.6400 
G01 X-33.7515 Y-28.6537 
G01 X-33.7768 Y-28.6790 
G01 X-33.7905 Y-28.7121 
G01 X-33.7905 Y-29.0479 
G01 X-33.7768 Y-29.0810 
G01 X-33.7515 Y-29.1063 
G01 X-33.7184 Y-29.1200 
G01 X-32.9644 Y-29.1200 
G01 X-31.9900 Y-29.1300 
G01 X-31.9900 Y-32.6560 
G01 X-32.1764 Y-32.6529 
G01 X-32.2076 Y-32.6400 
G01 X-32.9611 Y-32.6400 
G01 X-33.0068 Y-32.6392 
G01 X-33.7184 Y-32.6400 
G01 X-33.7515 Y-32.6537 
G01 X-33.7768 Y-32.6790 
G01 X-33.7905 Y-32.7121 
G01 X-33.7905 Y-33.0479 
G01 X-33.7768 Y-33.0810 
G01 X-33.7515 Y-33.1063 
G01 X-33.7184 Y-33.1200 
G01 X-32.9650 Y-33.1200 
G01 X-31.9900 Y-33.1361 
G01 X-31.9900 Y-33.6108 
G01 X-31.9900 Y-33.6584 
G01 X-31.9900 Y-33.7027 
G01 X-31.9704 Y-33.7500 
G01 X-31.9535 Y-33.7909 
G01 X-31.9173 Y-33.8271 
G01 X-31.8859 Y-33.8585 
G01 X-31.8387 Y-33.8780 
G01 X-31.7977 Y-33.8950 
G01 X-31.7466 Y-33.8950 
G01 X-31.7023 Y-33.8950 
G01 X-30.2145 Y-33.8519 
G01 X-30.2146 Y-34.1117 
G01 X-30.2150 Y-34.8656 
G01 X-30.2150 Y-34.9156 
G01 X-30.2150 Y-35.6234 
G01 X-30.2013 Y-35.6565 
G01 X-30.1760 Y-35.6818 
G01 X-30.1429 Y-35.6955 
G01 X-29.8071 Y-35.6955 
G01 X-29.7740 Y-35.6818 
G01 X-29.7487 Y-35.6565 
G01 X-29.7350 Y-35.6234 
G01 X-29.7350 Y-34.8652 
G01 X-29.7345 Y-33.8185 
G01 X-29.4052 Y-33.7800 
G01 X-25.2168 Y-33.7800 
G01 X-25.2150 Y-34.8682 
G01 X-25.2150 Y-35.6234 
G01 X-25.2013 Y-35.6565 
G01 X-25.1760 Y-35.6818 
G01 X-25.1429 Y-35.6955 
G01 X-24.8071 Y-35.6955 
G01 X-24.7740 Y-35.6818 
G01 X-24.7487 Y-35.6565 
G01 X-24.7350 Y-35.6234 
G01 X-24.7350 Y-34.9155 
G01 X-24.7350 Y-34.8672 
G01 X-24.7350 Y-34.1126 
G01 X-24.7377 Y-33.2600 
G01 X-19.2221 Y-33.2600 
G01 X-19.2150 Y-34.8687 
G01 X-19.2150 Y-35.5044 
G01 X-19.2261 Y-35.8126 
G01 X-19.2959 Y-35.8636 
G01 X-19.3612 Y-35.9446 
G01 X-19.8407 Y-37.0289 
G01 X-20.9736 Y-39.5106 
G01 X-22.9219 Y-40.4341 
G01 X-22.9438 Y-40.4408 
G01 X-22.9681 Y-40.4560 
G01 X-22.9941 Y-40.4683 
G01 X-23.0115 Y-40.4831 
G01 X-23.0309 Y-40.4952 
G01 X-23.0504 Y-40.5162 
G01 X-23.0723 Y-40.5348 
G01 X-23.0853 Y-40.5536 
G01 X-23.1009 Y-40.5703 
G01 X-23.1144 Y-40.5957 
G01 X-23.1307 Y-40.6193 
G01 X-23.1384 Y-40.6408 
G01 X-23.1491 Y-40.6610 
G01 X-23.1555 Y-40.6890 
G01 X-23.1652 Y-40.7160 
G01 X-23.1670 Y-40.7388 
G01 X-23.2270 Y-40.9987 
G01 X-23.5770 Y-40.9987 
G01 X-23.6101 Y-41.0124 
G01 X-23.6354 Y-41.0377 
G01 X-23.6491 Y-41.0708 
G01 X-23.6491 Y-42.5066 
G01 X-23.6354 Y-42.5397 
G01 X-23.6101 Y-42.5650 
G01 X-23.5770 Y-42.5787 
G01 X-23.3818 Y-42.5787 
G01 X-23.3588 Y-43.6270 
G01 X-23.5192 Y-43.6270 
G01 X-23.5523 Y-43.6407 
G01 X-23.5776 Y-43.6660 
G01 X-23.5913 Y-43.6991 
G01 X-23.5913 Y-45.1349 
G01 X-23.5776 Y-45.1680 
G01 X-23.5523 Y-45.1933 
G01 X-23.5192 Y-45.2070 
G01 X-22.3834 Y-45.2070 
G01 X-22.3503 Y-45.1933 
G01 X-22.3250 Y-45.1680 
G01 X-22.3113 Y-45.1349 
G01 X-22.3113 Y-43.6991 
G01 X-22.3250 Y-43.6660 
G01 X-22.3503 Y-43.6407 
G01 X-22.3834 Y-43.6270 
G01 X-22.5786 Y-43.6270 
G01 X-22.6016 Y-42.5787 
G01 X-22.4412 Y-42.5787 
G01 X-22.4081 Y-42.5650 
G01 X-22.3828 Y-42.5397 
G01 X-22.3691 Y-42.5066 
G01 X-22.3691 Y-41.0708 
G01 X-22.3814 Y-41.0411 
G01 X-20.5700 Y-40.1825 
G01 X-20.4845 Y-40.1506 
G01 X-20.3998 Y-40.0903 
G01 X-20.3336 Y-40.0101 
G01 X-19.1420 Y-37.3997 
G01 X-19.1204 Y-37.3524 
G01 X-19.0998 Y-37.3073 
G01 X-18.6390 Y-36.2640 
G01 X-18.6230 Y-36.1613 
G01 X-18.6341 Y-36.0579 
G01 X-18.6716 Y-35.9609 
G01 X-18.7329 Y-35.8770 
G01 X-18.7924 Y-35.8291 
G01 X-18.7873 Y-35.6873 
G01 X-18.7740 Y-35.6818 
G01 X-18.7487 Y-35.6565 
G01 X-18.7350 Y-35.6234 
G01 X-18.7350 Y-34.9152 
G01 X-18.7350 Y-34.8675 
G01 X-18.7350 Y-34.1126 
G01 X-18.7421 Y-33.2600 
G01 X-12.6523 Y-33.2600 
G01 X-12.5640 Y-33.2235 
G01 X-12.4965 Y-33.1559 
G01 X-12.4600 Y-33.0677 
G01 X-12.4600 Y-27.1225 
G01 X-11.4870 Y-27.1200 
G01 X-10.7316 Y-27.1200 
G01 X-10.6985 Y-27.1063 
G01 X-10.6865 Y-27.0942 
G01 X-10.2691 Y-27.0938 
G01 X-10.2023 Y-27.1198 
G01 X-7.4985 Y-27.0581 
G01 X-6.3090 Y-27.9804 
G01 X-6.2859 Y-28.0035 
G01 X-6.2716 Y-28.0094 
G01 X-6.2593 Y-28.0189 
G01 X-6.2279 Y-28.0275 
G01 X-6.1977 Y-28.0400 
G01 X-6.1822 Y-28.0400 
G01 X-6.1672 Y-28.0441 
G01 X-6.1349 Y-28.0400 
G01 X-4.1378 Y-28.0400 
G01 X-4.0904 Y-28.0400 
G01 X-4.0523 Y-28.0400 
G01 X-4.0332 Y-28.0354 
G01 X-3.9993 Y-28.0181 
G01 X-3.9640 Y-28.0035 
G01 X-2.8140 Y-27.4120 
G01 X-2.7802 Y-27.3986 
G01 X-2.7614 Y-27.3851 
G01 X-2.7378 Y-27.3574 
G01 X-2.7117 Y-27.3321 
G01 X-2.7070 Y-27.3213 
G01 X-2.6883 Y-27.2778 
G01 X-2.6739 Y-27.2444 
G01 X-2.6737 Y-27.2327 
G01 X-2.6701 Y-27.2215 
G01 X-2.6730 Y-27.1853 
G01 X-2.6627 Y-26.4860 
G01 X-2.5463 Y-26.4860 
G01 X-2.5133 Y-26.4723 
G01 X-2.4880 Y-26.4470 
G01 X-2.4743 Y-26.4139 
G01 X-2.4743 Y-24.7281 
G01 X-2.4880 Y-24.6950 
G01 X-2.5133 Y-24.6697 
G01 X-2.5463 Y-24.6560 
G01 X-3.2321 Y-24.6560 
G01 X-3.2652 Y-24.6697 
G01 X-3.2905 Y-24.6950 
G01 X-3.3042 Y-24.7281 
G01 X-3.3042 Y-26.4139 
G01 X-3.2905 Y-26.4470 
G01 X-3.2652 Y-26.4723 
G01 X-3.2321 Y-26.4860 
G01 X-3.1427 Y-26.4860 
G01 X-3.1510 Y-27.0452 
G01 X-4.1578 Y-27.5600 
G01 X-6.0679 Y-27.5600 
G01 X-7.2619 Y-26.6342 
G01 X-7.2875 Y-26.6097 
G01 X-7.2994 Y-26.6051 
G01 X-7.3094 Y-26.5973 
G01 X-7.3435 Y-26.5880 
G01 X-7.3765 Y-26.5752 
G01 X-7.3892 Y-26.5755 
G01 X-7.4015 Y-26.5722 
G01 X-7.4366 Y-26.5766 
G01 X-10.2132 Y-26.6399 
G01 X-10.2675 Y-26.6639 
G01 X-10.6880 Y-26.6642 
G01 X-10.6985 Y-26.6537 
G01 X-10.7316 Y-26.6400 
G01 X-11.4396 Y-26.6400 
G01 X-11.4873 Y-26.6400 
G01 X-12.2424 Y-26.6400 
G01 X-12.4600 Y-26.6425 
G01 X-12.4600 Y-24.6105 
G01 X-12.2607 Y-24.6124 
G01 X-12.2424 Y-24.6200 
G01 X-11.4882 Y-24.6200 
G01 X-11.4416 Y-24.6205 
G01 X-10.7316 Y-24.6200 
G01 X-10.6985 Y-24.6063 
G01 X-10.6732 Y-24.5810 
G01 X-10.6595 Y-24.5479 
G01 X-10.6595 Y-24.2121 
G01 X-10.6732 Y-24.1790 
G01 X-10.6985 Y-24.1537 
G01 X-10.7316 Y-24.1400 
G01 X-11.4857 Y-24.1400 
G01 X-12.4600 Y-24.1305 
G01 X-12.4600 Y-21.6210 
G01 X-11.4883 Y-21.6200 
G01 X-10.7316 Y-21.6200 
G01 X-10.6985 Y-21.6063 
G01 X-10.6732 Y-21.5810 
G01 X-10.6595 Y-21.5479 
G01 X-10.6595 Y-21.2121 
G01 X-10.6732 Y-21.1790 
G01 X-10.6985 Y-21.1537 
G01 X-10.7316 Y-21.1400 
G01 X-11.4394 Y-21.1400 
G01 X-11.4871 Y-21.1400 
G01 X-12.2424 Y-21.1400 
G01 X-12.4600 Y-21.1410 
G01 X-12.4600 Y-17.6225 
G01 X-11.4868 Y-17.6200 
G01 X-10.7316 Y-17.6200 
G01 X-10.6985 Y-17.6063 
G01 X-10.6732 Y-17.5810 
G01 X-10.6595 Y-17.5479 
G01 X-10.6595 Y-17.2121 
G01 X-10.6732 Y-17.1790 
G01 X-10.6985 Y-17.1537 
G01 X-10.7316 Y-17.1400 
G01 X-11.4396 Y-17.1400 
G01 X-11.4875 Y-17.1400 
G01 X-12.2424 Y-17.1400 
G01 X-12.4600 Y-17.1425 
G01 X-12.4600 Y-14.5573 
G01 X-12.4965 Y-14.4690 
G01 X-12.5640 Y-14.4015 
G01 X-12.6523 Y-14.3650 
G01 X-13.2099 Y-14.3650 
G01 X-13.2350 Y-13.3889 
G01 X-13.2350 Y-12.6366 
G01 X-13.2487 Y-12.6035 
G01 X-13.2740 Y-12.5782 
G01 X-13.3071 Y-12.5645 
G01 X-13.6429 Y-12.5645 
G01 X-13.6760 Y-12.5782 
G01 X-13.7013 Y-12.6035 
G01 X-13.7150 Y-12.6366 
G01 X-13.7150 Y-13.3475 
G01 X-13.7150 Y-13.3951 
G01 X-13.7150 Y-14.1474 
G01 X-13.7013 Y-14.1805 
G01 X-13.6883 Y-14.4299 
G01 X-13.9128 Y-14.5000 
G01 X-15.2369 Y-14.5000 
G01 X-15.2363 Y-14.1505 
G01 X-15.2350 Y-13.3931 
G01 X-15.2349 Y-13.3447 
G01 X-15.2350 Y-12.6366 
G01 X-15.2487 Y-12.6035 
G01 X-15.2740 Y-12.5782 
G01 X-15.3071 Y-12.5645 
G01 X-15.6429 Y-12.5645 
G01 X-15.6760 Y-12.5782 
G01 X-15.7013 Y-12.6035 
G01 X-15.7150 Y-12.6366 
G01 X-15.7150 Y-13.3915 
G01 X-15.7169 Y-14.5000 
G01 X-19.4879 Y-14.5000 
G01 X-19.5210 Y-14.5137 
G01 X-19.5463 Y-14.5390 
G01 X-19.5600 Y-14.5721 
G01 X-19.5600 Y-14.9536 
G01 X-22.2247 Y-14.9233 
G01 X-22.2350 Y-13.3912 
G01 X-22.2350 Y-12.6366 
G01 X-22.2487 Y-12.6035 
G01 X-22.2695 Y-12.5827 
G01 X-22.2716 Y-12.4851 
G01 X-22.2408 Y-12.4482 
G01 X-22.2083 Y-12.3781 
G01 X-22.1951 Y-12.3021 
G01 X-22.2021 Y-12.2252 
G01 X-22.2287 Y-12.1527 
G01 X-22.2731 Y-12.0896 
G01 X-22.5818 Y-11.8321 
G01 X-22.6066 Y-11.7395 
G01 X-22.6579 Y-11.6505 
G01 X-22.7305 Y-11.5779 
G01 X-22.8195 Y-11.5266 
G01 X-22.9187 Y-11.5000 
G01 X-24.4498 Y-11.5000 
G01 X-24.4808 Y-11.4968 
G01 X-24.5009 Y-11.5000 
G01 X-24.5213 Y-11.5000 
G01 X-24.5514 Y-11.5081 
G01 X-24.5822 Y-11.5130 
G01 X-24.6008 Y-11.5213 
G01 X-24.6205 Y-11.5266 
G01 X-24.6475 Y-11.5421 
G01 X-24.6760 Y-11.5549 
G01 X-24.6918 Y-11.5677 
G01 X-24.7095 Y-11.5779 
G01 X-24.7315 Y-11.5999 
G01 X-24.9496 Y-11.7770 
G01 X-27.0738 Y-9.6795 
G01 X-27.0738 Y-5.9216 
G01 X-27.0738 Y-5.8703 
G01 X-27.0738 Y-5.8224 
G01 X-27.0879 Y-5.7694 
G01 X-27.1003 Y-5.7232 
G01 X-27.1277 Y-5.6758 
G01 X-27.1517 Y-5.6343 
G01 X-27.1905 Y-5.5955 
G01 X-27.2243 Y-5.5617 
G01 X-27.2718 Y-5.5343 
G01 X-27.3132 Y-5.5103 
G01 X-28.7375 Y-4.7224 
G01 X-28.7375 Y-4.1627 
G01 X-28.7512 Y-4.1296 
G01 X-28.7765 Y-4.1043 
G01 X-28.8096 Y-4.0906 
G01 X-30.2454 Y-4.0906 
G01 X-30.2785 Y-4.1043 
G01 X-30.3038 Y-4.1296 
G01 X-30.3175 Y-4.1627 
G01 X-30.3175 Y-4.3532 
G01 X-33.5580 Y-4.4050 
G01 X-38.6551 Y-4.4050 
G01 X-38.7414 Y-1.9108 
G01 X-38.7394 Y-1.8789 
G01 X-38.7432 Y-1.8597 
G01 X-38.7439 Y-1.8402 
G01 X-38.7532 Y-1.8096 
G01 X-38.7595 Y-1.7782 
G01 X-38.7682 Y-1.7607 
G01 X-38.7739 Y-1.7420 
G01 X-38.7908 Y-1.7148 
G01 X-38.8050 Y-1.6861 
G01 X-38.8179 Y-1.6714 
G01 X-38.8283 Y-1.6549 
G01 X-38.8517 Y-1.6330 
G01 X-38.8728 Y-1.6090 
G01 X-38.8891 Y-1.5981 
G01 X-38.9033 Y-1.5848 
G01 X-38.9316 Y-1.5698 
G01 X-39.2341 Y-1.3681 
G01 X-38.8900 Y-1.0240 
G01 X-32.6561 Y-0.9861 
G01 X-32.6557 Y-1.4679 
G01 X-32.6847 Y-1.4800 
G01 X-32.7100 Y-1.5053 
G01 X-32.7237 Y-1.5383 
G01 X-32.7237 Y-2.8742 
G01 X-32.7100 Y-2.9072 
G01 X-32.6847 Y-2.9325 
G01 X-32.6516 Y-2.9462 
G01 X-31.6658 Y-2.9462 
G01 X-31.6328 Y-2.9325 
G01 X-31.6075 Y-2.9072 
G01 X-31.5938 Y-2.8742 
G01 X-31.5938 Y-1.5383 
G01 X-31.6075 Y-1.5053 
G01 X-31.6328 Y-1.4800 
G01 X-31.6629 Y-1.4675 
G01 X-31.6633 Y-0.9835 
G01 X-22.8174 Y-0.9908 
G01 X-22.8155 Y-1.4689 
G01 X-22.8422 Y-1.4800 
G01 X-22.8675 Y-1.5053 
G01 X-22.8812 Y-1.5383 
G01 X-22.8812 Y-2.8742 
G01 X-22.8675 Y-2.9072 
G01 X-22.8422 Y-2.9325 
G01 X-22.8091 Y-2.9462 
G01 X-21.8233 Y-2.9462 
G01 X-21.7903 Y-2.9325 
G01 X-21.7649 Y-2.9072 
G01 X-21.7512 Y-2.8742 
G01 X-21.7512 Y-2.3435 
G01 X-21.2157 Y-2.0530 
G01 X-20.3130 Y-2.0575 
G01 X-20.1600 Y-2.0626 
G01 X-20.1600 Y-3.9079 
G01 X-20.1463 Y-3.9410 
G01 X-20.1210 Y-3.9663 
G01 X-20.0879 Y-3.9800 
G01 X-19.3781 Y-3.9800 
G01 X-19.3781 Y-4.7804 
G01 X-19.3644 Y-4.8135 
G01 X-19.3391 Y-4.8388 
G01 X-19.3060 Y-4.8525 
G01 X-16.7666 Y-4.8525 
G01 X-16.7653 Y-4.8900 
G01 X-16.8454 Y-4.8900 
G01 X-16.8785 Y-4.9037 
G01 X-16.9038 Y-4.9290 
G01 X-16.9175 Y-4.9621 
G01 X-16.9175 Y-6.7442 
G01 X-16.9038 Y-6.7772 
G01 X-16.8785 Y-6.8025 
G01 X-16.8454 Y-6.8162 
G01 X-16.1746 Y-6.8162 
G01 X-16.1415 Y-6.8025 
G01 X-16.1162 Y-6.7772 
G01 X-16.1025 Y-6.7442 
G01 X-16.1025 Y-4.9621 
G01 X-16.1162 Y-4.9290 
G01 X-16.1415 Y-4.9037 
G01 X-16.1746 Y-4.8900 
G01 X-16.1799 Y-4.8525 
G01 X-10.9358 Y-4.8525 
G01 X-10.9028 Y-4.8388 
G01 X-10.8774 Y-4.8135 
G01 X-10.8637 Y-4.7804 
G01 X-10.8637 Y-3.9800 
G01 X-10.1521 Y-3.9800 
G01 X-10.1190 Y-3.9663 
G01 X-10.0937 Y-3.9410 
G01 X-10.0800 Y-3.9079 
G01 X-10.0800 Y-1.0122 
G01 X-2.6641 Y-1.0249 
G01 X-1.9775 Y-1.1834 
G01 X-1.9775 Y-12.3100 
G01 X-2.3600 Y-12.3100 
G01 X-2.3600 Y-11.7321 
G01 X-2.3737 Y-11.6990 
G01 X-2.3990 Y-11.6737 
G01 X-2.4321 Y-11.6600 
G01 X-4.7679 Y-11.6600 
G01 X-4.8010 Y-11.6737 
G01 X-4.8263 Y-11.6990 
G01 X-4.8400 Y-11.7321 
G01 X-4.8400 Y-12.3100 
G01 X-5.3100 Y-12.3100 
G01 X-5.3100 Y-11.7321 
G01 X-5.3237 Y-11.6990 
G01 X-5.3490 Y-11.6737 
G01 X-5.3821 Y-11.6600 
G01 X-7.7179 Y-11.6600 
G01 X-7.7510 Y-11.6737 
G01 X-7.7763 Y-11.6990 
G01 X-7.7900 Y-11.7321 
G01 X-7.7900 Y-13.6179 
G01 X-7.7763 Y-13.6510 
G01 X-7.7510 Y-13.6763 
G01 X-7.7179 Y-13.6900 
G01 X-6.7804 Y-13.6900 
G01 X-6.7660 Y-13.7044 
G01 X-5.9340 Y-13.7044 
G01 X-5.9196 Y-13.6900 
G01 X-5.3821 Y-13.6900 
G01 X-5.3490 Y-13.6763 
G01 X-5.3237 Y-13.6510 
G01 X-5.3100 Y-13.6179 
G01 X-5.3100 Y-13.0900 
G01 X-4.8400 Y-13.0900 
G01 X-4.8400 Y-13.6179 
G01 X-4.8263 Y-13.6510 
G01 X-4.8010 Y-13.6763 
G01 X-4.7679 Y-13.6900 
G01 X-4.2404 Y-13.6900 
G01 X-4.2260 Y-13.7044 
G01 X-3.3940 Y-13.7044 
G01 X-3.3796 Y-13.6900 
G01 X-2.4321 Y-13.6900 
G01 X-2.3990 Y-13.6763 
G01 X-2.3737 Y-13.6510 
G01 X-2.3600 Y-13.6179 
G01 X-2.3600 Y-13.0900 
G01 X-1.9775 Y-13.0900 
G01 X-1.9775 Y-41.5200 
G01 X-2.4600 Y-41.5200 
G01 X-2.4600 Y-41.0321 
G01 X-2.4737 Y-40.9990 
G01 X-2.4990 Y-40.9737 
G01 X-2.5321 Y-40.9600 
G01 X-3.2896 Y-40.9600 
G01 X-3.3440 Y-40.9056 
G01 X-4.1760 Y-40.9056 
G01 X-4.2304 Y-40.9600 
G01 X-4.8179 Y-40.9600 
G01 X-4.8510 Y-40.9737 
G01 X-4.8763 Y-40.9990 
G01 X-4.8900 Y-41.0321 
G01 X-4.8900 Y-41.5200 
G01 X-5.0600 Y-41.5200 
G01 X-5.0600 Y-40.9821 
G01 X-5.0737 Y-40.9490 
G01 X-5.0990 Y-40.9237 
G01 X-5.1321 Y-40.9100 
G01 X-5.8796 Y-40.9100 
G01 X-6.7160 Y-40.9056 
G01 X-7.4179 Y-40.9100 
G01 X-7.4510 Y-40.9237 
G01 X-7.4763 Y-40.9490 
G01 X-7.4900 Y-40.9821 
G01 X-7.4900 Y-42.1859 
G01 X-7.9804 Y-42.4884 
G01 X-8.7972 Y-42.8234 
G01 X-8.8000 Y-42.5271 
G01 X-8.8137 Y-42.4940 
G01 X-8.8390 Y-42.4687 
G01 X-8.8721 Y-42.4550 
G01 X-9.1175 Y-42.4550 
G01 X-9.1175 Y-42.3683 
G01 X-9.1312 Y-42.3353 
G01 X-9.1565 Y-42.3100 
G01 X-9.1896 Y-42.2963 
G01 X-11.7654 Y-42.2963 
G01 X-11.7985 Y-42.3100 
G01 X-11.8238 Y-42.3353 
G01 X-11.8375 Y-42.3683 
G01 X-11.8375 Y-43.2825 
G01 X-11.9750 Y-43.2825 
G01 X-11.9750 Y-42.3683 
G01 X-11.9887 Y-42.3353 
G01 X-12.0140 Y-42.3100 
G01 X-12.0471 Y-42.2963 
G01 X-14.6229 Y-42.2963 
G01 X-14.6560 Y-42.3100 
G01 X-14.6813 Y-42.3353 
G01 X-14.6950 Y-42.3683 
G01 X-14.6950 Y-42.3999 
G01 X-14.8216 Y-42.3852 
G01 X-14.8544 Y-42.3900 
G01 X-15.1483 Y-42.1845 
G01 X-15.1483 Y-41.0791 
G01 X-15.1620 Y-41.0460 
G01 X-15.1873 Y-41.0207 
G01 X-15.2204 Y-41.0070 
G01 X-16.6562 Y-41.0070 
G01 X-16.6893 Y-41.0207 
G01 X-16.7146 Y-41.0460 
G01 X-16.7283 Y-41.0791 
G01 X-16.7283 Y-42.7149 
G01 X-16.7146 Y-42.7480 
G01 X-16.6893 Y-42.7733 
G01 X-16.6562 Y-42.7870 
G01 X-15.2204 Y-42.7870 
G01 X-15.1873 Y-42.7733 
G01 X-15.1620 Y-42.7480 
G01 X-15.1483 Y-42.7149 
G01 X-15.1040 Y-42.7451 
G01 X-15.1015 Y-42.7618 
G01 X-15.0709 Y-42.8327 
G01 X-15.0230 Y-42.8932 
G01 X-14.9610 Y-42.9392 
G01 X-14.8893 Y-42.9677 
G01 X-14.6950 Y-42.9902 
G01 X-14.6950 Y-44.7854 
G01 X-14.6813 Y-44.8185 
G01 X-14.6560 Y-44.8438 
G01 X-14.6229 Y-44.8575 
G01 X-12.0471 Y-44.8575 
G01 X-12.0140 Y-44.8438 
G01 X-11.9887 Y-44.8185 
G01 X-11.9750 Y-44.7854 
G01 X-11.9750 Y-43.7125 
G01 X-11.8375 Y-43.7125 
G01 X-11.8375 Y-44.7854 
G01 X-11.8238 Y-44.8185 
G01 X-11.7985 Y-44.8438 
G01 X-11.7654 Y-44.8575 
G01 X-9.1896 Y-44.8575 
G01 X-9.1565 Y-44.8438 
G01 X-9.1312 Y-44.8185 
G01 X-9.1175 Y-44.7854 
G01 X-9.1175 Y-44.6987 
G01 X-8.8721 Y-44.6987 
G01 X-8.8390 Y-44.6850 
G01 X-8.8137 Y-44.6597 
G01 X-8.8000 Y-44.6266 
G01 X-8.8000 Y-43.5044 
G01 X-8.7048 Y-43.5444 
G01 X-8.6031 Y-43.5581 
G01 X-8.5012 Y-43.5451 
G01 X-7.6726 Y-43.2052 
G01 X-7.6418 Y-43.1960 
G01 X-7.6253 Y-43.1858 
G01 X-7.6074 Y-43.1784 
G01 X-7.5818 Y-43.1590 
G01 X-7.1458 Y-42.8900 
G01 X-6.7404 Y-42.8900 
G01 X-6.7160 Y-42.9144 
G01 X-5.8840 Y-42.9144 
G01 X-5.8596 Y-42.8900 
G01 X-5.1321 Y-42.8900 
G01 X-5.0990 Y-42.8763 
G01 X-5.0737 Y-42.8510 
G01 X-5.0600 Y-42.8179 
G01 X-5.0600 Y-42.3000 
G01 X-4.8900 Y-42.3000 
G01 X-4.8900 Y-42.8679 
G01 X-4.8763 Y-42.9010 
G01 X-4.8510 Y-42.9263 
G01 X-4.8179 Y-42.9400 
G01 X-2.5321 Y-42.9400 
G01 X-2.4990 Y-42.9263 
G01 X-2.4737 Y-42.9010 
G01 X-2.4600 Y-42.8679 
G01 X-2.4600 Y-42.3000 
G01 X-1.5362 Y-42.3000 
G01 X-1.4370 Y-42.2734 
G01 X-1.3480 Y-42.2221 
G01 X-1.2754 Y-42.1495 
G01 X-1.2241 Y-42.0605 
G01 X-1.1975 Y-41.9613 
G01 X-1.1975 Y-0.9175 
G01 X-1.1975 Y-0.8663 
G01 X-1.1975 Y-0.8218 
G01 X-1.1995 Y-0.8082 
G01 X-1.2126 Y-0.7656 
G01 X-1.2241 Y-0.7226 
G01 X-1.2296 Y-0.7100 
G01 X-1.2532 Y-0.6722 
G01 X-1.2754 Y-0.6337 
G01 X-1.2840 Y-0.6229 
G00 Z1.0000 
G00 X-2.3737 Y-1.5490 
G01 Z-0.0800 F50.00 
G01 X-2.3990 Y-1.5237 F100.00 
G01 X-2.4321 Y-1.5100 
G01 X-4.2187 Y-1.5100 
G01 X-4.5458 Y-1.1498 
G01 X-4.6322 Y-1.0942 
G01 X-4.7300 Y-1.0629 
G01 X-4.8326 Y-1.0580 
G01 X-4.8672 Y-1.0655 
G01 X-4.9148 Y-1.0458 
G01 X-4.9529 Y-1.0300 
G01 X-4.9659 Y-1.0278 
G01 X-5.0071 Y-1.0300 
G01 X-8.0776 Y-1.0300 
G01 X-8.1064 Y-1.0255 
G01 X-8.1249 Y-1.0300 
G01 X-8.1440 Y-1.0300 
G01 X-8.1709 Y-1.0411 
G01 X-8.1992 Y-1.0480 
G01 X-8.2146 Y-1.0592 
G01 X-8.2322 Y-1.0665 
G01 X-8.2528 Y-1.0871 
G01 X-8.2763 Y-1.1043 
G01 X-8.2862 Y-1.1206 
G01 X-8.2997 Y-1.1341 
G01 X-8.3109 Y-1.1609 
G01 X-12.3347 Y-7.7600 
G01 X-18.5227 Y-7.7600 
G01 X-18.6109 Y-7.7965 
G01 X-18.6785 Y-7.8640 
G01 X-18.7150 Y-7.9523 
G01 X-18.7150 Y-14.1474 
G01 X-18.7013 Y-14.1805 
G01 X-18.6760 Y-14.2058 
G01 X-18.6429 Y-14.2195 
G01 X-18.3071 Y-14.2195 
G01 X-18.2740 Y-14.2058 
G01 X-18.2487 Y-14.1805 
G01 X-18.2350 Y-14.1474 
G01 X-18.2350 Y-8.2400 
G01 X-12.2186 Y-8.2400 
G01 X-12.1898 Y-8.2445 
G01 X-12.1713 Y-8.2400 
G01 X-12.1523 Y-8.2400 
G01 X-12.1254 Y-8.2289 
G01 X-12.0971 Y-8.2220 
G01 X-12.0817 Y-8.2108 
G01 X-12.0640 Y-8.2035 
G01 X-12.0435 Y-8.1829 
G01 X-12.0199 Y-8.1657 
G01 X-12.0100 Y-8.1494 
G01 X-11.9965 Y-8.1359 
G01 X-11.9854 Y-8.1090 
G01 X-7.9615 Y-1.5100 
G01 X-5.1861 Y-1.5100 
G01 X-5.1702 Y-1.5829 
G01 X-5.1232 Y-1.6742 
G01 X-4.8400 Y-1.9860 
G01 X-4.8400 Y-3.4679 
G01 X-4.8263 Y-3.5010 
G01 X-4.8010 Y-3.5263 
G01 X-4.7679 Y-3.5400 
G01 X-4.2304 Y-3.5400 
G01 X-3.3940 Y-3.5444 
G01 X-2.4321 Y-3.5400 
G01 X-2.3990 Y-3.5263 
G01 X-2.3737 Y-3.5010 
G01 X-2.3600 Y-3.4679 
G01 X-2.3600 Y-1.5821 
G01 X-2.3737 Y-1.5490 
G00 Z1.0000 
G00 X-2.3737 Y-4.0990 
G01 Z-0.0800 F50.00 
G01 X-2.3990 Y-4.0737 F100.00 
G01 X-2.4321 Y-4.0600 
G01 X-4.1851 Y-4.0600 
G01 X-4.5405 Y-3.6544 
G01 X-4.6258 Y-3.5973 
G01 X-4.7231 Y-3.5642 
G01 X-4.8255 Y-3.5575 
G01 X-4.9263 Y-3.5774 
G01 X-4.9529 Y-3.5700 
G01 X-4.9745 Y-3.5700 
G01 X-4.9957 Y-3.5653 
G01 X-5.0218 Y-3.5700 
G01 X-7.8496 Y-3.5700 
G01 X-7.8676 Y-3.5656 
G01 X-7.8969 Y-3.5700 
G01 X-7.9265 Y-3.5700 
G01 X-7.9436 Y-3.5771 
G01 X-7.9620 Y-3.5799 
G01 X-7.9873 Y-3.5952 
G01 X-8.0147 Y-3.6065 
G01 X-8.0278 Y-3.6197 
G01 X-8.0437 Y-3.6293 
G01 X-8.0613 Y-3.6531 
G01 X-8.0822 Y-3.6740 
G01 X-8.0893 Y-3.6912 
G01 X-11.8213 Y-8.7600 
G01 X-17.5227 Y-8.7600 
G01 X-17.6109 Y-8.7965 
G01 X-17.6785 Y-8.8641 
G01 X-17.7150 Y-8.9523 
G01 X-17.7150 Y-14.1474 
G01 X-17.7013 Y-14.1805 
G01 X-17.6760 Y-14.2058 
G01 X-17.6429 Y-14.2195 
G01 X-17.3071 Y-14.2195 
G01 X-17.2740 Y-14.2058 
G01 X-17.2487 Y-14.1805 
G01 X-17.2350 Y-14.1474 
G01 X-17.2350 Y-9.2400 
G01 X-11.7292 Y-9.2400 
G01 X-11.7112 Y-9.2444 
G01 X-11.6819 Y-9.2400 
G01 X-11.6523 Y-9.2400 
G01 X-11.6351 Y-9.2329 
G01 X-11.6168 Y-9.2301 
G01 X-11.5914 Y-9.2148 
G01 X-11.5640 Y-9.2035 
G01 X-11.5509 Y-9.1903 
G01 X-11.5350 Y-9.1807 
G01 X-11.5175 Y-9.1569 
G01 X-11.4965 Y-9.1359 
G01 X-11.4894 Y-9.1188 
G01 X-7.7574 Y-4.0500 
G01 X-5.1778 Y-4.0500 
G01 X-5.1726 Y-4.0763 
G01 X-5.1272 Y-4.1684 
G01 X-4.8400 Y-4.4962 
G01 X-4.8400 Y-6.0179 
G01 X-4.8263 Y-6.0510 
G01 X-4.8010 Y-6.0763 
G01 X-4.7679 Y-6.0900 
G01 X-2.4321 Y-6.0900 
G01 X-2.3990 Y-6.0763 
G01 X-2.3737 Y-6.0510 
G01 X-2.3600 Y-6.0179 
G01 X-2.3600 Y-4.1321 
G01 X-2.3737 Y-4.0990 
G00 Z1.0000 
G00 X-2.3737 Y-6.6490 
G01 Z-0.0800 F50.00 
G01 X-2.3990 Y-6.6237 F100.00 
G01 X-2.4321 Y-6.6100 
G01 X-4.2478 Y-6.6100 
G01 X-4.6061 Y-6.2414 
G01 X-4.6943 Y-6.1888 
G01 X-4.7931 Y-6.1608 
G01 X-4.8504 Y-6.1600 
G01 X-4.8647 Y-6.1465 
G01 X-4.8932 Y-6.1347 
G01 X-4.9199 Y-6.1190 
G01 X-4.9370 Y-6.1166 
G01 X-4.9529 Y-6.1100 
G01 X-4.9838 Y-6.1100 
G01 X-5.0144 Y-6.1057 
G01 X-5.0311 Y-6.1100 
G01 X-7.7864 Y-6.1100 
G01 X-7.8339 Y-6.1100 
G01 X-7.8765 Y-6.1100 
G01 X-7.8869 Y-6.1123 
G01 X-7.9254 Y-6.1303 
G01 X-7.9647 Y-6.1465 
G01 X-8.0021 Y-6.1840 
G01 X-8.0322 Y-6.2141 
G01 X-11.2806 Y-9.7600 
G01 X-16.5227 Y-9.7600 
G01 X-16.6109 Y-9.7965 
G01 X-16.6785 Y-9.8641 
G01 X-16.7150 Y-9.9523 
G01 X-16.7150 Y-14.1474 
G01 X-16.7013 Y-14.1805 
G01 X-16.6760 Y-14.2058 
G01 X-16.6429 Y-14.2195 
G01 X-16.3071 Y-14.2195 
G01 X-16.2740 Y-14.2058 
G01 X-16.2487 Y-14.1805 
G01 X-16.2350 Y-14.1474 
G01 X-16.2350 Y-10.2400 
G01 X-11.2173 Y-10.2400 
G01 X-11.1698 Y-10.2400 
G01 X-11.1273 Y-10.2400 
G01 X-11.1169 Y-10.2377 
G01 X-11.0783 Y-10.2197 
G01 X-11.0390 Y-10.2035 
G01 X-11.0016 Y-10.1660 
G01 X-10.9715 Y-10.1359 
G01 X-7.7232 Y-6.5900 
G01 X-5.2406 Y-6.5900 
G01 X-5.2155 Y-6.6954 
G01 X-5.1654 Y-6.7850 
G01 X-4.8400 Y-7.1198 
G01 X-4.8400 Y-8.5679 
G01 X-4.8263 Y-8.6010 
G01 X-4.8010 Y-8.6263 
G01 X-4.7679 Y-8.6400 
G01 X-2.4321 Y-8.6400 
G01 X-2.3990 Y-8.6263 
G01 X-2.3737 Y-8.6010 
G01 X-2.3600 Y-8.5679 
G01 X-2.3600 Y-6.6821 
G01 X-2.3737 Y-6.6490 
G00 Z1.0000 
G00 X-2.3737 Y-9.1490 
G01 Z-0.0800 F50.00 
G01 X-2.3990 Y-9.1237 F100.00 
G01 X-2.4321 Y-9.1100 
G01 X-4.2570 Y-9.1100 
G01 X-4.5500 Y-8.7963 
G01 X-4.6372 Y-8.7419 
G01 X-4.7354 Y-8.7120 
G01 X-4.8380 Y-8.7085 
G01 X-4.8601 Y-8.6897 
G01 X-4.9063 Y-8.6693 
G01 X-4.9474 Y-8.6512 
G01 X-4.9979 Y-8.6500 
G01 X-5.0429 Y-8.6490 
G01 X-7.7594 Y-8.6500 
G01 X-7.7873 Y-8.6455 
G01 X-7.8067 Y-8.6500 
G01 X-7.8265 Y-8.6500 
G01 X-7.8527 Y-8.6609 
G01 X-7.8803 Y-8.6674 
G01 X-7.8964 Y-8.6789 
G01 X-7.9147 Y-8.6865 
G01 X-7.9347 Y-8.7066 
G01 X-10.8912 Y-10.8360 
G01 X-14.0252 Y-11.4045 
G01 X-14.0719 Y-11.4130 
G01 X-14.1098 Y-11.4199 
G01 X-14.1269 Y-11.4274 
G01 X-14.1577 Y-11.4507 
G01 X-14.1901 Y-11.4716 
G01 X-14.2030 Y-11.4851 
G01 X-14.2225 Y-11.5183 
G01 X-14.2445 Y-11.5500 
G01 X-14.6665 Y-12.2771 
G01 X-14.6785 Y-12.2890 
G01 X-14.6904 Y-12.3180 
G01 X-14.7062 Y-12.3450 
G01 X-14.7085 Y-12.3617 
G01 X-14.7150 Y-12.3773 
G01 X-14.7150 Y-12.4086 
G01 X-14.7193 Y-12.4396 
G01 X-14.7150 Y-12.4559 
G01 X-14.7150 Y-13.4397 
G01 X-14.7150 Y-14.1474 
G01 X-14.7013 Y-14.1805 
G01 X-14.6760 Y-14.2058 
G01 X-14.6429 Y-14.2195 
G01 X-14.3071 Y-14.2195 
G01 X-14.2740 Y-14.2058 
G01 X-14.2487 Y-14.1805 
G01 X-14.2350 Y-14.1474 
G01 X-14.2350 Y-12.4901 
G01 X-13.8686 Y-11.8639 
G01 X-10.7928 Y-11.3060 
G01 X-10.7460 Y-11.2975 
G01 X-10.7052 Y-11.2901 
G01 X-10.6935 Y-11.2851 
G01 X-10.6598 Y-11.2609 
G01 X-10.6249 Y-11.2384 
G01 X-7.7013 Y-9.1300 
G01 X-5.1912 Y-9.1300 
G01 X-5.1683 Y-9.2380 
G01 X-5.1201 Y-9.3287 
G01 X-4.8400 Y-9.6285 
G01 X-4.8400 Y-11.0679 
G01 X-4.8263 Y-11.1010 
G01 X-4.8010 Y-11.1263 
G01 X-4.7679 Y-11.1400 
G01 X-4.2504 Y-11.1400 
G01 X-4.2260 Y-11.1644 
G01 X-3.3940 Y-11.1644 
G01 X-3.3696 Y-11.1400 
G01 X-2.4321 Y-11.1400 
G01 X-2.3990 Y-11.1263 
G01 X-2.3737 Y-11.1010 
G01 X-2.3600 Y-11.0679 
G01 X-2.3600 Y-9.1821 
G01 X-2.3737 Y-9.1490 
G00 Z1.0000 
G00 X-5.3237 Y-9.1990 
G01 Z-0.0800 F50.00 
G01 X-5.3490 Y-9.1737 F100.00 
G01 X-5.3821 Y-9.1600 
G01 X-5.9296 Y-9.1600 
G01 X-6.7660 Y-9.1556 
G01 X-7.7179 Y-9.1600 
G01 X-7.7510 Y-9.1737 
G01 X-7.7763 Y-9.1990 
G01 X-7.7900 Y-9.2321 
G01 X-7.7900 Y-9.7647 
G01 X-7.9895 Y-9.7586 
G01 X-8.0895 Y-9.7822 
G01 X-8.1799 Y-9.8308 
G01 X-8.2547 Y-9.9012 
G01 X-8.3087 Y-9.9885 
G01 X-8.3360 Y-10.0794 
G01 X-10.7164 Y-11.3100 
G01 X-13.7454 Y-11.9143 
G01 X-13.7906 Y-11.9227 
G01 X-13.8321 Y-11.9496 
G01 X-13.8707 Y-11.9747 
G01 X-13.8987 Y-12.0154 
G01 X-14.1603 Y-12.3959 
G01 X-14.1785 Y-12.4140 
G01 X-14.1871 Y-12.4348 
G01 X-14.1998 Y-12.4534 
G01 X-14.2052 Y-12.4785 
G01 X-14.2150 Y-12.5023 
G01 X-14.2150 Y-12.5247 
G01 X-14.2197 Y-12.5468 
G01 X-14.2150 Y-12.5720 
G01 X-14.2150 Y-14.1474 
G01 X-14.2013 Y-14.1805 
G01 X-14.1760 Y-14.2058 
G01 X-14.1429 Y-14.2195 
G01 X-13.8071 Y-14.2195 
G01 X-13.7740 Y-14.2058 
G01 X-13.7487 Y-14.1805 
G01 X-13.7350 Y-14.1474 
G01 X-13.7350 Y-12.6245 
G01 X-13.5575 Y-12.3663 
G01 X-10.6025 Y-11.7768 
G01 X-10.5684 Y-11.7739 
G01 X-10.5561 Y-11.7675 
G01 X-10.5425 Y-11.7648 
G01 X-10.5140 Y-11.7457 
G01 X-8.1159 Y-10.5059 
G01 X-8.0131 Y-10.5383 
G01 X-7.7900 Y-10.5450 
G01 X-7.7900 Y-11.1179 
G01 X-7.7763 Y-11.1510 
G01 X-7.7510 Y-11.1763 
G01 X-7.7179 Y-11.1900 
G01 X-5.3821 Y-11.1900 
G01 X-5.3490 Y-11.1763 
G01 X-5.3237 Y-11.1510 
G01 X-5.3100 Y-11.1179 
G01 X-5.3100 Y-9.2321 
G01 X-5.3237 Y-9.1990 
G00 Z1.0000 
G00 X-5.3490 Y-8.6263 
G01 Z-0.0800 F50.00 
G01 X-5.3237 Y-8.6010 F100.00 
G01 X-5.3100 Y-8.5679 
G01 X-5.3100 Y-6.6821 
G01 X-5.3237 Y-6.6490 
G01 X-5.3490 Y-6.6237 
G01 X-5.3821 Y-6.6100 
G01 X-7.7179 Y-6.6100 
G01 X-7.7510 Y-6.6237 
G01 X-7.7763 Y-6.6490 
G01 X-7.7900 Y-6.6821 
G01 X-7.7900 Y-7.2460 
G01 X-7.9926 Y-7.2677 
G01 X-8.0884 Y-7.3047 
G01 X-8.1713 Y-7.3652 
G01 X-8.2358 Y-7.4451 
G01 X-8.2774 Y-7.5390 
G01 X-8.2932 Y-7.6405 
G01 X-8.2889 Y-7.6815 
G01 X-11.0936 Y-10.2600 
G01 X-16.0227 Y-10.2600 
G01 X-16.1109 Y-10.2965 
G01 X-16.1785 Y-10.3641 
G01 X-16.2150 Y-10.4523 
G01 X-16.2150 Y-14.1474 
G01 X-16.2013 Y-14.1805 
G01 X-16.1760 Y-14.2058 
G01 X-16.1429 Y-14.2195 
G01 X-15.8071 Y-14.2195 
G01 X-15.7740 Y-14.2058 
G01 X-15.7487 Y-14.1805 
G01 X-15.7350 Y-14.1474 
G01 X-15.7350 Y-10.7400 
G01 X-11.0051 Y-10.7400 
G01 X-10.9624 Y-10.7418 
G01 X-10.9523 Y-10.7400 
G01 X-10.9128 Y-10.7237 
G01 X-10.8727 Y-10.7090 
G01 X-10.8339 Y-10.6733 
G01 X-7.9639 Y-8.0347 
G01 X-7.9095 Y-8.0432 
G01 X-7.7900 Y-8.0304 
G01 X-7.7900 Y-8.5679 
G01 X-7.7763 Y-8.6010 
G01 X-7.7510 Y-8.6263 
G01 X-7.7179 Y-8.6400 
G01 X-5.3821 Y-8.6400 
G01 X-5.3490 Y-8.6263 
G00 Z1.0000 
G00 X-5.3490 Y-6.0763 
G01 Z-0.0800 F50.00 
G01 X-5.3237 Y-6.0510 F100.00 
G01 X-5.3100 Y-6.0179 
G01 X-5.3100 Y-4.1321 
G01 X-5.3237 Y-4.0990 
G01 X-5.3490 Y-4.0737 
G01 X-5.3821 Y-4.0600 
G01 X-7.7179 Y-4.0600 
G01 X-7.7510 Y-4.0737 
G01 X-7.7763 Y-4.0990 
G01 X-7.7900 Y-4.1321 
G01 X-7.7900 Y-4.7031 
G01 X-8.0172 Y-4.7124 
G01 X-8.1153 Y-4.7430 
G01 X-8.2020 Y-4.7980 
G01 X-8.2716 Y-4.8735 
G01 X-8.3193 Y-4.9645 
G01 X-8.3418 Y-5.0646 
G01 X-8.3376 Y-5.1672 
G01 X-8.3291 Y-5.1945 
G01 X-11.5168 Y-9.2600 
G01 X-17.0227 Y-9.2600 
G01 X-17.1109 Y-9.2965 
G01 X-17.1785 Y-9.3641 
G01 X-17.2150 Y-9.4523 
G01 X-17.2150 Y-14.1474 
G01 X-17.2013 Y-14.1805 
G01 X-17.1760 Y-14.2058 
G01 X-17.1429 Y-14.2195 
G01 X-16.8071 Y-14.2195 
G01 X-16.7740 Y-14.2058 
G01 X-16.7487 Y-14.1805 
G01 X-16.7350 Y-14.1474 
G01 X-16.7350 Y-9.7400 
G01 X-11.4329 Y-9.7400 
G01 X-11.4186 Y-9.7440 
G01 X-11.3855 Y-9.7400 
G01 X-11.3523 Y-9.7400 
G01 X-11.3385 Y-9.7343 
G01 X-11.3238 Y-9.7325 
G01 X-11.2948 Y-9.7162 
G01 X-11.2640 Y-9.7035 
G01 X-11.2535 Y-9.6929 
G01 X-11.2406 Y-9.6857 
G01 X-11.2201 Y-9.6595 
G01 X-11.1965 Y-9.6359 
G01 X-11.1908 Y-9.6222 
G01 X-7.9511 Y-5.4904 
G01 X-7.7900 Y-5.4838 
G01 X-7.7900 Y-6.0179 
G01 X-7.7763 Y-6.0510 
G01 X-7.7510 Y-6.0763 
G01 X-7.7179 Y-6.0900 
G01 X-5.3821 Y-6.0900 
G01 X-5.3490 Y-6.0763 
G00 Z1.0000 
G00 X-5.3490 Y-3.5263 
G01 Z-0.0800 F50.00 
G01 X-5.3237 Y-3.5010 F100.00 
G01 X-5.3100 Y-3.4679 
G01 X-5.3100 Y-1.5821 
G01 X-5.3237 Y-1.5490 
G01 X-5.3490 Y-1.5237 
G01 X-5.3821 Y-1.5100 
G01 X-7.7179 Y-1.5100 
G01 X-7.7510 Y-1.5237 
G01 X-7.7763 Y-1.5490 
G01 X-7.7900 Y-1.5821 
G01 X-7.7900 Y-2.2921 
G01 X-8.0274 Y-2.3158 
G01 X-8.1234 Y-2.3521 
G01 X-8.2068 Y-2.4120 
G01 X-8.2719 Y-2.4915 
G01 X-8.3141 Y-2.5851 
G01 X-8.3307 Y-2.6865 
G01 X-8.3205 Y-2.7886 
G01 X-8.3102 Y-2.8157 
G01 X-12.0758 Y-8.2600 
G01 X-18.0227 Y-8.2600 
G01 X-18.1109 Y-8.2965 
G01 X-18.1785 Y-8.3641 
G01 X-18.2150 Y-8.4523 
G01 X-18.2150 Y-14.1474 
G01 X-18.2013 Y-14.1805 
G01 X-18.1760 Y-14.2058 
G01 X-18.1429 Y-14.2195 
G01 X-17.8071 Y-14.2195 
G01 X-17.7740 Y-14.2058 
G01 X-17.7487 Y-14.1805 
G01 X-17.7350 Y-14.1474 
G01 X-17.7350 Y-8.7400 
G01 X-11.9756 Y-8.7400 
G01 X-11.9539 Y-8.7447 
G01 X-11.9283 Y-8.7400 
G01 X-11.9023 Y-8.7400 
G01 X-11.8818 Y-8.7315 
G01 X-11.8600 Y-8.7275 
G01 X-11.8381 Y-8.7134 
G01 X-11.8140 Y-8.7035 
G01 X-11.7984 Y-8.6878 
G01 X-11.7798 Y-8.6758 
G01 X-11.7650 Y-8.6544 
G01 X-11.7465 Y-8.6359 
G01 X-11.7381 Y-8.6155 
G01 X-7.9152 Y-3.0885 
G01 X-7.7900 Y-3.0759 
G01 X-7.7900 Y-3.4679 
G01 X-7.7763 Y-3.5010 
G01 X-7.7510 Y-3.5263 
G01 X-7.7179 Y-3.5400 
G01 X-6.7704 Y-3.5400 
G01 X-5.9340 Y-3.5444 
G01 X-5.3821 Y-3.5400 
G01 X-5.3490 Y-3.5263 
G00 Z1.0000 
G00 X-13.3162 Y-5.0290 
G01 Z-0.0800 F50.00 
G01 X-13.3415 Y-5.0037 F100.00 
G01 X-13.3746 Y-4.9900 
G01 X-13.5840 Y-4.9900 
G01 X-13.6246 Y-4.9688 
G01 X-14.0604 Y-4.9688 
G01 X-14.0935 Y-4.9825 
G01 X-14.1188 Y-5.0078 
G01 X-14.1325 Y-5.0408 
G01 X-14.1325 Y-5.7110 
G01 X-14.1367 Y-5.7287 
G01 X-14.1325 Y-5.8723 
G01 X-14.1325 Y-6.4767 
G01 X-14.1188 Y-6.5097 
G01 X-14.1175 Y-6.5800 
G01 X-14.4580 Y-6.9100 
G01 X-19.8834 Y-6.9100 
G01 X-25.5220 Y-3.2064 
G01 X-26.3313 Y-2.2597 
G01 X-26.3313 Y-1.5383 
G01 X-26.3450 Y-1.5053 
G01 X-26.3703 Y-1.4800 
G01 X-26.4033 Y-1.4663 
G01 X-27.3892 Y-1.4663 
G01 X-27.4222 Y-1.4800 
G01 X-27.4475 Y-1.5053 
G01 X-27.4612 Y-1.5383 
G01 X-27.4612 Y-1.5552 
G01 X-28.2444 Y-1.2364 
G01 X-28.2657 Y-1.2241 
G01 X-28.2918 Y-1.2171 
G01 X-28.3168 Y-1.2069 
G01 X-28.3412 Y-1.2039 
G01 X-28.3649 Y-1.1975 
G01 X-28.3919 Y-1.1975 
G01 X-28.4187 Y-1.1941 
G01 X-28.4430 Y-1.1975 
G01 X-30.8488 Y-1.1975 
G01 X-30.9480 Y-1.2241 
G01 X-31.0370 Y-1.2754 
G01 X-31.1096 Y-1.3480 
G01 X-31.1609 Y-1.4370 
G01 X-31.1875 Y-1.5362 
G01 X-31.1875 Y-1.5821 
G01 X-31.2070 Y-1.6211 
G01 X-31.2148 Y-1.6564 
G01 X-31.2689 Y-1.7439 
G01 X-31.2983 Y-1.8423 
G01 X-31.3307 Y-2.9499 
G01 X-31.8360 Y-3.2225 
G01 X-35.6482 Y-3.2225 
G01 X-36.1737 Y-2.3766 
G01 X-36.1737 Y-1.5383 
G01 X-36.1874 Y-1.5053 
G01 X-36.2128 Y-1.4800 
G01 X-36.2458 Y-1.4663 
G01 X-37.2317 Y-1.4663 
G01 X-37.2647 Y-1.4800 
G01 X-37.2900 Y-1.5053 
G01 X-37.3037 Y-1.5383 
G01 X-37.3037 Y-2.8742 
G01 X-37.2900 Y-2.9072 
G01 X-37.2647 Y-2.9325 
G01 X-37.2317 Y-2.9462 
G01 X-36.7381 Y-2.9462 
G01 X-36.1996 Y-3.8130 
G01 X-36.1771 Y-3.8520 
G01 X-36.1363 Y-3.8927 
G01 X-36.1045 Y-3.9246 
G01 X-36.0942 Y-3.9322 
G01 X-36.0545 Y-3.9534 
G01 X-36.0155 Y-3.9759 
G01 X-36.0037 Y-3.9806 
G01 X-35.9598 Y-3.9908 
G01 X-35.9163 Y-4.0025 
G01 X-35.9037 Y-4.0040 
G01 X-35.8587 Y-4.0025 
G01 X-31.7431 Y-4.0025 
G01 X-31.6974 Y-4.0038 
G01 X-31.6862 Y-4.0025 
G01 X-31.6419 Y-3.9907 
G01 X-31.5975 Y-3.9801 
G01 X-31.5870 Y-3.9759 
G01 X-31.5473 Y-3.9530 
G01 X-30.7629 Y-3.5298 
G01 X-30.7173 Y-3.5052 
G01 X-30.6791 Y-3.4692 
G01 X-30.6426 Y-3.4347 
G01 X-30.6158 Y-3.3914 
G01 X-30.5886 Y-3.3474 
G01 X-30.5742 Y-3.2991 
G01 X-30.5592 Y-3.2490 
G01 X-30.5577 Y-3.1994 
G01 X-30.5220 Y-1.9775 
G01 X-28.4926 Y-1.9775 
G01 X-27.4612 Y-2.3973 
G01 X-27.4612 Y-2.8742 
G01 X-27.4475 Y-2.9072 
G01 X-27.4222 Y-2.9325 
G01 X-27.3892 Y-2.9462 
G01 X-26.7831 Y-2.9462 
G01 X-26.0632 Y-3.7885 
G01 X-25.9775 Y-3.8474 
G01 X-25.9547 Y-3.8554 
G01 X-20.2475 Y-7.6040 
G01 X-20.2048 Y-7.6321 
G01 X-20.1712 Y-7.6542 
G01 X-20.1604 Y-7.6577 
G01 X-20.1118 Y-7.6738 
G01 X-20.0737 Y-7.6864 
G01 X-20.0623 Y-7.6871 
G01 X-20.0513 Y-7.6900 
G01 X-20.0112 Y-7.6900 
G01 X-19.9712 Y-7.6923 
G01 X-19.9600 Y-7.6900 
G01 X-14.3031 Y-7.6900 
G01 X-14.2547 Y-7.6908 
G01 X-14.2020 Y-7.6775 
G01 X-14.1551 Y-7.6657 
G01 X-14.1077 Y-7.6393 
G01 X-14.0654 Y-7.6158 
G01 X-14.0264 Y-7.5780 
G01 X-13.5029 Y-7.0705 
G01 X-13.4502 Y-6.9824 
G01 X-13.4314 Y-6.9162 
G01 X-13.3746 Y-6.9162 
G01 X-13.3415 Y-6.9025 
G01 X-13.3162 Y-6.8772 
G01 X-13.3025 Y-6.8441 
G01 X-13.3025 Y-5.0621 
G01 X-13.3162 Y-5.0290 
G00 Z1.0000 
G00 X-14.2025 Y-5.0408 
G01 Z-0.0800 F50.00 
G01 X-14.2162 Y-5.0078 F100.00 
G01 X-14.2415 Y-4.9825 
G01 X-14.2746 Y-4.9688 
G01 X-14.7104 Y-4.9688 
G01 X-14.7435 Y-4.9825 
G01 X-14.7688 Y-5.0078 
G01 X-14.7825 Y-5.0408 
G01 X-14.7825 Y-6.4767 
G01 X-14.7688 Y-6.5097 
G01 X-14.7435 Y-6.5350 
G01 X-14.7104 Y-6.5487 
G01 X-14.2746 Y-6.5487 
G01 X-14.2415 Y-6.5350 
G01 X-14.2162 Y-6.5097 
G01 X-14.2025 Y-6.4767 
G01 X-14.2025 Y-5.0408 
G00 Z1.0000 
G00 X-14.8525 Y-5.0408 
G01 Z-0.0800 F50.00 
G01 X-14.8662 Y-5.0078 F100.00 
G01 X-14.8915 Y-4.9825 
G01 X-14.9246 Y-4.9688 
G01 X-15.3604 Y-4.9688 
G01 X-15.3935 Y-4.9825 
G01 X-15.4188 Y-5.0078 
G01 X-15.4325 Y-5.0408 
G01 X-15.4325 Y-6.4767 
G01 X-15.4188 Y-6.5097 
G01 X-15.3935 Y-6.5350 
G01 X-15.3604 Y-6.5487 
G01 X-14.9246 Y-6.5487 
G01 X-14.8915 Y-6.5350 
G01 X-14.8662 Y-6.5097 
G01 X-14.8525 Y-6.4767 
G01 X-14.8525 Y-5.0408 
G00 Z1.0000 
G00 X-15.5025 Y-5.0408 
G01 Z-0.0800 F50.00 
G01 X-15.5162 Y-5.0078 F100.00 
G01 X-15.5415 Y-4.9825 
G01 X-15.5746 Y-4.9688 
G01 X-16.0104 Y-4.9688 
G01 X-16.0435 Y-4.9825 
G01 X-16.0688 Y-5.0078 
G01 X-16.0825 Y-5.0408 
G01 X-16.0825 Y-6.4767 
G01 X-16.0688 Y-6.5097 
G01 X-16.0435 Y-6.5350 
G01 X-16.0104 Y-6.5487 
G01 X-15.5746 Y-6.5487 
G01 X-15.5415 Y-6.5350 
G01 X-15.5162 Y-6.5097 
G01 X-15.5025 Y-6.4767 
G01 X-15.5025 Y-5.0408 
G00 Z1.0000 
G00 X-15.6230 Y-10.7868 
G01 Z-0.0800 F50.00 
G01 X-15.6561 Y-10.8005 F100.00 
G01 X-15.6814 Y-10.8258 
G01 X-15.6951 Y-10.8589 
G01 X-15.6951 Y-11.9011 
G01 X-15.6814 Y-11.9342 
G01 X-15.6561 Y-11.9595 
G01 X-15.6230 Y-11.9732 
G01 X-15.2326 Y-11.9732 
G01 X-15.2033 Y-12.1741 
G01 X-15.2150 Y-12.2023 
G01 X-15.2150 Y-12.6366 
G01 X-15.2150 Y-14.1474 
G01 X-15.2013 Y-14.1805 
G01 X-15.1760 Y-14.2058 
G01 X-15.1429 Y-14.2195 
G01 X-14.8071 Y-14.2195 
G01 X-14.7740 Y-14.2058 
G01 X-14.7487 Y-14.1805 
G01 X-14.7350 Y-14.1474 
G01 X-14.7350 Y-12.2023 
G01 X-14.7715 Y-12.1141 
G01 X-14.7981 Y-11.9732 
G01 X-14.5808 Y-11.9732 
G01 X-14.5477 Y-11.9595 
G01 X-14.5224 Y-11.9342 
G01 X-14.5087 Y-11.9011 
G01 X-14.5087 Y-10.8589 
G01 X-14.5224 Y-10.8258 
G01 X-14.5477 Y-10.8005 
G01 X-14.5808 Y-10.7868 
G01 X-15.6230 Y-10.7868 
G00 Z1.0000 
G00 X-20.1343 Y-10.7964 
G01 Z-0.0800 F50.00 
G01 X-20.1596 Y-10.7711 F100.00 
G01 X-20.1926 Y-10.7574 
G01 X-20.3267 Y-10.7574 
G01 X-20.3269 Y-10.7145 
G01 X-20.3269 Y-8.8571 
G01 X-20.3269 Y-8.8059 
G01 X-20.3269 Y-8.7593 
G01 X-20.3414 Y-8.7051 
G01 X-20.3535 Y-8.6601 
G01 X-20.3815 Y-8.6115 
G01 X-20.4048 Y-8.5712 
G01 X-20.4445 Y-8.5315 
G01 X-20.4774 Y-8.4985 
G01 X-20.5260 Y-8.4705 
G01 X-20.5663 Y-8.4472 
G01 X-20.6205 Y-8.4327 
G01 X-20.6655 Y-8.4206 
G01 X-20.7216 Y-8.4206 
G01 X-20.7682 Y-8.4206 
G01 X-22.8912 Y-8.4740 
G01 X-22.8912 Y-8.2383 
G01 X-22.9049 Y-8.2053 
G01 X-22.9303 Y-8.1799 
G01 X-22.9633 Y-8.1662 
G01 X-24.2114 Y-8.1662 
G01 X-24.2114 Y-6.5408 
G01 X-24.2082 Y-6.5212 
G01 X-24.2114 Y-6.4891 
G01 X-24.2114 Y-6.4568 
G01 X-24.2166 Y-6.4376 
G01 X-24.2186 Y-6.4177 
G01 X-24.2300 Y-6.3875 
G01 X-24.2384 Y-6.3564 
G01 X-24.2483 Y-6.3391 
G01 X-24.2553 Y-6.3205 
G01 X-24.2742 Y-6.2943 
G01 X-24.2903 Y-6.2663 
G01 X-24.3044 Y-6.2523 
G01 X-24.3160 Y-6.2361 
G01 X-24.3410 Y-6.2157 
G01 X-24.3638 Y-6.1928 
G01 X-24.3811 Y-6.1829 
G01 X-27.7087 Y-3.4602 
G01 X-27.7087 Y-2.8748 
G01 X-27.7057 Y-2.8409 
G01 X-27.7087 Y-2.8236 
G01 X-27.7087 Y-2.8062 
G01 X-27.7176 Y-2.7732 
G01 X-27.7234 Y-2.7397 
G01 X-27.7308 Y-2.7239 
G01 X-27.7353 Y-2.7070 
G01 X-27.7524 Y-2.6775 
G01 X-27.7667 Y-2.6466 
G01 X-27.7779 Y-2.6332 
G01 X-27.7867 Y-2.6180 
G01 X-27.8107 Y-2.5940 
G01 X-27.8326 Y-2.5678 
G01 X-27.8469 Y-2.5578 
G01 X-27.8593 Y-2.5454 
G01 X-27.8888 Y-2.5284 
G01 X-27.9167 Y-2.5088 
G01 X-27.9331 Y-2.5028 
G01 X-27.9482 Y-2.4941 
G01 X-27.9811 Y-2.4853 
G01 X-28.0131 Y-2.4736 
G01 X-28.0305 Y-2.4720 
G01 X-28.0474 Y-2.4675 
G01 X-28.0815 Y-2.4675 
G01 X-28.7375 Y-2.4092 
G01 X-28.7375 Y-2.1627 
G01 X-28.7512 Y-2.1296 
G01 X-28.7765 Y-2.1043 
G01 X-28.8096 Y-2.0906 
G01 X-30.2454 Y-2.0906 
G01 X-30.2785 Y-2.1043 
G01 X-30.3038 Y-2.1296 
G01 X-30.3175 Y-2.1627 
G01 X-30.3175 Y-3.2985 
G01 X-30.3038 Y-3.3316 
G01 X-30.2785 Y-3.3569 
G01 X-30.2454 Y-3.3706 
G01 X-28.8096 Y-3.3706 
G01 X-28.7765 Y-3.3569 
G01 X-28.7512 Y-3.3316 
G01 X-28.7375 Y-3.2985 
G01 X-28.7375 Y-3.1923 
G01 X-28.4887 Y-3.2144 
G01 X-28.4887 Y-3.5898 
G01 X-28.4968 Y-3.6388 
G01 X-28.4864 Y-3.7423 
G01 X-28.4497 Y-3.8395 
G01 X-28.3890 Y-3.9239 
G01 X-25.0010 Y-6.6958 
G01 X-25.0010 Y-8.1662 
G01 X-26.2492 Y-8.1662 
G01 X-26.2822 Y-8.1799 
G01 X-26.3075 Y-8.2053 
G01 X-26.3212 Y-8.2383 
G01 X-26.3212 Y-9.5741 
G01 X-26.3075 Y-9.6072 
G01 X-26.2822 Y-9.6325 
G01 X-26.2492 Y-9.6462 
G01 X-22.9633 Y-9.6462 
G01 X-22.9303 Y-9.6325 
G01 X-22.9049 Y-9.6072 
G01 X-22.8912 Y-9.5741 
G01 X-22.8912 Y-9.2542 
G01 X-21.1069 Y-9.2103 
G01 X-21.1069 Y-10.6653 
G01 X-21.1069 Y-10.7164 
G01 X-21.1069 Y-10.7574 
G01 X-21.2349 Y-10.7574 
G01 X-21.2679 Y-10.7711 
G01 X-21.2932 Y-10.7964 
G01 X-21.3069 Y-10.8295 
G01 X-21.3069 Y-11.5696 
G01 X-21.6746 Y-11.9764 
G01 X-21.7098 Y-12.0451 
G01 X-21.7260 Y-12.1206 
G01 X-21.7221 Y-12.1977 
G01 X-21.6984 Y-12.2712 
G01 X-21.6565 Y-12.3360 
G01 X-21.6634 Y-12.5730 
G01 X-21.6760 Y-12.5782 
G01 X-21.7013 Y-12.6035 
G01 X-21.7150 Y-12.6366 
G01 X-21.7150 Y-14.1474 
G01 X-21.7013 Y-14.1805 
G01 X-21.6760 Y-14.2058 
G01 X-21.6429 Y-14.2195 
G01 X-21.3071 Y-14.2195 
G01 X-21.2740 Y-14.2058 
G01 X-21.2487 Y-14.1805 
G01 X-21.2350 Y-14.1474 
G01 X-21.2350 Y-12.7399 
G01 X-21.2213 Y-12.3494 
G01 X-20.8547 Y-11.9438 
G01 X-20.1926 Y-11.9438 
G01 X-20.1596 Y-11.9301 
G01 X-20.1343 Y-11.9048 
G01 X-20.1206 Y-11.8717 
G01 X-20.1206 Y-10.8295 
G01 X-20.1343 Y-10.7964 
G00 Z1.0000 
G00 X-21.4327 Y-10.7395 
G01 Z-0.0800 F50.00 
G01 X-21.4074 Y-10.7142 F100.00 
G01 X-21.3937 Y-10.6811 
G01 X-21.3937 Y-9.6389 
G01 X-21.4074 Y-9.6058 
G01 X-21.4327 Y-9.5805 
G01 X-21.4658 Y-9.5668 
G01 X-22.5080 Y-9.5668 
G01 X-22.5411 Y-9.5805 
G01 X-22.5664 Y-9.6058 
G01 X-22.5801 Y-9.6389 
G01 X-22.5801 Y-10.6811 
G01 X-22.5664 Y-10.7142 
G01 X-22.5411 Y-10.7395 
G01 X-22.5080 Y-10.7532 
G01 X-22.3817 Y-10.7532 
G01 X-22.3817 Y-11.4820 
G01 X-22.3548 Y-11.5824 
G01 X-22.3028 Y-11.6724 
G01 X-22.2293 Y-11.7459 
G01 X-22.1852 Y-11.7714 
G01 X-22.1621 Y-12.2379 
G01 X-22.1709 Y-12.5761 
G01 X-22.2013 Y-12.6035 
G01 X-22.2150 Y-12.6366 
G01 X-22.2150 Y-13.3452 
G01 X-22.2150 Y-13.3926 
G01 X-22.2150 Y-14.1474 
G01 X-22.2093 Y-14.1611 
G01 X-22.2067 Y-14.5256 
G01 X-22.2092 Y-14.6252 
G01 X-22.1735 Y-14.7147 
G01 X-22.1061 Y-14.7838 
G01 X-22.0175 Y-14.8218 
G01 X-19.9323 Y-14.8480 
G01 X-19.8428 Y-14.8122 
G01 X-19.7737 Y-14.7449 
G01 X-19.7357 Y-14.6563 
G01 X-19.7345 Y-14.5598 
G01 X-19.7366 Y-14.1512 
G01 X-19.7350 Y-13.3914 
G01 X-19.7349 Y-13.3448 
G01 X-19.7350 Y-12.6366 
G01 X-19.7487 Y-12.6035 
G01 X-19.7740 Y-12.5782 
G01 X-19.8071 Y-12.5645 
G01 X-20.1429 Y-12.5645 
G01 X-20.1760 Y-12.5782 
G01 X-20.2013 Y-12.6035 
G01 X-20.2150 Y-12.6366 
G01 X-20.2150 Y-13.3927 
G01 X-20.2170 Y-14.3596 
G01 X-21.7280 Y-14.3406 
G01 X-21.7350 Y-13.3914 
G01 X-21.7350 Y-12.6366 
G01 X-21.7294 Y-12.2958 
G01 X-21.7276 Y-12.2244 
G01 X-21.7329 Y-12.2105 
G01 X-21.7556 Y-11.7524 
G01 X-21.7445 Y-11.7459 
G01 X-21.6710 Y-11.6724 
G01 X-21.6190 Y-11.5824 
G01 X-21.5921 Y-11.4820 
G01 X-21.5921 Y-10.7532 
G01 X-21.4658 Y-10.7532 
G01 X-21.4327 Y-10.7395 
G00 Z1.0000 
G00 X-21.1760 Y-12.5782 
G01 Z-0.0800 F50.00 
G01 X-21.2013 Y-12.6035 F100.00 
G01 X-21.2150 Y-12.6366 
G01 X-21.2150 Y-14.1474 
G01 X-21.2013 Y-14.1805 
G01 X-21.1760 Y-14.2058 
G01 X-21.1429 Y-14.2195 
G01 X-20.8071 Y-14.2195 
G01 X-20.7740 Y-14.2058 
G01 X-20.7487 Y-14.1805 
G01 X-20.7350 Y-14.1474 
G01 X-20.7350 Y-12.6366 
G01 X-20.7487 Y-12.6035 
G01 X-20.7740 Y-12.5782 
G01 X-20.8071 Y-12.5645 
G01 X-21.1429 Y-12.5645 
G01 X-21.1760 Y-12.5782 
G00 Z1.0000 
G00 X-20.6760 Y-12.5782 
G01 Z-0.0800 F50.00 
G01 X-20.7013 Y-12.6035 F100.00 
G01 X-20.7150 Y-12.6366 
G01 X-20.7150 Y-14.1474 
G01 X-20.7013 Y-14.1805 
G01 X-20.6760 Y-14.2058 
G01 X-20.6429 Y-14.2195 
G01 X-20.3071 Y-14.2195 
G01 X-20.2740 Y-14.2058 
G01 X-20.2487 Y-14.1805 
G01 X-20.2350 Y-14.1474 
G01 X-20.2350 Y-12.6366 
G01 X-20.2487 Y-12.6035 
G01 X-20.2740 Y-12.5782 
G01 X-20.3071 Y-12.5645 
G01 X-20.6429 Y-12.5645 
G01 X-20.6760 Y-12.5782 
G00 Z1.0000 
G00 X-19.6760 Y-12.5782 
G01 Z-0.0800 F50.00 
G01 X-19.7013 Y-12.6035 F100.00 
G01 X-19.7150 Y-12.6366 
G01 X-19.7150 Y-14.1474 
G01 X-19.7013 Y-14.1805 
G01 X-19.6760 Y-14.2058 
G01 X-19.6429 Y-14.2195 
G01 X-19.3071 Y-14.2195 
G01 X-19.2740 Y-14.2058 
G01 X-19.2487 Y-14.1805 
G01 X-19.2350 Y-14.1474 
G01 X-19.2350 Y-12.6366 
G01 X-19.2487 Y-12.6035 
G01 X-19.2740 Y-12.5782 
G01 X-19.3071 Y-12.5645 
G01 X-19.6429 Y-12.5645 
G01 X-19.6760 Y-12.5782 
G00 Z1.0000 
G00 X-19.1760 Y-12.5782 
G01 Z-0.0800 F50.00 
G01 X-19.2013 Y-12.6035 F100.00 
G01 X-19.2150 Y-12.6366 
G01 X-19.2150 Y-14.1474 
G01 X-19.2013 Y-14.1805 
G01 X-19.1760 Y-14.2058 
G01 X-19.1429 Y-14.2195 
G01 X-18.8071 Y-14.2195 
G01 X-18.7740 Y-14.2058 
G01 X-18.7487 Y-14.1805 
G01 X-18.7350 Y-14.1474 
G01 X-18.7350 Y-12.6366 
G01 X-18.7487 Y-12.6035 
G01 X-18.7740 Y-12.5782 
G01 X-18.8071 Y-12.5645 
G01 X-19.1429 Y-12.5645 
G01 X-19.1760 Y-12.5782 
G00 Z1.0000 
G00 X-22.6992 Y-12.6015 
G01 Z-0.0800 F50.00 
G01 X-22.7013 Y-12.6035 F100.00 
G01 X-22.7150 Y-12.6366 
G01 X-22.7150 Y-13.3451 
G01 X-22.7150 Y-13.3927 
G01 X-22.7150 Y-14.1474 
G01 X-22.7098 Y-14.1598 
G01 X-22.7076 Y-14.5000 
G01 X-24.3213 Y-14.5000 
G01 X-24.7350 Y-14.4077 
G01 X-24.7350 Y-12.6114 
G01 X-24.7126 Y-12.5893 
G01 X-24.3316 Y-12.2800 
G01 X-22.9602 Y-12.2800 
G01 X-22.7014 Y-12.4960 
G01 X-22.6992 Y-12.6015 
G00 Z1.0000 
G00 X-22.7487 Y-12.6035 
G01 Z-0.0800 F50.00 
G01 X-22.7740 Y-12.5782 F100.00 
G01 X-22.8071 Y-12.5645 
G01 X-23.1429 Y-12.5645 
G01 X-23.1760 Y-12.5782 
G01 X-23.2013 Y-12.6035 
G01 X-23.2150 Y-12.6366 
G01 X-23.2150 Y-14.1474 
G01 X-23.2013 Y-14.1805 
G01 X-23.1760 Y-14.2058 
G01 X-23.1429 Y-14.2195 
G01 X-22.8071 Y-14.2195 
G01 X-22.7740 Y-14.2058 
G01 X-22.7487 Y-14.1805 
G01 X-22.7350 Y-14.1474 
G01 X-22.7350 Y-12.6366 
G01 X-22.7487 Y-12.6035 
G00 Z1.0000 
G00 X-23.2487 Y-12.6035 
G01 Z-0.0800 F50.00 
G01 X-23.2740 Y-12.5782 F100.00 
G01 X-23.3071 Y-12.5645 
G01 X-23.6429 Y-12.5645 
G01 X-23.6760 Y-12.5782 
G01 X-23.7013 Y-12.6035 
G01 X-23.7150 Y-12.6366 
G01 X-23.7150 Y-14.1474 
G01 X-23.7013 Y-14.1805 
G01 X-23.6760 Y-14.2058 
G01 X-23.6429 Y-14.2195 
G01 X-23.3071 Y-14.2195 
G01 X-23.2740 Y-14.2058 
G01 X-23.2487 Y-14.1805 
G01 X-23.2350 Y-14.1474 
G01 X-23.2350 Y-12.6366 
G01 X-23.2487 Y-12.6035 
G00 Z1.0000 
G00 X-23.7487 Y-12.6035 
G01 Z-0.0800 F50.00 
G01 X-23.7740 Y-12.5782 F100.00 
G01 X-23.8071 Y-12.5645 
G01 X-24.1429 Y-12.5645 
G01 X-24.1760 Y-12.5782 
G01 X-24.2013 Y-12.6035 
G01 X-24.2150 Y-12.6366 
G01 X-24.2150 Y-14.1474 
G01 X-24.2013 Y-14.1805 
G01 X-24.1760 Y-14.2058 
G01 X-24.1429 Y-14.2195 
G01 X-23.8071 Y-14.2195 
G01 X-23.7740 Y-14.2058 
G01 X-23.7487 Y-14.1805 
G01 X-23.7350 Y-14.1474 
G01 X-23.7350 Y-12.6366 
G01 X-23.7487 Y-12.6035 
G00 Z1.0000 
G00 X-24.2487 Y-12.6035 
G01 Z-0.0800 F50.00 
G01 X-24.2740 Y-12.5782 F100.00 
G01 X-24.3071 Y-12.5645 
G01 X-24.6429 Y-12.5645 
G01 X-24.6760 Y-12.5782 
G01 X-24.7013 Y-12.6035 
G01 X-24.7150 Y-12.6366 
G01 X-24.7150 Y-14.1474 
G01 X-24.7013 Y-14.1805 
G01 X-24.6760 Y-14.2058 
G01 X-24.6429 Y-14.2195 
G01 X-24.3071 Y-14.2195 
G01 X-24.2740 Y-14.2058 
G01 X-24.2487 Y-14.1805 
G01 X-24.2350 Y-14.1474 
G01 X-24.2350 Y-12.6366 
G01 X-24.2487 Y-12.6035 
G00 Z1.0000 
G00 X-25.2487 Y-12.6035 
G01 Z-0.0800 F50.00 
G01 X-25.2740 Y-12.5782 F100.00 
G01 X-25.3071 Y-12.5645 
G01 X-25.6429 Y-12.5645 
G01 X-25.6760 Y-12.5782 
G01 X-25.7013 Y-12.6035 
G01 X-25.7150 Y-12.6366 
G01 X-25.7150 Y-14.1474 
G01 X-25.7013 Y-14.1805 
G01 X-25.6760 Y-14.2058 
G01 X-25.6429 Y-14.2195 
G01 X-25.3071 Y-14.2195 
G01 X-25.2740 Y-14.2058 
G01 X-25.2487 Y-14.1805 
G01 X-25.2350 Y-14.1474 
G01 X-25.2350 Y-12.6366 
G01 X-25.2487 Y-12.6035 
G00 Z1.0000 
G00 X-25.7487 Y-12.6035 
G01 Z-0.0800 F50.00 
G01 X-25.7740 Y-12.5782 F100.00 
G01 X-25.8071 Y-12.5645 
G01 X-26.1429 Y-12.5645 
G01 X-26.1760 Y-12.5782 
G01 X-26.2013 Y-12.6035 
G01 X-26.2150 Y-12.6366 
G01 X-26.2150 Y-14.1474 
G01 X-26.2013 Y-14.1805 
G01 X-26.1760 Y-14.2058 
G01 X-26.1429 Y-14.2195 
G01 X-25.8071 Y-14.2195 
G01 X-25.7740 Y-14.2058 
G01 X-25.7487 Y-14.1805 
G01 X-25.7350 Y-14.1474 
G01 X-25.7350 Y-12.6366 
G01 X-25.7487 Y-12.6035 
G00 Z1.0000 
G00 X-26.2487 Y-12.6035 
G01 Z-0.0800 F50.00 
G01 X-26.2740 Y-12.5782 F100.00 
G01 X-26.3071 Y-12.5645 
G01 X-26.6429 Y-12.5645 
G01 X-26.6760 Y-12.5782 
G01 X-26.7013 Y-12.6035 
G01 X-26.7150 Y-12.6366 
G01 X-26.7150 Y-14.1474 
G01 X-26.7013 Y-14.1805 
G01 X-26.6760 Y-14.2058 
G01 X-26.6429 Y-14.2195 
G01 X-26.3071 Y-14.2195 
G01 X-26.2740 Y-14.2058 
G01 X-26.2487 Y-14.1805 
G01 X-26.2350 Y-14.1474 
G01 X-26.2350 Y-12.6366 
G01 X-26.2487 Y-12.6035 
G00 Z1.0000 
G00 X-26.7487 Y-12.6035 
G01 Z-0.0800 F50.00 
G01 X-26.7740 Y-12.5782 F100.00 
G01 X-26.8071 Y-12.5645 
G01 X-27.1429 Y-12.5645 
G01 X-27.1760 Y-12.5782 
G01 X-27.2013 Y-12.6035 
G01 X-27.2150 Y-12.6366 
G01 X-27.2150 Y-14.1474 
G01 X-27.2013 Y-14.1805 
G01 X-27.1760 Y-14.2058 
G01 X-27.1429 Y-14.2195 
G01 X-26.8071 Y-14.2195 
G01 X-26.7740 Y-14.2058 
G01 X-26.7487 Y-14.1805 
G01 X-26.7350 Y-14.1474 
G01 X-26.7350 Y-12.6366 
G01 X-26.7487 Y-12.6035 
G00 Z1.0000 
G00 X-27.2487 Y-12.6035 
G01 Z-0.0800 F50.00 
G01 X-27.2740 Y-12.5782 F100.00 
G01 X-27.3071 Y-12.5645 
G01 X-27.6429 Y-12.5645 
G01 X-27.6760 Y-12.5782 
G01 X-27.7013 Y-12.6035 
G01 X-27.7150 Y-12.6366 
G01 X-27.7150 Y-14.1474 
G01 X-27.7013 Y-14.1805 
G01 X-27.6760 Y-14.2058 
G01 X-27.6429 Y-14.2195 
G01 X-27.3071 Y-14.2195 
G01 X-27.2740 Y-14.2058 
G01 X-27.2487 Y-14.1805 
G01 X-27.2350 Y-14.1474 
G01 X-27.2350 Y-12.6366 
G01 X-27.2487 Y-12.6035 
G00 Z1.0000 
G00 X-27.7487 Y-12.6035 
G01 Z-0.0800 F50.00 
G01 X-27.7740 Y-12.5782 F100.00 
G01 X-27.8071 Y-12.5645 
G01 X-28.1429 Y-12.5645 
G01 X-28.1760 Y-12.5782 
G01 X-28.2013 Y-12.6035 
G01 X-28.2150 Y-12.6366 
G01 X-28.2150 Y-14.1474 
G01 X-28.2013 Y-14.1805 
G01 X-28.1760 Y-14.2058 
G01 X-28.1429 Y-14.2195 
G01 X-27.8071 Y-14.2195 
G01 X-27.7740 Y-14.2058 
G01 X-27.7487 Y-14.1805 
G01 X-27.7350 Y-14.1474 
G01 X-27.7350 Y-12.6366 
G01 X-27.7487 Y-12.6035 
G00 Z1.0000 
G00 X-28.2305 Y-12.3831 
G01 Z-0.0800 F50.00 
G01 X-28.1591 Y-12.3093 F100.00 
G01 X-28.1092 Y-12.2196 
G01 X-28.0842 Y-12.1200 
G01 X-28.0859 Y-12.0173 
G01 X-28.1141 Y-11.9186 
G01 X-28.9343 Y-10.5499 
G01 X-28.9343 Y-9.7976 
G01 X-28.9480 Y-9.7646 
G01 X-28.9733 Y-9.7393 
G01 X-29.0064 Y-9.7256 
G01 X-29.1375 Y-9.7256 
G01 X-29.1375 Y-9.2600 
G01 X-28.8096 Y-9.2600 
G01 X-28.7765 Y-9.2463 
G01 X-28.7512 Y-9.2210 
G01 X-28.7375 Y-9.1879 
G01 X-28.7375 Y-8.0521 
G01 X-28.7512 Y-8.0190 
G01 X-28.7765 Y-7.9937 
G01 X-28.8096 Y-7.9800 
G01 X-30.2454 Y-7.9800 
G01 X-30.2785 Y-7.9937 
G01 X-30.3038 Y-8.0190 
G01 X-30.3175 Y-8.0521 
G01 X-30.3175 Y-9.1879 
G01 X-30.3038 Y-9.2210 
G01 X-30.2785 Y-9.2463 
G01 X-30.2454 Y-9.2600 
G01 X-29.9175 Y-9.2600 
G01 X-29.9175 Y-9.7256 
G01 X-30.0486 Y-9.7256 
G01 X-30.0817 Y-9.7393 
G01 X-32.7338 Y-8.9878 
G01 X-32.7338 Y-8.2383 
G01 X-32.7475 Y-8.2053 
G01 X-32.7728 Y-8.1799 
G01 X-32.8058 Y-8.1662 
G01 X-36.0917 Y-8.1662 
G01 X-36.1247 Y-8.1799 
G01 X-36.1500 Y-8.2053 
G01 X-36.1637 Y-8.2383 
G01 X-36.1637 Y-9.5741 
G01 X-36.1500 Y-9.6072 
G01 X-36.1247 Y-9.6325 
G01 X-36.0917 Y-9.6462 
G01 X-33.3016 Y-9.6462 
G01 X-30.1207 Y-10.5592 
G01 X-30.1207 Y-10.8399 
G01 X-30.1070 Y-10.8729 
G01 X-30.0817 Y-10.8982 
G01 X-30.0486 Y-10.9119 
G01 X-29.6267 Y-10.9119 
G01 X-28.7831 Y-12.3195 
G01 X-28.7150 Y-12.3855 
G01 X-28.7150 Y-14.1474 
G01 X-28.7013 Y-14.1805 
G01 X-28.6760 Y-14.2058 
G01 X-28.6429 Y-14.2195 
G01 X-28.3071 Y-14.2195 
G01 X-28.2740 Y-14.2058 
G01 X-28.2487 Y-14.1805 
G01 X-28.2350 Y-14.1474 
G01 X-28.2350 Y-12.3858 
G00 Z1.0000 
G00 X-28.7487 Y-12.6035 
G01 Z-0.0800 F50.00 
G01 X-28.7740 Y-12.5782 F100.00 
G01 X-28.8071 Y-12.5645 
G01 X-29.1429 Y-12.5645 
G01 X-29.1760 Y-12.5782 
G01 X-29.2013 Y-12.6035 
G01 X-29.2150 Y-12.6366 
G01 X-29.2150 Y-14.1474 
G01 X-29.2013 Y-14.1805 
G01 X-29.1760 Y-14.2058 
G01 X-29.1429 Y-14.2195 
G01 X-28.8071 Y-14.2195 
G01 X-28.7740 Y-14.2058 
G01 X-28.7487 Y-14.1805 
G01 X-28.7350 Y-14.1474 
G01 X-28.7350 Y-12.6366 
G01 X-28.7487 Y-12.6035 
G00 Z1.0000 
G00 X-29.2487 Y-12.6035 
G01 Z-0.0800 F50.00 
G01 X-29.2740 Y-12.5782 F100.00 
G01 X-29.3071 Y-12.5645 
G01 X-29.6429 Y-12.5645 
G01 X-29.6760 Y-12.5782 
G01 X-29.7013 Y-12.6035 
G01 X-29.7150 Y-12.6366 
G01 X-29.7150 Y-14.1474 
G01 X-29.7013 Y-14.1805 
G01 X-29.6760 Y-14.2058 
G01 X-29.6429 Y-14.2195 
G01 X-29.3071 Y-14.2195 
G01 X-29.2740 Y-14.2058 
G01 X-29.2487 Y-14.1805 
G01 X-29.2350 Y-14.1474 
G01 X-29.2350 Y-12.6366 
G01 X-29.2487 Y-12.6035 
G00 Z1.0000 
G00 X-29.7486 Y-12.6038 
G01 Z-0.0800 F50.00 
G01 X-29.7633 Y-11.7479 F100.00 
G01 X-29.7590 Y-11.7258 
G01 X-29.7642 Y-11.7007 
G01 X-29.7646 Y-11.6750 
G01 X-29.7736 Y-11.6543 
G01 X-29.7781 Y-11.6322 
G01 X-29.7924 Y-11.6110 
G01 X-29.8027 Y-11.5874 
G01 X-29.8189 Y-11.5718 
G01 X-29.8315 Y-11.5531 
G01 X-29.8529 Y-11.5389 
G01 X-29.8713 Y-11.5211 
G01 X-29.8923 Y-11.5128 
G01 X-29.9111 Y-11.5004 
G01 X-29.9363 Y-11.4955 
G01 X-29.9602 Y-11.4861 
G01 X-29.9827 Y-11.4865 
G01 X-35.7120 Y-10.3730 
G01 X-37.8818 Y-8.2788 
G01 X-37.9141 Y-8.2465 
G01 X-37.9602 Y-8.2274 
G01 X-38.0023 Y-8.2100 
G01 X-38.0521 Y-8.2100 
G01 X-43.1150 Y-8.2100 
G01 X-44.0600 Y-7.9283 
G01 X-44.0600 Y-7.7600 
G01 X-43.6383 Y-7.7600 
G01 X-43.6053 Y-7.7463 
G01 X-43.5799 Y-7.7210 
G01 X-43.5662 Y-7.6879 
G01 X-43.5662 Y-5.1915 
G01 X-43.5799 Y-5.1584 
G01 X-43.6053 Y-5.1331 
G01 X-43.6383 Y-5.1194 
G01 X-44.1332 Y-5.1194 
G01 X-44.1610 Y-5.0916 
G01 X-44.9930 Y-5.0916 
G01 X-45.0208 Y-5.1194 
G01 X-45.5791 Y-5.1194 
G01 X-45.6122 Y-5.1331 
G01 X-45.6375 Y-5.1584 
G01 X-45.6512 Y-5.1915 
G01 X-45.6512 Y-7.6879 
G01 X-45.6375 Y-7.7210 
G01 X-45.6122 Y-7.7463 
G01 X-45.5791 Y-7.7600 
G01 X-44.8400 Y-7.7600 
G01 X-44.8400 Y-8.1138 
G01 X-44.8134 Y-8.2130 
G01 X-44.7621 Y-8.3020 
G01 X-44.6895 Y-8.3746 
G01 X-44.6005 Y-8.4259 
G01 X-44.5013 Y-8.4525 
G01 X-44.3987 Y-8.4525 
G01 X-44.2995 Y-8.4259 
G01 X-44.2217 Y-8.3810 
G01 X-43.2304 Y-8.6765 
G01 X-43.1977 Y-8.6900 
G01 X-43.1850 Y-8.6900 
G01 X-43.1728 Y-8.6936 
G01 X-43.1376 Y-8.6900 
G01 X-38.1469 Y-8.6900 
G01 X-36.0123 Y-10.7501 
G01 X-35.9998 Y-10.7688 
G01 X-35.9783 Y-10.7830 
G01 X-35.9598 Y-10.8008 
G01 X-35.9389 Y-10.8091 
G01 X-35.9201 Y-10.8215 
G01 X-35.8949 Y-10.8264 
G01 X-35.8710 Y-10.8358 
G01 X-35.8485 Y-10.8354 
G01 X-30.2404 Y-11.9254 
G01 X-30.2150 Y-13.3941 
G01 X-30.2150 Y-14.1474 
G01 X-30.2013 Y-14.1805 
G01 X-30.1760 Y-14.2058 
G01 X-30.1429 Y-14.2195 
G01 X-29.8071 Y-14.2195 
G01 X-29.7740 Y-14.2058 
G01 X-29.7487 Y-14.1805 
G01 X-29.7350 Y-14.1474 
G01 X-29.7350 Y-13.4376 
G01 X-29.7350 Y-13.3900 
G01 X-29.7350 Y-12.6366 
G01 X-29.7486 Y-12.6038 
G00 Z1.0000 
G00 X-30.2383 Y-12.6287 
G01 Z-0.0800 F50.00 
G01 X-30.2399 Y-12.2447 F100.00 
G01 X-30.2353 Y-12.2193 
G01 X-30.2401 Y-12.1974 
G01 X-30.2402 Y-12.1750 
G01 X-30.2502 Y-12.1512 
G01 X-30.2557 Y-12.1260 
G01 X-30.2685 Y-12.1076 
G01 X-30.2771 Y-12.0869 
G01 X-30.2954 Y-12.0688 
G01 X-30.3101 Y-12.0476 
G01 X-30.3290 Y-12.0355 
G01 X-30.3449 Y-12.0197 
G01 X-30.3688 Y-12.0099 
G01 X-30.3905 Y-11.9960 
G01 X-30.4125 Y-11.9920 
G01 X-30.4333 Y-11.9835 
G01 X-30.4591 Y-11.9837 
G01 X-35.9772 Y-10.9899 
G01 X-38.0536 Y-8.8727 
G01 X-38.0868 Y-8.8388 
G01 X-38.1196 Y-8.8054 
G01 X-38.1644 Y-8.7863 
G01 X-38.2074 Y-8.7680 
G01 X-38.2563 Y-8.7675 
G01 X-38.3029 Y-8.7670 
G01 X-45.7166 Y-8.7675 
G01 X-46.4453 Y-7.9964 
G01 X-46.4380 Y-7.9284 
G01 X-46.4680 Y-7.7350 
G01 X-46.0990 Y-7.7350 
G01 X-46.0659 Y-7.7213 
G01 X-46.0406 Y-7.6960 
G01 X-46.0269 Y-7.6629 
G01 X-46.0269 Y-5.1665 
G01 X-46.0406 Y-5.1334 
G01 X-46.0659 Y-5.1081 
G01 X-46.0990 Y-5.0944 
G01 X-46.6982 Y-5.0944 
G01 X-47.5330 Y-5.0916 
G01 X-48.0398 Y-5.0944 
G01 X-48.0729 Y-5.1081 
G01 X-48.0982 Y-5.1334 
G01 X-48.1119 Y-5.1665 
G01 X-48.1119 Y-5.6704 
G01 X-48.1214 Y-6.5120 
G01 X-48.1119 Y-7.6629 
G01 X-48.0982 Y-7.6960 
G01 X-48.0729 Y-7.7213 
G01 X-48.0398 Y-7.7350 
G01 X-47.2573 Y-7.7350 
G01 X-47.2088 Y-8.0480 
G01 X-47.1673 Y-8.1420 
G01 X-47.1029 Y-8.2220 
G01 X-47.0200 Y-8.2826 
G01 X-46.9243 Y-8.3197 
G01 X-46.8222 Y-8.3308 
G01 X-46.7939 Y-8.3264 
G01 X-46.0248 Y-9.1402 
G01 X-45.9921 Y-9.1748 
G01 X-45.9616 Y-9.2070 
G01 X-45.9150 Y-9.2279 
G01 X-45.8745 Y-9.2461 
G01 X-45.8233 Y-9.2475 
G01 X-45.7790 Y-9.2487 
G01 X-38.3583 Y-9.2475 
G01 X-36.2805 Y-11.3661 
G01 X-36.2649 Y-11.3886 
G01 X-36.2474 Y-11.3998 
G01 X-36.2329 Y-11.4146 
G01 X-36.2076 Y-11.4254 
G01 X-36.1845 Y-11.4402 
G01 X-36.1641 Y-11.4439 
G01 X-36.1451 Y-11.4520 
G01 X-36.1176 Y-11.4523 
G01 X-30.7191 Y-12.4245 
G01 X-30.7150 Y-13.3927 
G01 X-30.7150 Y-14.1474 
G01 X-30.7013 Y-14.1805 
G01 X-30.6760 Y-14.2058 
G01 X-30.6429 Y-14.2195 
G01 X-30.3071 Y-14.2195 
G01 X-30.2740 Y-14.2058 
G01 X-30.2487 Y-14.1805 
G01 X-30.2350 Y-14.1474 
G01 X-30.2350 Y-13.4392 
G01 X-30.2350 Y-13.3911 
G01 X-30.2350 Y-12.6366 
G00 Z1.0000 
G00 X-32.1492 Y-15.1790 
G01 Z-0.0800 F50.00 
G01 X-32.1745 Y-15.1537 F100.00 
G01 X-32.2076 Y-15.1400 
G01 X-32.9620 Y-15.1400 
G01 X-33.7752 Y-15.1345 
G01 X-38.2276 Y-9.4120 
G01 X-38.2334 Y-9.3978 
G01 X-38.2566 Y-9.3746 
G01 X-38.2768 Y-9.3487 
G01 X-38.2901 Y-9.3411 
G01 X-38.3009 Y-9.3303 
G01 X-38.3312 Y-9.3177 
G01 X-38.3598 Y-9.3015 
G01 X-38.3750 Y-9.2996 
G01 X-38.3891 Y-9.2937 
G01 X-38.4220 Y-9.2937 
G01 X-38.4545 Y-9.2897 
G01 X-38.4693 Y-9.2937 
G01 X-47.2194 Y-9.2937 
G01 X-48.1369 Y-7.7141 
G01 X-48.1369 Y-5.0996 
G01 X-48.1227 Y-5.0819 
G01 X-43.4059 Y-5.0819 
G01 X-43.4068 Y-5.1929 
G01 X-43.3790 Y-5.2931 
G01 X-43.3263 Y-5.3827 
G01 X-43.1112 Y-5.5940 
G01 X-43.1112 Y-7.6379 
G01 X-43.0975 Y-7.6710 
G01 X-43.0722 Y-7.6963 
G01 X-43.0391 Y-7.7100 
G01 X-41.0983 Y-7.7100 
G01 X-41.0653 Y-7.6963 
G01 X-41.0399 Y-7.6710 
G01 X-41.0262 Y-7.6379 
G01 X-41.0262 Y-5.1415 
G01 X-41.0399 Y-5.1084 
G01 X-41.0653 Y-5.0831 
G01 X-41.0983 Y-5.0694 
G01 X-42.5185 Y-5.0694 
G01 X-42.7729 Y-4.8195 
G01 X-42.8633 Y-4.7683 
G01 X-42.9640 Y-4.7423 
G01 X-43.0679 Y-4.7432 
G01 X-43.1112 Y-4.7552 
G01 X-43.1353 Y-4.7059 
G01 X-43.2028 Y-4.6384 
G01 X-43.2910 Y-4.6019 
G01 X-48.2534 Y-4.6019 
G01 X-48.3416 Y-4.6384 
G01 X-48.4091 Y-4.7059 
G01 X-48.4456 Y-4.7941 
G01 X-48.4774 Y-4.8369 
G01 X-48.5128 Y-4.8515 
G01 X-48.5803 Y-4.9191 
G01 X-48.6169 Y-5.0073 
G01 X-48.6169 Y-7.7475 
G01 X-48.6211 Y-7.7634 
G01 X-48.6169 Y-7.7948 
G01 X-48.6169 Y-7.8265 
G01 X-48.6106 Y-7.8417 
G01 X-48.6084 Y-7.8580 
G01 X-48.5925 Y-7.8854 
G01 X-48.5803 Y-7.9147 
G01 X-48.5687 Y-7.9263 
G01 X-47.5731 Y-9.6404 
G01 X-47.5610 Y-9.6697 
G01 X-47.5493 Y-9.6813 
G01 X-47.5411 Y-9.6956 
G01 X-47.5159 Y-9.7148 
G01 X-47.4934 Y-9.7372 
G01 X-47.4782 Y-9.7435 
G01 X-47.4652 Y-9.7535 
G01 X-47.4345 Y-9.7616 
G01 X-47.4052 Y-9.7737 
G01 X-47.3888 Y-9.7737 
G01 X-47.3729 Y-9.7780 
G01 X-47.3415 Y-9.7737 
G01 X-38.5542 Y-9.7737 
G01 X-34.1030 Y-15.4949 
G01 X-34.0975 Y-15.5083 
G01 X-34.0739 Y-15.5323 
G01 X-34.0532 Y-15.5588 
G01 X-34.0406 Y-15.5660 
G01 X-34.0304 Y-15.5763 
G01 X-33.9995 Y-15.5894 
G01 X-33.9702 Y-15.6060 
G01 X-33.9558 Y-15.6078 
G01 X-33.9425 Y-15.6134 
G01 X-33.9088 Y-15.6136 
G01 X-33.8755 Y-15.6178 
G01 X-33.8615 Y-15.6140 
G01 X-33.7308 Y-15.6148 
G01 X-33.7184 Y-15.6200 
G01 X-32.9639 Y-15.6200 
G01 X-32.9169 Y-15.6203 
G01 X-32.2076 Y-15.6200 
G01 X-32.1745 Y-15.6063 
G01 X-32.1492 Y-15.5810 
G01 X-32.1355 Y-15.5479 
G01 X-32.1355 Y-15.2121 
G01 X-32.1492 Y-15.1790 
G00 Z1.0000 
G00 X-32.1492 Y-15.6790 
G01 Z-0.0800 F50.00 
G01 X-32.1745 Y-15.6537 F100.00 
G01 X-32.2076 Y-15.6400 
G01 X-32.9624 Y-15.6400 
G01 X-34.0920 Y-15.6355 
G01 X-38.4404 Y-9.9789 
G01 X-38.4465 Y-9.9641 
G01 X-38.4692 Y-9.9413 
G01 X-38.4888 Y-9.9159 
G01 X-38.5027 Y-9.9079 
G01 X-38.5140 Y-9.8965 
G01 X-38.5437 Y-9.8843 
G01 X-38.5715 Y-9.8682 
G01 X-38.5874 Y-9.8661 
G01 X-38.6023 Y-9.8600 
G01 X-38.6344 Y-9.8600 
G01 X-38.6662 Y-9.8558 
G01 X-38.6817 Y-9.8600 
G01 X-50.9084 Y-9.8600 
G01 X-51.7108 Y-8.4087 
G01 X-51.6984 Y-8.3839 
G01 X-51.6777 Y-8.2834 
G01 X-51.7114 Y-7.7100 
G01 X-51.1790 Y-7.7100 
G01 X-51.1459 Y-7.6963 
G01 X-51.1206 Y-7.6710 
G01 X-51.1069 Y-7.6379 
G01 X-51.1069 Y-5.1415 
G01 X-51.1206 Y-5.1084 
G01 X-51.1459 Y-5.0831 
G01 X-51.1790 Y-5.0694 
G01 X-53.1198 Y-5.0694 
G01 X-53.1529 Y-5.0831 
G01 X-53.1782 Y-5.1084 
G01 X-53.1919 Y-5.1415 
G01 X-53.1919 Y-5.6704 
G01 X-53.2014 Y-6.5120 
G01 X-53.1919 Y-7.6379 
G01 X-53.1782 Y-7.6710 
G01 X-53.1529 Y-7.6963 
G01 X-53.1198 Y-7.7100 
G01 X-52.4927 Y-7.7100 
G01 X-52.4563 Y-8.3292 
G01 X-52.4240 Y-8.4266 
G01 X-52.3675 Y-8.5124 
G01 X-52.2907 Y-8.5806 
G01 X-52.1989 Y-8.6266 
G01 X-52.1311 Y-8.6406 
G01 X-51.2666 Y-10.2043 
G01 X-51.2535 Y-10.2359 
G01 X-51.2369 Y-10.2579 
G01 X-51.2102 Y-10.2792 
G01 X-51.1859 Y-10.3035 
G01 X-51.1731 Y-10.3088 
G01 X-51.1623 Y-10.3174 
G01 X-51.1294 Y-10.3269 
G01 X-51.0977 Y-10.3400 
G01 X-51.0839 Y-10.3400 
G01 X-51.0705 Y-10.3438 
G01 X-51.0365 Y-10.3400 
G01 X-38.7682 Y-10.3400 
G01 X-34.4205 Y-15.9957 
G01 X-34.4146 Y-16.0101 
G01 X-34.3917 Y-16.0333 
G01 X-34.3718 Y-16.0591 
G01 X-34.3583 Y-16.0669 
G01 X-34.3474 Y-16.0779 
G01 X-34.3173 Y-16.0905 
G01 X-34.2891 Y-16.1068 
G01 X-34.2737 Y-16.1088 
G01 X-34.2593 Y-16.1148 
G01 X-34.2267 Y-16.1149 
G01 X-34.1944 Y-16.1192 
G01 X-34.1794 Y-16.1151 
G01 X-33.7258 Y-16.1169 
G01 X-32.9640 Y-16.1200 
G01 X-32.9162 Y-16.1202 
G01 X-32.2076 Y-16.1200 
G01 X-32.1745 Y-16.1063 
G01 X-32.1492 Y-16.0810 
G01 X-32.1355 Y-16.0479 
G01 X-32.1355 Y-15.7121 
G01 X-32.1492 Y-15.6790 
G00 Z1.0000 
G00 X-32.1492 Y-16.1790 
G01 Z-0.0800 F50.00 
G01 X-32.1745 Y-16.1537 F100.00 
G01 X-32.2076 Y-16.1400 
G01 X-33.7184 Y-16.1400 
G01 X-33.7431 Y-16.1502 
G01 X-34.4416 Y-16.1370 
G01 X-38.6913 Y-10.5284 
G01 X-38.6971 Y-10.5145 
G01 X-38.7169 Y-10.4946 
G01 X-38.7338 Y-10.4723 
G01 X-38.7469 Y-10.4647 
G01 X-38.7576 Y-10.4540 
G01 X-38.7835 Y-10.4433 
G01 X-38.8077 Y-10.4291 
G01 X-38.8226 Y-10.4270 
G01 X-38.8366 Y-10.4213 
G01 X-38.8646 Y-10.4213 
G01 X-38.8924 Y-10.4174 
G01 X-38.9070 Y-10.4213 
G01 X-45.2213 Y-10.4213 
G01 X-45.2411 Y-10.4171 
G01 X-45.2636 Y-10.4213 
G01 X-45.2865 Y-10.4213 
G01 X-45.3053 Y-10.4290 
G01 X-45.3252 Y-10.4327 
G01 X-45.3444 Y-10.4452 
G01 X-45.3655 Y-10.4540 
G01 X-45.3799 Y-10.4683 
G01 X-45.3969 Y-10.4794 
G01 X-45.4098 Y-10.4983 
G01 X-45.4260 Y-10.5145 
G01 X-45.4338 Y-10.5332 
G01 X-49.1037 Y-15.8856 
G01 X-51.3455 Y-15.8983 
G01 X-51.3455 Y-15.7996 
G01 X-51.3592 Y-15.7665 
G01 X-51.3845 Y-15.7412 
G01 X-51.4176 Y-15.7275 
G01 X-52.7484 Y-15.7275 
G01 X-52.7815 Y-15.7412 
G01 X-52.8068 Y-15.7665 
G01 X-52.8205 Y-15.7996 
G01 X-52.8205 Y-16.4354 
G01 X-52.8068 Y-16.4685 
G01 X-52.7815 Y-16.4938 
G01 X-52.7484 Y-16.5075 
G01 X-51.4176 Y-16.5075 
G01 X-51.3845 Y-16.4938 
G01 X-51.3592 Y-16.4685 
G01 X-51.3455 Y-16.4354 
G01 X-51.3455 Y-16.3283 
G01 X-49.0119 Y-16.3151 
G01 X-48.9926 Y-16.3192 
G01 X-48.9695 Y-16.3149 
G01 X-48.9460 Y-16.3148 
G01 X-48.9279 Y-16.3071 
G01 X-48.9085 Y-16.3035 
G01 X-48.8889 Y-16.2907 
G01 X-48.8672 Y-16.2816 
G01 X-48.8533 Y-16.2676 
G01 X-48.8369 Y-16.2569 
G01 X-48.8236 Y-16.2375 
G01 X-48.8070 Y-16.2208 
G01 X-48.7996 Y-16.2025 
G01 X-45.1305 Y-10.8512 
G01 X-38.9862 Y-10.8512 
G01 X-34.7393 Y-16.4562 
G01 X-34.7345 Y-16.4683 
G01 X-34.7137 Y-16.4900 
G01 X-34.6955 Y-16.5139 
G01 X-34.6843 Y-16.5205 
G01 X-34.6477 Y-16.5420 
G01 X-34.6217 Y-16.5571 
G01 X-34.6088 Y-16.5589 
G01 X-34.5968 Y-16.5642 
G01 X-34.5668 Y-16.5647 
G01 X-34.5370 Y-16.5688 
G01 X-34.5244 Y-16.5655 
G01 X-33.7773 Y-16.5796 
G01 X-33.7515 Y-16.6063 
G01 X-33.7184 Y-16.6200 
G01 X-32.2076 Y-16.6200 
G01 X-32.1745 Y-16.6063 
G01 X-32.1492 Y-16.5810 
G01 X-32.1355 Y-16.5479 
G01 X-32.1355 Y-16.2121 
G01 X-32.1492 Y-16.1790 
G00 Z1.0000 
G00 X-32.1492 Y-16.6790 
G01 Z-0.0800 F50.00 
G01 X-32.1745 Y-16.6537 F100.00 
G01 X-32.2076 Y-16.6400 
G01 X-33.7184 Y-16.6400 
G01 X-33.7515 Y-16.6537 
G01 X-33.7713 Y-16.6736 
G01 X-34.7426 Y-16.6838 
G01 X-38.9496 Y-11.0058 
G01 X-38.9559 Y-10.9907 
G01 X-38.9749 Y-10.9717 
G01 X-38.9908 Y-10.9501 
G01 X-39.0048 Y-10.9418 
G01 X-39.0163 Y-10.9302 
G01 X-39.0412 Y-10.9200 
G01 X-39.0642 Y-10.9061 
G01 X-39.0803 Y-10.9037 
G01 X-39.0954 Y-10.8975 
G01 X-39.1222 Y-10.8975 
G01 X-39.1488 Y-10.8935 
G01 X-39.1646 Y-10.8975 
G01 X-44.9545 Y-10.8975 
G01 X-44.9750 Y-10.8933 
G01 X-44.9968 Y-10.8975 
G01 X-45.0190 Y-10.8975 
G01 X-45.0384 Y-10.9055 
G01 X-45.0590 Y-10.9095 
G01 X-45.0775 Y-10.9217 
G01 X-45.0980 Y-10.9302 
G01 X-45.1129 Y-10.9451 
G01 X-45.1304 Y-10.9566 
G01 X-45.1428 Y-10.9750 
G01 X-45.1585 Y-10.9907 
G01 X-45.1665 Y-11.0101 
G01 X-49.0046 Y-16.6856 
G01 X-51.3455 Y-16.6985 
G01 X-51.3455 Y-16.5996 
G01 X-51.3592 Y-16.5665 
G01 X-51.3845 Y-16.5412 
G01 X-51.4176 Y-16.5275 
G01 X-52.7484 Y-16.5275 
G01 X-52.7815 Y-16.5412 
G01 X-52.8068 Y-16.5665 
G01 X-52.8205 Y-16.5996 
G01 X-52.8205 Y-17.2354 
G01 X-52.8068 Y-17.2685 
G01 X-52.7815 Y-17.2938 
G01 X-52.7484 Y-17.3075 
G01 X-51.4176 Y-17.3075 
G01 X-51.3845 Y-17.2938 
G01 X-51.3592 Y-17.2685 
G01 X-51.3455 Y-17.2354 
G01 X-51.3455 Y-17.1285 
G01 X-48.9112 Y-17.1151 
G01 X-48.8912 Y-17.1192 
G01 X-48.8688 Y-17.1149 
G01 X-48.8461 Y-17.1148 
G01 X-48.8273 Y-17.1069 
G01 X-48.8072 Y-17.1030 
G01 X-48.7882 Y-17.0904 
G01 X-48.7672 Y-17.0816 
G01 X-48.7529 Y-17.0671 
G01 X-48.7359 Y-17.0559 
G01 X-48.7231 Y-17.0370 
G01 X-48.7071 Y-17.0208 
G01 X-48.6994 Y-17.0019 
G01 X-44.8621 Y-11.3275 
G01 X-39.2464 Y-11.3275 
G01 X-35.0378 Y-17.0077 
G01 X-35.0310 Y-17.0237 
G01 X-35.0126 Y-17.0417 
G01 X-34.9973 Y-17.0624 
G01 X-34.9823 Y-17.0713 
G01 X-34.9698 Y-17.0835 
G01 X-34.9460 Y-17.0931 
G01 X-34.9239 Y-17.1064 
G01 X-34.9067 Y-17.1089 
G01 X-34.8905 Y-17.1154 
G01 X-34.8648 Y-17.1152 
G01 X-34.8393 Y-17.1190 
G01 X-34.8224 Y-17.1147 
G01 X-33.7544 Y-17.1034 
G01 X-33.7184 Y-17.1200 
G01 X-32.2076 Y-17.1200 
G01 X-32.1745 Y-17.1063 
G01 X-32.1492 Y-17.0810 
G01 X-32.1355 Y-17.0479 
G01 X-32.1355 Y-16.7121 
G01 X-32.1492 Y-16.6790 
G00 Z1.0000 
G00 X-32.1492 Y-17.6790 
G01 Z-0.0800 F50.00 
G01 X-32.1745 Y-17.6537 F100.00 
G01 X-32.2076 Y-17.6400 
G01 X-33.7184 Y-17.6400 
G01 X-33.7515 Y-17.6537 
G01 X-34.8128 Y-17.6455 
G01 X-39.1662 Y-11.4843 
G01 X-39.1734 Y-11.4670 
G01 X-39.1906 Y-11.4497 
G01 X-39.2047 Y-11.4298 
G01 X-39.2206 Y-11.4197 
G01 X-39.2338 Y-11.4065 
G01 X-39.2564 Y-11.3971 
G01 X-39.2770 Y-11.3841 
G01 X-39.2955 Y-11.3809 
G01 X-39.3129 Y-11.3737 
G01 X-39.3373 Y-11.3737 
G01 X-39.3613 Y-11.3696 
G01 X-39.3796 Y-11.3737 
G01 X-44.6368 Y-11.3737 
G01 X-44.6571 Y-11.3695 
G01 X-44.6791 Y-11.3737 
G01 X-44.7015 Y-11.3737 
G01 X-44.7207 Y-11.3817 
G01 X-44.7412 Y-11.3856 
G01 X-44.7598 Y-11.3979 
G01 X-44.7805 Y-11.4065 
G01 X-44.7952 Y-11.4212 
G01 X-44.8126 Y-11.4326 
G01 X-44.8252 Y-11.4511 
G01 X-44.8410 Y-11.4670 
G01 X-44.8490 Y-11.4862 
G01 X-48.9049 Y-17.4615 
G01 X-51.3455 Y-17.4930 
G01 X-51.3455 Y-17.3996 
G01 X-51.3592 Y-17.3665 
G01 X-51.3845 Y-17.3412 
G01 X-51.4176 Y-17.3275 
G01 X-52.7484 Y-17.3275 
G01 X-52.7815 Y-17.3412 
G01 X-52.8068 Y-17.3665 
G01 X-52.8205 Y-17.3996 
G01 X-52.8205 Y-18.0354 
G01 X-52.8068 Y-18.0685 
G01 X-52.7815 Y-18.0938 
G01 X-52.7484 Y-18.1075 
G01 X-51.4176 Y-18.1075 
G01 X-51.3845 Y-18.0938 
G01 X-51.3592 Y-18.0685 
G01 X-51.3455 Y-18.0354 
G01 X-51.3455 Y-17.9230 
G01 X-48.8106 Y-17.8903 
G01 X-48.7916 Y-17.8942 
G01 X-48.7683 Y-17.8897 
G01 X-48.7445 Y-17.8894 
G01 X-48.7266 Y-17.8818 
G01 X-48.7076 Y-17.8781 
G01 X-48.6877 Y-17.8651 
G01 X-48.6659 Y-17.8557 
G01 X-48.6523 Y-17.8418 
G01 X-48.6361 Y-17.8311 
G01 X-48.6228 Y-17.8115 
G01 X-48.6062 Y-17.7944 
G01 X-48.5990 Y-17.7764 
G01 X-44.5448 Y-11.8037 
G01 X-39.4670 Y-11.8037 
G01 X-35.1151 Y-17.9629 
G01 X-35.1085 Y-17.9792 
G01 X-35.0907 Y-17.9975 
G01 X-35.0759 Y-18.0184 
G01 X-35.0610 Y-18.0278 
G01 X-35.0487 Y-18.0404 
G01 X-35.0252 Y-18.0504 
G01 X-35.0036 Y-18.0640 
G01 X-34.9862 Y-18.0670 
G01 X-34.9700 Y-18.0739 
G01 X-34.9445 Y-18.0742 
G01 X-34.9193 Y-18.0785 
G01 X-34.9021 Y-18.0746 
G01 X-33.7713 Y-18.0865 
G01 X-33.7515 Y-18.1063 
G01 X-33.7184 Y-18.1200 
G01 X-32.2076 Y-18.1200 
G01 X-32.1745 Y-18.1063 
G01 X-32.1492 Y-18.0810 
G01 X-32.1355 Y-18.0479 
G01 X-32.1355 Y-17.7121 
G01 X-32.1492 Y-17.6790 
G00 Z1.0000 
G00 X-32.1492 Y-18.1790 
G01 Z-0.0800 F50.00 
G01 X-32.1745 Y-18.1537 F100.00 
G01 X-32.2076 Y-18.1400 
G01 X-33.7184 Y-18.1400 
G01 X-33.7515 Y-18.1537 
G01 X-33.7757 Y-18.1779 
G01 X-35.0522 Y-18.1982 
G01 X-39.4041 Y-11.9611 
G01 X-39.4115 Y-11.9432 
G01 X-39.4283 Y-11.9264 
G01 X-39.4419 Y-11.9069 
G01 X-39.4582 Y-11.8965 
G01 X-39.4720 Y-11.8827 
G01 X-39.4939 Y-11.8736 
G01 X-39.5140 Y-11.8608 
G01 X-39.5331 Y-11.8574 
G01 X-39.5510 Y-11.8500 
G01 X-39.5748 Y-11.8500 
G01 X-39.5982 Y-11.8458 
G01 X-39.6171 Y-11.8500 
G01 X-44.3701 Y-11.8500 
G01 X-44.3913 Y-11.8458 
G01 X-44.4124 Y-11.8500 
G01 X-44.4340 Y-11.8500 
G01 X-44.4540 Y-11.8583 
G01 X-44.4752 Y-11.8625 
G01 X-44.4931 Y-11.8745 
G01 X-44.5130 Y-11.8827 
G01 X-44.5283 Y-11.8980 
G01 X-44.5463 Y-11.9100 
G01 X-44.5583 Y-11.9280 
G01 X-44.5735 Y-11.9432 
G01 X-44.5818 Y-11.9632 
G01 X-48.8053 Y-18.2856 
G01 X-51.3455 Y-18.2987 
G01 X-51.3455 Y-18.1996 
G01 X-51.3592 Y-18.1665 
G01 X-51.3845 Y-18.1412 
G01 X-51.4176 Y-18.1275 
G01 X-52.7484 Y-18.1275 
G01 X-52.7815 Y-18.1412 
G01 X-52.8068 Y-18.1665 
G01 X-52.8205 Y-18.1996 
G01 X-52.8205 Y-18.8354 
G01 X-52.8068 Y-18.8685 
G01 X-52.7815 Y-18.8938 
G01 X-52.7484 Y-18.9075 
G01 X-51.4176 Y-18.9075 
G01 X-51.3845 Y-18.8938 
G01 X-51.3592 Y-18.8685 
G01 X-51.3455 Y-18.8354 
G01 X-51.3455 Y-18.7287 
G01 X-48.7106 Y-18.7151 
G01 X-48.6900 Y-18.7192 
G01 X-48.6683 Y-18.7149 
G01 X-48.6461 Y-18.7148 
G01 X-48.6267 Y-18.7066 
G01 X-48.6061 Y-18.7025 
G01 X-48.5877 Y-18.6902 
G01 X-48.5673 Y-18.6816 
G01 X-48.5525 Y-18.6667 
G01 X-48.5350 Y-18.6550 
G01 X-48.5227 Y-18.6366 
G01 X-48.5071 Y-18.6208 
G01 X-48.4992 Y-18.6014 
G01 X-44.2763 Y-12.2800 
G01 X-39.7059 Y-12.2800 
G01 X-35.3518 Y-18.5203 
G01 X-35.3434 Y-18.5397 
G01 X-35.3276 Y-18.5550 
G01 X-35.3150 Y-18.5731 
G01 X-35.2972 Y-18.5845 
G01 X-35.2820 Y-18.5992 
G01 X-35.2615 Y-18.6073 
G01 X-35.2429 Y-18.6192 
G01 X-35.2221 Y-18.6229 
G01 X-35.2025 Y-18.6306 
G01 X-35.1804 Y-18.6303 
G01 X-35.1587 Y-18.6342 
G01 X-35.1381 Y-18.6296 
G01 X-33.7485 Y-18.6075 
G01 X-33.7184 Y-18.6200 
G01 X-32.2076 Y-18.6200 
G01 X-32.1745 Y-18.6063 
G01 X-32.1492 Y-18.5810 
G01 X-32.1355 Y-18.5479 
G01 X-32.1355 Y-18.2121 
G01 X-32.1492 Y-18.1790 
G00 Z1.0000 
G00 X-32.1492 Y-18.6790 
G01 Z-0.0800 F50.00 
G01 X-32.1745 Y-18.6537 F100.00 
G01 X-32.2076 Y-18.6400 
G01 X-33.7184 Y-18.6400 
G01 X-33.7515 Y-18.6537 
G01 X-33.7664 Y-18.6686 
G01 X-35.3674 Y-18.6757 
G01 X-39.6211 Y-12.4384 
G01 X-39.6290 Y-12.4195 
G01 X-39.6450 Y-12.4035 
G01 X-39.6577 Y-12.3848 
G01 X-39.6749 Y-12.3735 
G01 X-39.6895 Y-12.3590 
G01 X-39.7104 Y-12.3503 
G01 X-39.7293 Y-12.3379 
G01 X-39.7495 Y-12.3341 
G01 X-39.7685 Y-12.3262 
G01 X-39.7911 Y-12.3262 
G01 X-39.8133 Y-12.3220 
G01 X-39.8335 Y-12.3262 
G01 X-44.1034 Y-12.3262 
G01 X-44.1254 Y-12.3220 
G01 X-44.1458 Y-12.3262 
G01 X-44.1665 Y-12.3262 
G01 X-44.1872 Y-12.3348 
G01 X-44.2092 Y-12.3394 
G01 X-44.2264 Y-12.3510 
G01 X-44.2455 Y-12.3590 
G01 X-44.2614 Y-12.3748 
G01 X-44.2799 Y-12.3874 
G01 X-44.2913 Y-12.4048 
G01 X-44.3060 Y-12.4195 
G01 X-44.3146 Y-12.4402 
G01 X-48.6814 Y-19.0856 
G01 X-51.3455 Y-19.0988 
G01 X-51.3455 Y-18.9996 
G01 X-51.3592 Y-18.9665 
G01 X-51.3845 Y-18.9412 
G01 X-51.4176 Y-18.9275 
G01 X-52.7484 Y-18.9275 
G01 X-52.7815 Y-18.9412 
G01 X-52.8068 Y-18.9665 
G01 X-52.8205 Y-18.9996 
G01 X-52.8205 Y-19.6354 
G01 X-52.8068 Y-19.6685 
G01 X-52.7815 Y-19.6938 
G01 X-52.7484 Y-19.7075 
G01 X-51.4176 Y-19.7075 
G01 X-51.3845 Y-19.6938 
G01 X-51.3592 Y-19.6685 
G01 X-51.3455 Y-19.6354 
G01 X-51.3455 Y-19.5288 
G01 X-48.5848 Y-19.5151 
G01 X-48.5633 Y-19.5192 
G01 X-48.5425 Y-19.5149 
G01 X-48.5212 Y-19.5148 
G01 X-48.5010 Y-19.5063 
G01 X-48.4796 Y-19.5019 
G01 X-48.4619 Y-19.4899 
G01 X-48.4423 Y-19.4817 
G01 X-48.4269 Y-19.4661 
G01 X-48.4088 Y-19.4538 
G01 X-48.3971 Y-19.4360 
G01 X-48.3821 Y-19.4209 
G01 X-48.3739 Y-19.4006 
G01 X-44.0078 Y-12.7562 
G01 X-39.9249 Y-12.7562 
G01 X-35.6705 Y-18.9945 
G01 X-35.6623 Y-19.0139 
G01 X-35.6466 Y-19.0294 
G01 X-35.6342 Y-19.0477 
G01 X-35.6165 Y-19.0592 
G01 X-35.6016 Y-19.0741 
G01 X-35.5811 Y-19.0824 
G01 X-35.5626 Y-19.0946 
G01 X-35.5419 Y-19.0985 
G01 X-35.5224 Y-19.1064 
G01 X-35.5003 Y-19.1063 
G01 X-35.4785 Y-19.1105 
G01 X-35.4579 Y-19.1061 
G01 X-33.7592 Y-19.0986 
G01 X-33.7184 Y-19.1200 
G01 X-32.2076 Y-19.1200 
G01 X-32.1745 Y-19.1063 
G01 X-32.1492 Y-19.0810 
G01 X-32.1355 Y-19.0479 
G01 X-32.1355 Y-18.7121 
G01 X-32.1492 Y-18.6790 
G00 Z1.0000 
G00 X-32.1492 Y-19.1790 
G01 Z-0.0800 F50.00 
G01 X-32.1745 Y-19.1537 F100.00 
G01 X-32.2076 Y-19.1400 
G01 X-33.7184 Y-19.1400 
G01 X-33.7515 Y-19.1537 
G01 X-35.8717 Y-19.1560 
G01 X-39.8373 Y-12.9180 
G01 X-39.8465 Y-12.8957 
G01 X-39.8600 Y-12.8822 
G01 X-39.8703 Y-12.8661 
G01 X-39.8899 Y-12.8523 
G01 X-39.9070 Y-12.8352 
G01 X-39.9246 Y-12.8279 
G01 X-39.9403 Y-12.8169 
G01 X-39.9638 Y-12.8117 
G01 X-39.9860 Y-12.8025 
G01 X-40.0051 Y-12.8025 
G01 X-40.0238 Y-12.7983 
G01 X-40.0475 Y-12.8025 
G01 X-43.8458 Y-12.8025 
G01 X-43.8691 Y-12.7983 
G01 X-43.8882 Y-12.8025 
G01 X-43.9078 Y-12.8025 
G01 X-43.9296 Y-12.8115 
G01 X-43.9527 Y-12.8166 
G01 X-43.9687 Y-12.8277 
G01 X-43.9868 Y-12.8352 
G01 X-44.0035 Y-12.8519 
G01 X-44.0229 Y-12.8654 
G01 X-44.0334 Y-12.8819 
G01 X-44.0473 Y-12.8957 
G01 X-44.0563 Y-12.9175 
G01 X-48.5568 Y-19.9339 
G01 X-51.3455 Y-19.9091 
G01 X-51.3455 Y-19.7996 
G01 X-51.3592 Y-19.7665 
G01 X-51.3845 Y-19.7412 
G01 X-51.4176 Y-19.7275 
G01 X-52.7484 Y-19.7275 
G01 X-52.7815 Y-19.7412 
G01 X-52.8068 Y-19.7665 
G01 X-52.8205 Y-19.7996 
G01 X-52.8205 Y-20.4354 
G01 X-52.8068 Y-20.4685 
G01 X-52.7815 Y-20.4938 
G01 X-52.7484 Y-20.5075 
G01 X-51.4176 Y-20.5075 
G01 X-51.3845 Y-20.4938 
G01 X-51.3592 Y-20.4685 
G01 X-51.3455 Y-20.4354 
G01 X-51.3455 Y-20.3391 
G01 X-48.4601 Y-20.3648 
G01 X-48.4359 Y-20.3692 
G01 X-48.4177 Y-20.3652 
G01 X-48.3991 Y-20.3654 
G01 X-48.3764 Y-20.3562 
G01 X-48.3523 Y-20.3509 
G01 X-48.3371 Y-20.3403 
G01 X-48.3198 Y-20.3333 
G01 X-48.3023 Y-20.3161 
G01 X-48.2821 Y-20.3021 
G01 X-48.2721 Y-20.2864 
G01 X-48.2588 Y-20.2734 
G01 X-48.2492 Y-20.2508 
G01 X-43.7475 Y-13.2325 
G01 X-40.1468 Y-13.2325 
G01 X-36.1817 Y-19.4699 
G01 X-36.1726 Y-19.4918 
G01 X-36.1589 Y-19.5056 
G01 X-36.1485 Y-19.5221 
G01 X-36.1291 Y-19.5357 
G01 X-36.1123 Y-19.5525 
G01 X-36.0944 Y-19.5600 
G01 X-36.0785 Y-19.5712 
G01 X-36.0553 Y-19.5763 
G01 X-36.0334 Y-19.5855 
G01 X-36.0140 Y-19.5855 
G01 X-35.9950 Y-19.5898 
G01 X-35.9716 Y-19.5857 
G01 X-33.7653 Y-19.5925 
G01 X-33.7515 Y-19.6063 
G01 X-33.7184 Y-19.6200 
G01 X-32.2076 Y-19.6200 
G01 X-32.1745 Y-19.6063 
G01 X-32.1492 Y-19.5810 
G01 X-32.1355 Y-19.5479 
G01 X-32.1355 Y-19.2121 
G01 X-32.1492 Y-19.1790 
G00 Z1.0000 
G00 X-32.1492 Y-19.6790 
G01 Z-0.0800 F50.00 
G01 X-32.1745 Y-19.6537 F100.00 
G01 X-32.2076 Y-19.6400 
G01 X-33.7184 Y-19.6400 
G01 X-33.7515 Y-19.6537 
G01 X-33.7655 Y-19.6677 
G01 X-36.1954 Y-19.6759 
G01 X-38.5983 Y-16.0501 
G01 X-38.6056 Y-16.0315 
G01 X-38.6216 Y-16.0148 
G01 X-38.6344 Y-15.9956 
G01 X-38.6511 Y-15.9844 
G01 X-38.6650 Y-15.9699 
G01 X-38.6862 Y-15.9607 
G01 X-38.7053 Y-15.9478 
G01 X-38.7250 Y-15.9438 
G01 X-38.7434 Y-15.9358 
G01 X-38.7665 Y-15.9354 
G01 X-38.7892 Y-15.9308 
G01 X-38.8089 Y-15.9346 
G01 X-39.8895 Y-15.9155 
G01 X-39.8895 Y-15.7996 
G01 X-39.9032 Y-15.7665 
G01 X-39.9285 Y-15.7412 
G01 X-39.9616 Y-15.7275 
G01 X-41.2924 Y-15.7275 
G01 X-41.3255 Y-15.7412 
G01 X-41.3508 Y-15.7665 
G01 X-41.3645 Y-15.7996 
G01 X-41.3645 Y-16.4354 
G01 X-41.3508 Y-16.4685 
G01 X-41.3255 Y-16.4938 
G01 X-41.2924 Y-16.5075 
G01 X-39.9616 Y-16.5075 
G01 X-39.9285 Y-16.4938 
G01 X-39.9032 Y-16.4685 
G01 X-39.8895 Y-16.4354 
G01 X-39.8895 Y-16.3456 
G01 X-38.9068 Y-16.3630 
G01 X-36.5011 Y-19.9930 
G01 X-36.4925 Y-20.0136 
G01 X-36.4777 Y-20.0283 
G01 X-36.4662 Y-20.0457 
G01 X-36.4477 Y-20.0582 
G01 X-36.4318 Y-20.0739 
G01 X-36.4125 Y-20.0818 
G01 X-36.3953 Y-20.0935 
G01 X-36.3734 Y-20.0979 
G01 X-36.3527 Y-20.1064 
G01 X-36.3318 Y-20.1063 
G01 X-36.3115 Y-20.1105 
G01 X-36.2895 Y-20.1062 
G01 X-33.7601 Y-20.0977 
G01 X-33.7184 Y-20.1200 
G01 X-32.2076 Y-20.1200 
G01 X-32.1745 Y-20.1063 
G01 X-32.1492 Y-20.0810 
G01 X-32.1355 Y-20.0479 
G01 X-32.1355 Y-19.7121 
G01 X-32.1492 Y-19.6790 
G00 Z1.0000 
G00 X-32.1492 Y-20.1790 
G01 Z-0.0800 F50.00 
G01 X-32.1745 Y-20.1537 F100.00 
G01 X-32.2076 Y-20.1400 
G01 X-33.7184 Y-20.1400 
G01 X-33.7515 Y-20.1537 
G01 X-33.7672 Y-20.1694 
G01 X-36.4000 Y-20.1838 
G01 X-38.6989 Y-16.8484 
G01 X-38.7055 Y-16.8316 
G01 X-38.7230 Y-16.8135 
G01 X-38.7372 Y-16.7928 
G01 X-38.7523 Y-16.7830 
G01 X-38.7648 Y-16.7700 
G01 X-38.7879 Y-16.7600 
G01 X-38.8090 Y-16.7463 
G01 X-38.8267 Y-16.7430 
G01 X-38.8432 Y-16.7358 
G01 X-38.8684 Y-16.7354 
G01 X-38.8932 Y-16.7308 
G01 X-38.9108 Y-16.7346 
G01 X-39.8895 Y-16.7163 
G01 X-39.8895 Y-16.5996 
G01 X-39.9032 Y-16.5665 
G01 X-39.9285 Y-16.5412 
G01 X-39.9616 Y-16.5275 
G01 X-41.2924 Y-16.5275 
G01 X-41.3255 Y-16.5412 
G01 X-41.3508 Y-16.5665 
G01 X-41.3645 Y-16.5996 
G01 X-41.3645 Y-17.2354 
G01 X-41.3508 Y-17.2685 
G01 X-41.3255 Y-17.2938 
G01 X-41.2924 Y-17.3075 
G01 X-39.9616 Y-17.3075 
G01 X-39.9285 Y-17.2938 
G01 X-39.9032 Y-17.2685 
G01 X-39.8895 Y-17.2354 
G01 X-39.8895 Y-17.1463 
G01 X-39.0044 Y-17.1629 
G01 X-36.7021 Y-20.5032 
G01 X-36.6941 Y-20.5222 
G01 X-36.6781 Y-20.5380 
G01 X-36.6653 Y-20.5566 
G01 X-36.6480 Y-20.5678 
G01 X-36.6333 Y-20.5823 
G01 X-36.6124 Y-20.5908 
G01 X-36.5935 Y-20.6031 
G01 X-36.5732 Y-20.6068 
G01 X-36.5541 Y-20.6146 
G01 X-36.5315 Y-20.6145 
G01 X-36.5093 Y-20.6186 
G01 X-36.4892 Y-20.6142 
G01 X-33.7584 Y-20.5993 
G01 X-33.7184 Y-20.6200 
G01 X-32.2076 Y-20.6200 
G01 X-32.1745 Y-20.6063 
G01 X-32.1492 Y-20.5810 
G01 X-32.1355 Y-20.5479 
G01 X-32.1355 Y-20.2121 
G01 X-32.1492 Y-20.1790 
G00 Z1.0000 
G00 X-32.1492 Y-20.6790 
G01 Z-0.0800 F50.00 
G01 X-32.1745 Y-20.6537 F100.00 
G01 X-32.2076 Y-20.6400 
G01 X-33.7184 Y-20.6400 
G01 X-33.7515 Y-20.6537 
G01 X-33.7619 Y-20.6641 
G01 X-36.6436 Y-20.6608 
G01 X-39.0050 Y-17.5382 
G01 X-39.0136 Y-17.5198 
G01 X-39.0305 Y-17.5044 
G01 X-39.0443 Y-17.4862 
G01 X-39.0619 Y-17.4759 
G01 X-39.0769 Y-17.4622 
G01 X-39.0984 Y-17.4545 
G01 X-39.1181 Y-17.4429 
G01 X-39.1382 Y-17.4401 
G01 X-39.1574 Y-17.4332 
G01 X-39.1802 Y-17.4343 
G01 X-39.2028 Y-17.4312 
G01 X-39.2225 Y-17.4363 
G01 X-39.8895 Y-17.4676 
G01 X-39.8895 Y-17.3996 
G01 X-39.9032 Y-17.3665 
G01 X-39.9285 Y-17.3412 
G01 X-39.9616 Y-17.3275 
G01 X-41.2924 Y-17.3275 
G01 X-41.3255 Y-17.3412 
G01 X-41.3508 Y-17.3665 
G01 X-41.3645 Y-17.3996 
G01 X-41.3645 Y-18.0354 
G01 X-41.3508 Y-18.0685 
G01 X-41.3255 Y-18.0938 
G01 X-41.2924 Y-18.1075 
G01 X-39.9616 Y-18.1075 
G01 X-39.9285 Y-18.0938 
G01 X-39.9032 Y-18.0685 
G01 X-39.8895 Y-18.0354 
G01 X-39.8895 Y-17.8981 
G01 X-39.2931 Y-17.8701 
G01 X-36.9388 Y-20.9832 
G01 X-36.9330 Y-20.9972 
G01 X-36.9132 Y-21.0170 
G01 X-36.8963 Y-21.0394 
G01 X-36.8833 Y-21.0471 
G01 X-36.8726 Y-21.0577 
G01 X-36.8467 Y-21.0685 
G01 X-36.8225 Y-21.0827 
G01 X-36.8076 Y-21.0848 
G01 X-36.7936 Y-21.0906 
G01 X-36.7656 Y-21.0906 
G01 X-36.7378 Y-21.0945 
G01 X-36.7232 Y-21.0907 
G01 X-33.7637 Y-21.0941 
G01 X-33.7515 Y-21.1063 
G01 X-33.7184 Y-21.1200 
G01 X-32.2076 Y-21.1200 
G01 X-32.1745 Y-21.1063 
G01 X-32.1492 Y-21.0810 
G01 X-32.1355 Y-21.0479 
G01 X-32.1355 Y-20.7121 
G01 X-32.1492 Y-20.6790 
G00 Z1.0000 
G00 X-32.1492 Y-21.1790 
G01 Z-0.0800 F50.00 
G01 X-32.1745 Y-21.1537 F100.00 
G01 X-32.2076 Y-21.1400 
G01 X-33.7184 Y-21.1400 
G01 X-33.7515 Y-21.1537 
G01 X-36.9099 Y-21.1376 
G01 X-39.0048 Y-18.3387 
G01 X-39.0136 Y-18.3198 
G01 X-39.0301 Y-18.3048 
G01 X-39.0435 Y-18.2869 
G01 X-39.0615 Y-18.2763 
G01 X-39.0769 Y-18.2622 
G01 X-39.0979 Y-18.2547 
G01 X-39.1170 Y-18.2433 
G01 X-39.1377 Y-18.2403 
G01 X-39.1574 Y-18.2332 
G01 X-39.1796 Y-18.2343 
G01 X-39.2017 Y-18.2311 
G01 X-39.2220 Y-18.2363 
G01 X-39.8895 Y-18.2676 
G01 X-39.8895 Y-18.1996 
G01 X-39.9032 Y-18.1665 
G01 X-39.9285 Y-18.1412 
G01 X-39.9616 Y-18.1275 
G01 X-41.2924 Y-18.1275 
G01 X-41.3255 Y-18.1412 
G01 X-41.3508 Y-18.1665 
G01 X-41.3645 Y-18.1996 
G01 X-41.3645 Y-18.8354 
G01 X-41.3508 Y-18.8685 
G01 X-41.3255 Y-18.8938 
G01 X-41.2924 Y-18.9075 
G01 X-39.9616 Y-18.9075 
G01 X-39.9285 Y-18.8938 
G01 X-39.9032 Y-18.8685 
G01 X-39.8895 Y-18.8354 
G01 X-39.8895 Y-18.6981 
G01 X-39.2938 Y-18.6701 
G01 X-37.2069 Y-21.4585 
G01 X-37.2012 Y-21.4724 
G01 X-37.1815 Y-21.4924 
G01 X-37.1646 Y-21.5149 
G01 X-37.1517 Y-21.5226 
G01 X-37.1412 Y-21.5333 
G01 X-37.1153 Y-21.5442 
G01 X-37.0911 Y-21.5586 
G01 X-37.0762 Y-21.5607 
G01 X-37.0624 Y-21.5666 
G01 X-37.0343 Y-21.5668 
G01 X-37.0064 Y-21.5708 
G01 X-36.9919 Y-21.5671 
G01 X-33.7684 Y-21.5894 
G01 X-33.7515 Y-21.6063 
G01 X-33.7184 Y-21.6200 
G01 X-32.2076 Y-21.6200 
G01 X-32.1745 Y-21.6063 
G01 X-32.1492 Y-21.5810 
G01 X-32.1355 Y-21.5479 
G01 X-32.1355 Y-21.2121 
G01 X-32.1492 Y-21.1790 
G00 Z1.0000 
G00 X-31.8540 Y-21.6400 
G01 Z-0.0800 F50.00 
G01 X-33.7184 Y-21.6400 F100.00 
G01 X-33.7515 Y-21.6537 
G01 X-33.7768 Y-21.6790 
G01 X-33.7905 Y-21.7121 
G01 X-33.7905 Y-22.0479 
G01 X-33.7768 Y-22.0810 
G01 X-33.7515 Y-22.1063 
G01 X-33.7184 Y-22.1200 
G01 X-32.0424 Y-22.1200 
G01 X-32.0424 Y-23.1451 
G01 X-32.1974 Y-23.1442 
G01 X-32.2076 Y-23.1400 
G01 X-32.9624 Y-23.1400 
G01 X-33.0094 Y-23.1397 
G01 X-33.7184 Y-23.1400 
G01 X-33.7515 Y-23.1537 
G01 X-33.7768 Y-23.1790 
G01 X-33.7905 Y-23.2121 
G01 X-33.7905 Y-23.5479 
G01 X-33.7768 Y-23.5810 
G01 X-33.7515 Y-23.6063 
G01 X-33.7184 Y-23.6200 
G01 X-32.9639 Y-23.6200 
G01 X-32.0424 Y-23.6251 
G01 X-32.0424 Y-25.1360 
G01 X-32.9638 Y-25.1400 
G01 X-33.7184 Y-25.1400 
G01 X-33.9345 Y-25.1354 
G01 X-33.9679 Y-25.1315 
G01 X-33.9862 Y-25.1338 
G01 X-34.0178 Y-25.1458 
G01 X-34.0502 Y-25.1550 
G01 X-34.0662 Y-25.1641 
G01 X-34.0908 Y-25.1872 
G01 X-34.1172 Y-25.2082 
G01 X-34.1285 Y-25.2227 
G01 X-34.1423 Y-25.2535 
G01 X-34.3265 Y-25.5850 
G01 X-35.4669 Y-25.5850 
G01 X-36.1031 Y-24.7290 
G01 X-36.1031 Y-23.7701 
G01 X-36.1168 Y-23.7371 
G01 X-36.1421 Y-23.7117 
G01 X-36.1751 Y-23.6980 
G01 X-37.2174 Y-23.6980 
G01 X-37.2504 Y-23.7117 
G01 X-37.2757 Y-23.7371 
G01 X-37.2894 Y-23.7701 
G01 X-37.2894 Y-24.8123 
G01 X-37.2757 Y-24.8454 
G01 X-37.2504 Y-24.8707 
G01 X-37.2174 Y-24.8844 
G01 X-36.5233 Y-24.8844 
G01 X-35.7634 Y-25.9069 
G01 X-35.7573 Y-25.9218 
G01 X-35.7382 Y-25.9409 
G01 X-35.7221 Y-25.9626 
G01 X-35.7082 Y-25.9708 
G01 X-35.6968 Y-25.9823 
G01 X-35.6718 Y-25.9926 
G01 X-35.6486 Y-26.0065 
G01 X-35.6327 Y-26.0088 
G01 X-35.6178 Y-26.0150 
G01 X-35.5907 Y-26.0150 
G01 X-35.5640 Y-26.0189 
G01 X-35.5484 Y-26.0150 
G01 X-34.2123 Y-26.0150 
G01 X-34.1821 Y-26.0185 
G01 X-34.1699 Y-26.0150 
G01 X-34.1572 Y-26.0150 
G01 X-34.1291 Y-26.0033 
G01 X-34.0998 Y-25.9950 
G01 X-34.0782 Y-25.9823 
G01 X-34.0567 Y-25.9607 
G01 X-34.0328 Y-25.9418 
G01 X-34.0267 Y-25.9307 
G01 X-34.0061 Y-25.8936 
G01 X-33.8256 Y-25.5689 
G01 X-33.7812 Y-25.5702 
G01 X-33.7768 Y-25.5810 
G01 X-33.7515 Y-25.6063 
G01 X-33.7184 Y-25.6200 
G01 X-33.0102 Y-25.6200 
G01 X-32.9624 Y-25.6200 
G01 X-32.2076 Y-25.6200 
G01 X-31.8534 Y-25.6152 
G01 X-31.7518 Y-25.6174 
G01 X-31.6627 Y-25.5805 
G01 X-31.5945 Y-25.5123 
G01 X-31.5576 Y-25.4232 
G01 X-31.5576 Y-23.3531 
G01 X-31.5533 Y-23.3220 
G01 X-31.5576 Y-23.3053 
G01 X-31.5576 Y-21.8318 
G01 X-31.5945 Y-21.7427 
G01 X-31.6627 Y-21.6745 
G01 X-31.7518 Y-21.6376 
G01 X-31.8482 Y-21.6376 
G00 Z1.0000 
G00 X-32.1492 Y-22.1790 
G01 Z-0.0800 F50.00 
G01 X-32.1745 Y-22.1537 F100.00 
G01 X-32.2076 Y-22.1400 
G01 X-33.7184 Y-22.1400 
G01 X-34.0165 Y-22.1358 
G01 X-35.5287 Y-21.6968 
G01 X-35.5572 Y-21.6850 
G01 X-35.5694 Y-21.6850 
G01 X-35.5811 Y-21.6816 
G01 X-35.6118 Y-21.6850 
G01 X-37.0962 Y-21.6850 
G01 X-39.0241 Y-19.2574 
G01 X-39.0290 Y-19.2457 
G01 X-39.0505 Y-19.2242 
G01 X-39.0695 Y-19.2003 
G01 X-39.0805 Y-19.1942 
G01 X-39.1176 Y-19.1736 
G01 X-39.1443 Y-19.1588 
G01 X-39.1568 Y-19.1573 
G01 X-39.1685 Y-19.1525 
G01 X-39.1990 Y-19.1525 
G01 X-39.2292 Y-19.1490 
G01 X-39.2414 Y-19.1525 
G01 X-39.8895 Y-19.1525 
G01 X-39.8895 Y-18.9996 
G01 X-39.9032 Y-18.9665 
G01 X-39.9285 Y-18.9412 
G01 X-39.9616 Y-18.9275 
G01 X-41.2924 Y-18.9275 
G01 X-41.3255 Y-18.9412 
G01 X-41.3508 Y-18.9665 
G01 X-41.3645 Y-18.9996 
G01 X-41.3645 Y-19.6354 
G01 X-41.3508 Y-19.6685 
G01 X-41.3255 Y-19.6938 
G01 X-41.2924 Y-19.7075 
G01 X-39.9616 Y-19.7075 
G01 X-39.9285 Y-19.6938 
G01 X-39.9032 Y-19.6685 
G01 X-39.8895 Y-19.6354 
G01 X-39.8895 Y-19.5825 
G01 X-39.3151 Y-19.5825 
G01 X-37.3871 Y-22.0101 
G01 X-37.3823 Y-22.0218 
G01 X-37.3607 Y-22.0433 
G01 X-37.3418 Y-22.0672 
G01 X-37.3307 Y-22.0733 
G01 X-37.2936 Y-22.0939 
G01 X-37.2670 Y-22.1087 
G01 X-37.2544 Y-22.1102 
G01 X-37.2428 Y-22.1150 
G01 X-37.2123 Y-22.1150 
G01 X-37.1820 Y-22.1185 
G01 X-37.1699 Y-22.1150 
G01 X-35.6306 Y-22.1150 
G01 X-34.1242 Y-22.5523 
G01 X-34.0987 Y-22.5637 
G01 X-34.0835 Y-22.5642 
G01 X-34.0689 Y-22.5684 
G01 X-34.0411 Y-22.5653 
G01 X-33.7803 Y-22.5725 
G01 X-33.7515 Y-22.6063 
G01 X-33.7184 Y-22.6200 
G01 X-32.2076 Y-22.6200 
G01 X-32.1745 Y-22.6063 
G01 X-32.1492 Y-22.5810 
G01 X-32.1355 Y-22.5479 
G01 X-32.1355 Y-22.2121 
G01 X-32.1492 Y-22.1790 
G00 Z1.0000 
G00 X-32.1492 Y-22.6790 
G01 Z-0.0800 F50.00 
G01 X-32.1745 Y-22.6537 F100.00 
G01 X-32.2076 Y-22.6400 
G01 X-33.7184 Y-22.6400 
G01 X-33.7515 Y-22.6537 
G01 X-33.7759 Y-22.6781 
G01 X-34.1689 Y-22.6845 
G01 X-35.7266 Y-22.1977 
G01 X-35.7572 Y-22.1850 
G01 X-35.7767 Y-22.1820 
G01 X-35.8097 Y-22.1850 
G01 X-37.3028 Y-22.1850 
G01 X-39.1825 Y-20.0489 
G01 X-39.2107 Y-20.0169 
G01 X-39.2368 Y-19.9871 
G01 X-39.2781 Y-19.9669 
G01 X-39.3136 Y-19.9494 
G01 X-39.3594 Y-19.9465 
G01 X-39.3990 Y-19.9440 
G01 X-39.8895 Y-19.9280 
G01 X-39.8895 Y-19.7996 
G01 X-39.9032 Y-19.7665 
G01 X-39.9285 Y-19.7412 
G01 X-39.9616 Y-19.7275 
G01 X-41.2924 Y-19.7275 
G01 X-41.3255 Y-19.7412 
G01 X-41.3508 Y-19.7665 
G01 X-41.3645 Y-19.7996 
G01 X-41.3645 Y-20.4354 
G01 X-41.3508 Y-20.4685 
G01 X-41.3255 Y-20.4938 
G01 X-41.2924 Y-20.5075 
G01 X-39.9616 Y-20.5075 
G01 X-39.9285 Y-20.4938 
G01 X-39.9032 Y-20.4685 
G01 X-39.8895 Y-20.4354 
G01 X-39.8895 Y-20.3583 
G01 X-39.4701 Y-20.3729 
G01 X-37.5850 Y-22.5152 
G01 X-37.5569 Y-22.5472 
G01 X-37.5332 Y-22.5741 
G01 X-37.5218 Y-22.5823 
G01 X-37.4886 Y-22.5960 
G01 X-37.4564 Y-22.6118 
G01 X-37.4428 Y-22.6150 
G01 X-37.4068 Y-22.6150 
G01 X-37.3710 Y-22.6173 
G01 X-35.8328 Y-22.6150 
G01 X-34.2717 Y-23.1028 
G01 X-34.2393 Y-23.1157 
G01 X-34.2233 Y-23.1180 
G01 X-34.1886 Y-23.1148 
G01 X-33.7480 Y-23.1077 
G01 X-33.7184 Y-23.1200 
G01 X-32.2076 Y-23.1200 
G01 X-32.1745 Y-23.1063 
G01 X-32.1492 Y-23.0810 
G01 X-32.1355 Y-23.0479 
G01 X-32.1355 Y-22.7121 
G01 X-32.1492 Y-22.6790 
G00 Z1.0000 
G00 X-32.1492 Y-23.6790 
G01 Z-0.0800 F50.00 
G01 X-32.1745 Y-23.6537 F100.00 
G01 X-32.2076 Y-23.6400 
G01 X-33.7184 Y-23.6400 
G01 X-33.7515 Y-23.6537 
G01 X-34.0608 Y-23.4351 
G01 X-34.0782 Y-23.4177 
G01 X-34.0954 Y-23.4106 
G01 X-34.1106 Y-23.3999 
G01 X-34.1345 Y-23.3944 
G01 X-34.1572 Y-23.3850 
G01 X-34.1758 Y-23.3850 
G01 X-34.1939 Y-23.3809 
G01 X-34.2182 Y-23.3850 
G01 X-35.1073 Y-23.3850 
G01 X-35.6865 Y-22.7712 
G01 X-35.7158 Y-22.7401 
G01 X-35.7430 Y-22.7113 
G01 X-35.7848 Y-22.6926 
G01 X-35.8210 Y-22.6763 
G01 X-35.8668 Y-22.6750 
G01 X-35.9065 Y-22.6739 
G01 X-37.4764 Y-22.6750 
G01 X-39.1839 Y-20.8394 
G01 X-39.2130 Y-20.8081 
G01 X-39.2417 Y-20.7772 
G01 X-39.2811 Y-20.7593 
G01 X-39.3195 Y-20.7417 
G01 X-39.3628 Y-20.7401 
G01 X-39.4050 Y-20.7386 
G01 X-39.8895 Y-20.7244 
G01 X-39.8895 Y-20.5996 
G01 X-39.9032 Y-20.5665 
G01 X-39.9285 Y-20.5412 
G01 X-39.9616 Y-20.5275 
G01 X-41.2924 Y-20.5275 
G01 X-41.3255 Y-20.5412 
G01 X-41.3508 Y-20.5665 
G01 X-41.3645 Y-20.5996 
G01 X-41.3645 Y-21.2354 
G01 X-41.3508 Y-21.2685 
G01 X-41.3255 Y-21.2938 
G01 X-41.2924 Y-21.3075 
G01 X-39.9616 Y-21.3075 
G01 X-39.9285 Y-21.2938 
G01 X-39.9032 Y-21.2685 
G01 X-39.8895 Y-21.2354 
G01 X-39.8895 Y-21.1546 
G01 X-39.4662 Y-21.1672 
G01 X-37.7538 Y-23.0081 
G01 X-37.7247 Y-23.0393 
G01 X-37.6983 Y-23.0677 
G01 X-37.6559 Y-23.0871 
G01 X-37.6205 Y-23.1033 
G01 X-37.5739 Y-23.1050 
G01 X-37.5350 Y-23.1064 
G01 X-35.9627 Y-23.1050 
G01 X-35.3835 Y-23.7188 
G01 X-35.3542 Y-23.7499 
G01 X-35.3270 Y-23.7787 
G01 X-35.2852 Y-23.7974 
G01 X-35.2490 Y-23.8137 
G01 X-35.2032 Y-23.8150 
G01 X-35.1635 Y-23.8161 
G01 X-34.2685 Y-23.8150 
G01 X-33.9603 Y-24.0335 
G01 X-33.9440 Y-24.0501 
G01 X-33.9257 Y-24.0580 
G01 X-33.9094 Y-24.0695 
G01 X-33.8868 Y-24.0747 
G01 X-33.8654 Y-24.0838 
G01 X-33.8455 Y-24.0841 
G01 X-33.8261 Y-24.0885 
G01 X-33.8031 Y-24.0846 
G01 X-33.7728 Y-24.0850 
G01 X-33.7515 Y-24.1063 
G01 X-33.7184 Y-24.1200 
G01 X-32.2076 Y-24.1200 
G01 X-32.1745 Y-24.1063 
G01 X-32.1492 Y-24.0810 
G01 X-32.1355 Y-24.0479 
G01 X-32.1355 Y-23.7121 
G01 X-32.1492 Y-23.6790 
G00 Z1.0000 
G00 X-32.1492 Y-24.1790 
G01 Z-0.0800 F50.00 
G01 X-32.1745 Y-24.1537 F100.00 
G01 X-32.2076 Y-24.1400 
G01 X-33.7184 Y-24.1400 
G01 X-33.7515 Y-24.1537 
G01 X-33.7717 Y-24.1739 
G01 X-33.8112 Y-24.1743 
G01 X-34.2165 Y-23.9295 
G01 X-34.2282 Y-23.9177 
G01 X-34.2527 Y-23.9076 
G01 X-34.2754 Y-23.8939 
G01 X-34.2919 Y-23.8914 
G01 X-34.3072 Y-23.8850 
G01 X-34.3338 Y-23.8850 
G01 X-34.3600 Y-23.8810 
G01 X-34.3761 Y-23.8850 
G01 X-35.3969 Y-23.8850 
G01 X-35.8831 Y-23.2794 
G01 X-35.8877 Y-23.2682 
G01 X-35.9097 Y-23.2463 
G01 X-35.9291 Y-23.2221 
G01 X-35.9397 Y-23.2163 
G01 X-35.9769 Y-23.1959 
G01 X-36.0041 Y-23.1809 
G01 X-36.0161 Y-23.1796 
G01 X-36.0272 Y-23.1750 
G01 X-36.0583 Y-23.1750 
G01 X-36.0891 Y-23.1716 
G01 X-36.1007 Y-23.1750 
G01 X-37.6793 Y-23.1750 
G01 X-39.2152 Y-21.5996 
G01 X-39.2437 Y-21.5696 
G01 X-39.2839 Y-21.5517 
G01 X-39.3219 Y-21.5349 
G01 X-39.3659 Y-21.5338 
G01 X-39.8895 Y-21.5208 
G01 X-39.8895 Y-21.3996 
G01 X-39.9032 Y-21.3665 
G01 X-39.9285 Y-21.3412 
G01 X-39.9616 Y-21.3275 
G01 X-41.2924 Y-21.3275 
G01 X-41.3255 Y-21.3412 
G01 X-41.3508 Y-21.3665 
G01 X-41.3645 Y-21.3996 
G01 X-41.3645 Y-22.0354 
G01 X-41.3508 Y-22.0685 
G01 X-41.3255 Y-22.0938 
G01 X-41.2924 Y-22.1075 
G01 X-39.9616 Y-22.1075 
G01 X-39.9285 Y-22.0938 
G01 X-39.9032 Y-22.0685 
G01 X-39.8895 Y-22.0354 
G01 X-39.8895 Y-21.9509 
G01 X-39.4628 Y-21.9615 
G01 X-37.9528 Y-23.5105 
G01 X-37.9229 Y-23.5411 
G01 X-37.8941 Y-23.5707 
G01 X-37.8535 Y-23.5881 
G01 X-37.8155 Y-23.6044 
G01 X-37.7714 Y-23.6050 
G01 X-37.7300 Y-23.6055 
G01 X-36.1731 Y-23.6050 
G01 X-35.6869 Y-24.2106 
G01 X-35.6823 Y-24.2218 
G01 X-35.6603 Y-24.2437 
G01 X-35.6409 Y-24.2679 
G01 X-35.6303 Y-24.2737 
G01 X-35.5931 Y-24.2941 
G01 X-35.5659 Y-24.3091 
G01 X-35.5539 Y-24.3104 
G01 X-35.5428 Y-24.3150 
G01 X-35.5117 Y-24.3150 
G01 X-35.4809 Y-24.3184 
G01 X-35.4693 Y-24.3150 
G01 X-34.4099 Y-24.3150 
G01 X-34.0025 Y-24.5611 
G01 X-33.9898 Y-24.5736 
G01 X-33.9663 Y-24.5830 
G01 X-33.9446 Y-24.5961 
G01 X-33.9269 Y-24.5988 
G01 X-33.9104 Y-24.6055 
G01 X-33.8851 Y-24.6052 
G01 X-33.8600 Y-24.6090 
G01 X-33.8427 Y-24.6047 
G01 X-33.7540 Y-24.6037 
G01 X-33.7184 Y-24.6200 
G01 X-32.2076 Y-24.6200 
G01 X-32.1745 Y-24.6063 
G01 X-32.1492 Y-24.5810 
G01 X-32.1355 Y-24.5479 
G01 X-32.1355 Y-24.2121 
G01 X-32.1492 Y-24.1790 
G00 Z1.0000 
G00 X-32.1492 Y-24.6790 
G01 Z-0.0800 F50.00 
G01 X-32.1745 Y-24.6537 F100.00 
G01 X-32.2076 Y-24.6400 
G01 X-33.7184 Y-24.6400 
G01 X-33.7515 Y-24.6537 
G01 X-34.3318 Y-24.6600 
G01 X-34.3318 Y-24.4201 
G01 X-34.3455 Y-24.3871 
G01 X-34.3708 Y-24.3618 
G01 X-34.4039 Y-24.3481 
G01 X-35.4461 Y-24.3481 
G01 X-35.4792 Y-24.3618 
G01 X-35.5045 Y-24.3871 
G01 X-35.5182 Y-24.4201 
G01 X-35.5182 Y-25.4624 
G01 X-35.5045 Y-25.4954 
G01 X-35.4792 Y-25.5207 
G01 X-35.4461 Y-25.5344 
G01 X-34.4039 Y-25.5344 
G01 X-34.3708 Y-25.5207 
G01 X-34.3455 Y-25.4954 
G01 X-34.3318 Y-25.4624 
G01 X-34.3318 Y-25.0900 
G01 X-33.7657 Y-25.0921 
G01 X-33.7515 Y-25.1063 
G01 X-33.7184 Y-25.1200 
G01 X-32.2076 Y-25.1200 
G01 X-32.1745 Y-25.1063 
G01 X-32.1492 Y-25.0810 
G01 X-32.1355 Y-25.0479 
G01 X-32.1355 Y-24.7121 
