(.../EAGLE-7.2.0/ulp/pcb-gcode/pcb-gcode.ulp)
(Copyright 2005 - 2012 by John Johnson)
(See readme.txt for licensing terms.)
(This file generated from the board:)
(.../lx9-eagle/PMOD-IO/dio_pmod.brd)
(Current profile is .../pcb-gcode/profiles/generic.pp  )
(This file generated 2020/08/18 20:05:59)
(Settings from pcb-machine.h)
(spindle on time = 2.0000)
(spindle speed = 1000.0000)
(tool change at 0.0000 0.0000 5.0000 )
(feed rate xy = F0.00  )
(feed rate z  = F254.00 )
(Z Axis Settings)
(  High     Up        Down     Drill)
(5.0000 	1.0000 	-0.0800 	-1.8000 )
(Settings from pcb-defaults.h)
(isolate min = 0.0000)
(isolate max = 0.2000)
(isolate step = 0.2000)
(Generated top outlines, top drill, )
(Unit of measure: mm)
( Tool|       Size       |  Min Sub |  Max Sub |   Count )
( T01  0.900mm 0.0354in 0.0000in 0.0000in )
( T02  1.016mm 0.0400in 0.0000in 0.0000in )
( T03  2.309mm 0.0909in 0.0000in 0.0000in )
(Metric Mode)
G21
(Absolute Coordinates)
G90
S1000
G00 Z5.0000 
G00 X0.0000 Y0.0000 
M03
G04 P2.000000
M05
M06 T01  ; 0.9000 
G00 Z1.0000 
M03
G04 P2.000000
G00 Z1.000000
G00 X-6.4800 Y-2.5400 
G01 Z-1.8000 F254.00 
G01 Z1.000000
(R1.0000  P1.000000)
G00 X-14.4800 Y-2.5400 
G01 Z-1.800000
G01 Z1.000000
G00 X-13.5600 Y-32.6800 
G01 Z-1.800000
G01 Z1.000000
G00 X-13.5600 Y-35.1800 
G01 Z-1.800000
G01 Z1.000000
G00 X-11.4600 Y-35.1800 
G01 Z-1.800000
G01 Z1.000000
G00 X-8.8600 Y-35.1800 
G01 Z-1.800000
G01 Z1.000000
G00 X-6.7600 Y-35.1800 
G01 Z-1.800000
G01 Z1.000000
G00 X-6.7600 Y-32.6800 
G01 Z-1.800000
G01 Z1.000000
M05
G00 Z5.0000 
G00 X0.0000 Y0.0000 
M06 T02  ; 1.0160 
G00 Z1.0000 
M03
G04 P2.000000
G00 Z1.000000
G00 X-3.8100 Y-19.0500 
G01 Z-1.8000 F254.00 
G01 Z1.000000
(R1.0000  P1.000000)
G00 X-3.8100 Y-21.5900 
G01 Z-1.800000
G01 Z1.000000
G00 X-6.3500 Y-21.5900 
G01 Z-1.800000
G01 Z1.000000
G00 X-6.3500 Y-19.0500 
G01 Z-1.800000
G01 Z1.000000
G00 X-8.8900 Y-19.0500 
G01 Z-1.800000
G01 Z1.000000
G00 X-8.8900 Y-21.5900 
G01 Z-1.800000
G01 Z1.000000
G00 X-11.4300 Y-21.5900 
G01 Z-1.800000
G01 Z1.000000
G00 X-11.4300 Y-19.0500 
G01 Z-1.800000
G01 Z1.000000
G00 X-13.9700 Y-19.0500 
G01 Z-1.800000
G01 Z1.000000
G00 X-13.9700 Y-21.5900 
G01 Z-1.800000
G01 Z1.000000
G00 X-16.5100 Y-21.5900 
G01 Z-1.800000
G01 Z1.000000
G00 X-16.5100 Y-19.0500 
G01 Z-1.800000
G01 Z1.000000
G00 X-16.5100 Y-25.4000 
G01 Z-1.800000
G01 Z1.000000
G00 X-13.9700 Y-25.4000 
G01 Z-1.800000
G01 Z1.000000
G00 X-11.4300 Y-25.4000 
G01 Z-1.800000
G01 Z1.000000
G00 X-8.8900 Y-25.4000 
G01 Z-1.800000
G01 Z1.000000
G00 X-6.3500 Y-25.4000 
G01 Z-1.800000
G01 Z1.000000
G00 X-3.8100 Y-25.4000 
G01 Z-1.800000
G01 Z1.000000
M05
G00 Z5.0000 
G00 X0.0000 Y0.0000 
M06 T03  ; 2.3087 
G00 Z1.0000 
M03
G04 P2.000000
G00 Z1.000000
G00 X-3.4100 Y-38.1800 
G01 Z-1.8000 F254.00 
G01 Z1.000000
(R1.0000  P1.000000)
G00 X-10.1600 Y-38.9800 
G01 Z-1.800000
G01 Z1.000000
G00 X-16.9100 Y-38.1800 
G01 Z-1.800000
G01 Z1.000000
T01 
G00 Z5.0000 
M05
M02
