(.../EAGLE-7.2.0/ulp/pcb-gcode/pcb-gcode.ulp)
(Copyright 2005 - 2012 by John Johnson)
(See readme.txt for licensing terms.)
(This file generated from the board:)
(.../lx9-eagle/PMOD-IO/dio_pmod.brd)
(Current profile is .../pcb-gcode/profiles/generic.pp  )
(This file generated 2020/08/18 20:05:59)
(Settings from pcb-machine.h)
(spindle on time = 2.0000)
(  Tool Size)
(0.2000 )
(spindle speed = 1000.0000)
(tool change at 0.0000 0.0000 5.0000 )
(feed rate xy = F100.00 )
(feed rate z  = F50.00 )
(Z Axis Settings)
(  High     Up        Down     Drill)
(5.0000 	1.0000 	-0.0800 	-1.8000 )
(Settings from pcb-defaults.h)
(isolate min = 0.0000)
(isolate max = 0.2000)
(isolate step = 0.2000)
(Generated top outlines, top drill, )
(Unit of measure: mm)
(Metric Mode)
G21
(Absolute Coordinates)
G90
S1000
G00 Z5.0000 
G00 X0.0000 Y0.0000 
M03
G04 P2.000000
G00 Z1.0000 
G00 X0.1000 Y0.0199 
G01 Z-0.0800 F50.00 
G01 X0.0848 Y0.0566 F100.00 
G01 X0.0566 Y0.0848 
G01 X0.0199 Y0.1000 
G01 X-22.2449 Y0.1000 
G01 X-22.2816 Y0.0848 
G01 X-22.3098 Y0.0566 
G01 X-22.3250 Y0.0199 
G01 X-22.3250 Y-7.9574 
G01 X-22.3098 Y-7.9941 
G01 X-22.2816 Y-8.0223 
G01 X-22.2449 Y-8.0375 
G01 X0.0199 Y-8.0375 
G01 X0.0566 Y-8.0223 
G01 X0.0848 Y-7.9941 
G01 X0.1000 Y-7.9574 
G01 X0.1000 Y0.0199 
G00 Z1.0000 
G00 X-1.7743 Y-8.9882 
G01 Z-0.0800 F50.00 
G01 X-1.7887 Y-8.9775 F100.00 
G01 X-1.8013 Y-8.9649 
G01 X-1.8206 Y-8.9538 
G01 X-1.8383 Y-8.9405 
G01 X-1.8550 Y-8.9339 
G01 X-1.8705 Y-8.9250 
G01 X-1.8919 Y-8.9192 
G01 X-1.9125 Y-8.9110 
G01 X-1.9303 Y-8.9089 
G01 X-1.9476 Y-8.9043 
G01 X-1.9698 Y-8.9043 
G01 X-1.9918 Y-8.9017 
G01 X-2.0095 Y-8.9043 
G01 X-8.2486 Y-8.9043 
G01 X-8.2821 Y-8.9029 
G01 X-8.2949 Y-8.9043 
G01 X-8.3273 Y-8.9130 
G01 X-8.3600 Y-8.9203 
G01 X-8.3720 Y-8.9250 
G01 X-8.4011 Y-8.9417 
G01 X-8.4308 Y-8.9573 
G01 X-8.4412 Y-8.9649 
G01 X-8.4649 Y-8.9886 
G01 X-8.4896 Y-9.0113 
G01 X-8.4976 Y-9.0213 
G01 X-8.5144 Y-9.0504 
G01 X-10.5373 Y-12.2362 
G01 X-10.5574 Y-12.3000 
G01 X-10.7899 Y-12.3000 
G01 X-10.8266 Y-12.3152 
G01 X-10.8548 Y-12.3434 
G01 X-10.8700 Y-12.3801 
G01 X-10.8700 Y-14.3199 
G01 X-10.8548 Y-14.3566 
G01 X-10.8266 Y-14.3848 
G01 X-10.7899 Y-14.4000 
G01 X-9.8501 Y-14.4000 
G01 X-9.8134 Y-14.3848 
G01 X-9.7852 Y-14.3566 
G01 X-9.7700 Y-14.3199 
G01 X-9.7700 Y-12.3801 
G01 X-9.7852 Y-12.3434 
G01 X-9.8134 Y-12.3152 
G01 X-9.8501 Y-12.3000 
G01 X-8.0884 Y-9.5107 
G01 X-2.1344 Y-9.5107 
G01 X-1.5382 Y-10.2653 
G01 X-1.5382 Y-15.3103 
G01 X-3.9684 Y-16.8863 
G01 X-3.9962 Y-16.9024 
G01 X-4.0085 Y-16.9123 
G01 X-4.0299 Y-16.9361 
G01 X-4.0526 Y-16.9588 
G01 X-4.0619 Y-16.9716 
G01 X-4.0765 Y-17.0002 
G01 X-4.0925 Y-17.0280 
G01 X-4.0982 Y-17.0427 
G01 X-4.1049 Y-17.0741 
G01 X-4.1132 Y-17.1051 
G01 X-4.1149 Y-17.1208 
G01 X-4.1132 Y-17.1528 
G01 X-4.1132 Y-17.6800 
G01 X-4.7824 Y-17.6800 
G01 X-4.8191 Y-17.6952 
G01 X-4.8473 Y-17.7234 
G01 X-4.8625 Y-17.7601 
G01 X-4.8625 Y-20.0224 
G01 X-4.8473 Y-20.0591 
G01 X-4.8191 Y-20.0873 
G01 X-4.7824 Y-20.1025 
G01 X-4.1132 Y-20.1025 
G01 X-4.1132 Y-20.5375 
G01 X-4.7824 Y-20.5375 
G01 X-4.8191 Y-20.5527 
G01 X-4.8473 Y-20.5809 
G01 X-4.8625 Y-20.6176 
G01 X-4.8625 Y-22.8799 
G01 X-4.8473 Y-22.9166 
G01 X-4.8191 Y-22.9448 
G01 X-4.7824 Y-22.9600 
G01 X-2.8432 Y-22.9600 
G01 X-2.8432 Y-31.0032 
G01 X-5.6700 Y-34.3132 
G01 X-5.6700 Y-34.0801 
G01 X-5.6852 Y-34.0434 
G01 X-5.7134 Y-34.0152 
G01 X-5.7501 Y-34.0000 
G01 X-7.7899 Y-34.0000 
G01 X-7.8266 Y-34.0152 
G01 X-7.8548 Y-34.0434 
G01 X-7.8700 Y-34.0801 
G01 X-7.8700 Y-36.1199 
G01 X-7.8548 Y-36.1566 
G01 X-7.8266 Y-36.1848 
G01 X-7.7899 Y-36.2000 
G01 X-5.7501 Y-36.2000 
G01 X-5.7134 Y-36.1848 
G01 X-5.6852 Y-36.1566 
G01 X-5.6700 Y-36.1199 
G01 X-5.6700 Y-35.2469 
G01 X-2.3172 Y-31.3210 
G01 X-2.2974 Y-31.3012 
G01 X-2.2913 Y-31.2907 
G01 X-2.2715 Y-31.2563 
G01 X-2.2575 Y-31.2320 
G01 X-2.2543 Y-31.2204 
G01 X-2.2491 Y-31.2095 
G01 X-2.2440 Y-31.1820 
G01 X-2.2368 Y-31.1549 
G01 X-2.2368 Y-31.1428 
G01 X-2.2346 Y-31.1310 
G01 X-2.2368 Y-31.1031 
G01 X-2.2368 Y-22.2557 
G01 X-2.2368 Y-22.2159 
G01 X-2.2368 Y-22.1851 
G01 X-2.2397 Y-22.1670 
G01 X-2.2495 Y-22.1377 
G01 X-2.2575 Y-22.1080 
G01 X-2.2650 Y-22.0912 
G01 X-2.2820 Y-22.0655 
G01 X-2.2974 Y-22.0388 
G01 X-2.3090 Y-22.0246 
G01 X-2.3320 Y-22.0042 
G01 X-2.3538 Y-21.9824 
G01 X-2.3687 Y-21.9717 
G01 X-2.3963 Y-21.9579 
G01 X-2.4230 Y-21.9425 
G01 X-2.7575 Y-21.7773 
G01 X-2.7575 Y-20.6176 
G01 X-2.7727 Y-20.5809 
G01 X-2.8009 Y-20.5527 
G01 X-2.8376 Y-20.5375 
G01 X-3.5068 Y-20.5375 
G01 X-3.5068 Y-20.1025 
G01 X-2.8376 Y-20.1025 
G01 X-2.8009 Y-20.0873 
G01 X-2.7727 Y-20.0591 
G01 X-2.7575 Y-20.0224 
G01 X-2.7575 Y-17.7601 
G01 X-2.7727 Y-17.7234 
G01 X-2.8009 Y-17.6952 
G01 X-2.8376 Y-17.6800 
G01 X-3.5068 Y-17.6800 
G01 X-3.5068 Y-17.3097 
G01 X-1.0766 Y-15.7337 
G01 X-1.0488 Y-15.7176 
G01 X-1.0365 Y-15.7077 
G01 X-1.0151 Y-15.6839 
G01 X-0.9924 Y-15.6612 
G01 X-0.9831 Y-15.6484 
G01 X-0.9685 Y-15.6198 
G01 X-0.9525 Y-15.5920 
G01 X-0.9468 Y-15.5773 
G01 X-0.9401 Y-15.5459 
G01 X-0.9318 Y-15.5149 
G01 X-0.9301 Y-15.4992 
G01 X-0.9318 Y-15.4672 
G01 X-0.9318 Y-10.1777 
G01 X-0.9292 Y-10.1557 
G01 X-0.9318 Y-10.1380 
G01 X-0.9318 Y-10.1201 
G01 X-0.9375 Y-10.0986 
G01 X-0.9408 Y-10.0767 
G01 X-0.9478 Y-10.0603 
G01 X-0.9525 Y-10.0430 
G01 X-0.9636 Y-10.0238 
G01 X-0.9723 Y-10.0034 
G01 X-0.9834 Y-9.9893 
G01 X-0.9924 Y-9.9738 
G01 X-1.0081 Y-9.9581 
G01 X-1.7359 Y-9.0368 
G01 X-1.7449 Y-9.0213 
G01 X-1.7606 Y-9.0056 
G01 X-1.7743 Y-8.9882 
G00 Z1.0000 
G00 X-2.3375 Y-9.6134 
G01 Z-0.0800 F50.00 
G01 X-2.3463 Y-9.6074 F100.00 
G01 X-2.3793 Y-9.5852 
G01 X-2.4037 Y-9.5688 
G01 X-2.4137 Y-9.5653 
G01 X-2.4514 Y-9.5524 
G01 X-2.4792 Y-9.5428 
G01 X-2.4898 Y-9.5421 
G01 X-2.5001 Y-9.5393 
G01 X-2.5295 Y-9.5393 
G01 X-2.5588 Y-9.5373 
G01 X-2.5693 Y-9.5393 
G01 X-7.2843 Y-9.5393 
G01 X-7.3059 Y-9.5367 
G01 X-7.3240 Y-9.5393 
G01 X-7.3424 Y-9.5393 
G01 X-7.3634 Y-9.5449 
G01 X-7.3849 Y-9.5480 
G01 X-7.4018 Y-9.5552 
G01 X-7.4195 Y-9.5600 
G01 X-7.4383 Y-9.5708 
G01 X-7.4583 Y-9.5794 
G01 X-7.4727 Y-9.5907 
G01 X-7.4887 Y-9.5999 
G01 X-7.5040 Y-9.6153 
G01 X-7.5211 Y-9.6286 
G01 X-7.5321 Y-9.6433 
G01 X-7.5451 Y-9.6563 
G01 X-7.5560 Y-9.6752 
G01 X-8.4880 Y-10.9178 
G01 X-8.5043 Y-10.9354 
G01 X-8.5119 Y-10.9497 
G01 X-8.5215 Y-10.9625 
G01 X-8.5304 Y-10.9848 
G01 X-8.5417 Y-11.0060 
G01 X-8.5453 Y-11.0217 
G01 X-8.5512 Y-11.0366 
G01 X-8.5541 Y-11.0604 
G01 X-8.5595 Y-11.0838 
G01 X-8.5589 Y-11.0999 
G01 X-8.5608 Y-11.1159 
G01 X-8.5574 Y-11.1396 
G01 X-8.5145 Y-12.3000 
G01 X-8.5899 Y-12.3000 
G01 X-8.6266 Y-12.3152 
G01 X-8.6548 Y-12.3434 
G01 X-8.6700 Y-12.3801 
G01 X-8.6700 Y-14.3199 
G01 X-8.6548 Y-14.3566 
G01 X-8.6266 Y-14.3848 
G01 X-8.5899 Y-14.4000 
G01 X-7.6501 Y-14.4000 
G01 X-7.6134 Y-14.3848 
G01 X-7.5852 Y-14.3566 
G01 X-7.5700 Y-14.3199 
G01 X-7.5700 Y-12.3801 
G01 X-7.5852 Y-12.3434 
G01 X-7.6134 Y-12.3152 
G01 X-7.6501 Y-12.3000 
G01 X-7.9077 Y-12.3000 
G01 X-7.9480 Y-11.2085 
G01 X-7.1509 Y-10.1457 
G01 X-2.6781 Y-10.1457 
G01 X-2.2907 Y-10.5909 
G01 X-2.2907 Y-14.7241 
G01 X-6.4505 Y-16.5405 
G01 X-6.4670 Y-16.5450 
G01 X-6.4869 Y-16.5564 
G01 X-6.5079 Y-16.5656 
G01 X-6.5213 Y-16.5763 
G01 X-6.5362 Y-16.5849 
G01 X-6.5524 Y-16.6011 
G01 X-6.5703 Y-16.6154 
G01 X-6.5805 Y-16.6292 
G01 X-6.5926 Y-16.6413 
G01 X-6.6041 Y-16.6612 
G01 X-6.6177 Y-16.6797 
G01 X-6.6240 Y-16.6956 
G01 X-6.6325 Y-16.7105 
G01 X-6.6385 Y-16.7326 
G01 X-6.6468 Y-16.7540 
G01 X-6.6488 Y-16.7710 
G01 X-6.6532 Y-16.7876 
G01 X-6.6532 Y-16.8105 
G01 X-6.6558 Y-16.8333 
G01 X-6.6532 Y-16.8503 
G01 X-6.6532 Y-17.6800 
G01 X-7.3224 Y-17.6800 
G01 X-7.3591 Y-17.6952 
G01 X-7.3873 Y-17.7234 
G01 X-7.4025 Y-17.7601 
G01 X-7.4025 Y-20.0224 
G01 X-7.3873 Y-20.0591 
G01 X-7.3591 Y-20.0873 
G01 X-7.3224 Y-20.1025 
G01 X-6.6532 Y-20.1025 
G01 X-6.6532 Y-20.5375 
G01 X-7.3224 Y-20.5375 
G01 X-7.3591 Y-20.5527 
G01 X-7.3873 Y-20.5809 
G01 X-7.4025 Y-20.6176 
G01 X-7.4025 Y-22.8799 
G01 X-7.3873 Y-22.9166 
G01 X-7.8375 Y-22.8106 
G01 X-7.8375 Y-20.6176 
G01 X-7.8527 Y-20.5809 
G01 X-7.8809 Y-20.5527 
G01 X-7.9176 Y-20.5375 
G01 X-9.8624 Y-20.5375 
G01 X-9.8991 Y-20.5527 
G01 X-9.9273 Y-20.5809 
G01 X-9.9425 Y-20.6176 
G01 X-9.9425 Y-22.8799 
G01 X-9.9273 Y-22.9166 
G01 X-9.8991 Y-22.9448 
G01 X-9.8624 Y-22.9600 
G01 X-9.1771 Y-22.9600 
G01 X-9.1725 Y-22.9770 
G01 X-9.1513 Y-23.0138 
G01 X-9.1326 Y-23.0462 
G01 X-9.1026 Y-23.0761 
G01 X-9.0762 Y-23.1026 
G01 X-9.0394 Y-23.1238 
G01 X-9.0070 Y-23.1425 
G01 X-8.9660 Y-23.1535 
G01 X-8.9299 Y-23.1632 
G01 X-6.6532 Y-23.7317 
G01 X-6.6532 Y-23.8306 
G01 X-6.7583 Y-23.8741 
G01 X-6.8995 Y-23.9684 
G01 X-7.0196 Y-24.0885 
G01 X-7.1139 Y-24.2297 
G01 X-7.1789 Y-24.3866 
G01 X-7.2120 Y-24.5531 
G01 X-7.2120 Y-26.2469 
G01 X-7.1789 Y-26.4134 
G01 X-7.1139 Y-26.5703 
G01 X-7.0196 Y-26.7115 
G01 X-6.8995 Y-26.8316 
G01 X-6.7583 Y-26.9259 
G01 X-6.6014 Y-26.9909 
G01 X-6.4349 Y-27.0240 
G01 X-6.2651 Y-27.0240 
G01 X-6.0986 Y-26.9909 
G01 X-5.9417 Y-26.9259 
G01 X-5.8005 Y-26.8316 
G01 X-5.6804 Y-26.7115 
G01 X-5.5861 Y-26.5703 
G01 X-5.5211 Y-26.4134 
G01 X-5.4880 Y-26.2469 
G01 X-5.4880 Y-24.5531 
G01 X-5.5211 Y-24.3866 
G01 X-5.5861 Y-24.2297 
G01 X-5.6804 Y-24.0885 
G01 X-5.8005 Y-23.9684 
G01 X-5.9417 Y-23.8741 
G01 X-6.0468 Y-23.8306 
G01 X-6.0468 Y-23.5323 
G01 X-6.0468 Y-23.4925 
G01 X-6.0468 Y-23.4551 
G01 X-6.0578 Y-23.4141 
G01 X-6.0675 Y-23.3780 
G01 X-6.0887 Y-23.3412 
G01 X-6.1074 Y-23.3088 
G01 X-6.1374 Y-23.2789 
G01 X-6.1638 Y-23.2524 
G01 X-6.2006 Y-23.2312 
G01 X-6.2330 Y-23.2125 
G01 X-6.2740 Y-23.2015 
G01 X-6.3101 Y-23.1918 
G01 X-7.2399 Y-22.9600 
G01 X-5.6423 Y-22.9600 
G01 X-5.3832 Y-23.2839 
G01 X-5.3832 Y-26.5674 
G01 X-9.4361 Y-31.8673 
G01 X-9.4501 Y-31.8813 
G01 X-9.4603 Y-31.8989 
G01 X-9.4726 Y-31.9150 
G01 X-9.4801 Y-31.9333 
G01 X-9.4900 Y-31.9505 
G01 X-9.4953 Y-31.9701 
G01 X-9.5030 Y-31.9888 
G01 X-9.5056 Y-32.0085 
G01 X-9.5107 Y-32.0276 
G01 X-9.5107 Y-32.0479 
G01 X-9.5133 Y-32.0680 
G01 X-9.5107 Y-32.0876 
G01 X-9.5107 Y-34.0000 
G01 X-9.9899 Y-34.0000 
G01 X-10.0266 Y-34.0152 
G01 X-10.0548 Y-34.0434 
G01 X-10.0700 Y-34.0801 
G01 X-10.0700 Y-36.1199 
G01 X-10.0548 Y-36.1566 
G01 X-10.0266 Y-36.1848 
G01 X-9.9899 Y-36.2000 
G01 X-9.8913 Y-36.2000 
G01 X-9.9699 Y-36.4093 
G01 X-12.5963 Y-36.4093 
G01 X-12.6518 Y-36.3000 
G01 X-12.6134 Y-36.2848 
G01 X-12.5852 Y-36.2566 
G01 X-12.5700 Y-36.2199 
G01 X-12.5700 Y-34.0801 
G01 X-12.5852 Y-34.0434 
G01 X-12.6134 Y-34.0152 
G01 X-12.6501 Y-34.0000 
G01 X-14.6899 Y-34.0000 
G01 X-14.7266 Y-34.0152 
G01 X-14.7548 Y-34.0434 
G01 X-14.7700 Y-34.0801 
G01 X-14.7700 Y-34.3947 
G01 X-16.2068 Y-32.2913 
G01 X-16.2068 Y-26.9694 
G01 X-16.1017 Y-26.9259 
G01 X-15.9605 Y-26.8316 
G01 X-15.8404 Y-26.7115 
G01 X-15.7461 Y-26.5703 
G01 X-15.6811 Y-26.4134 
G01 X-15.6480 Y-26.2469 
G01 X-15.6480 Y-24.5531 
G01 X-15.6811 Y-24.3866 
G01 X-15.7461 Y-24.2297 
G01 X-15.8404 Y-24.0885 
G01 X-15.9605 Y-23.9684 
G01 X-16.1017 Y-23.8741 
G01 X-16.2586 Y-23.8091 
G01 X-16.4251 Y-23.7760 
G01 X-16.5949 Y-23.7760 
G01 X-16.7614 Y-23.8091 
G01 X-16.9183 Y-23.8741 
G01 X-17.0595 Y-23.9684 
G01 X-17.1796 Y-24.0885 
G01 X-17.2739 Y-24.2297 
G01 X-17.3389 Y-24.3866 
G01 X-17.3720 Y-24.5531 
G01 X-17.3720 Y-26.2469 
G01 X-17.3389 Y-26.4134 
G01 X-17.2739 Y-26.5703 
G01 X-17.1796 Y-26.7115 
G01 X-17.0595 Y-26.8316 
G01 X-16.9183 Y-26.9259 
G01 X-16.8132 Y-26.9694 
G01 X-16.8132 Y-32.3567 
G01 X-16.8153 Y-32.3681 
G01 X-16.8132 Y-32.3965 
G01 X-16.8132 Y-32.4249 
G01 X-16.8102 Y-32.4361 
G01 X-16.8093 Y-32.4477 
G01 X-16.7999 Y-32.4746 
G01 X-16.7925 Y-32.5020 
G01 X-16.7867 Y-32.5121 
G01 X-16.7829 Y-32.5231 
G01 X-16.7668 Y-32.5465 
G01 X-16.7526 Y-32.5712 
G01 X-14.7978 Y-35.4290 
G01 X-14.7700 Y-35.4529 
G01 X-14.7700 Y-36.2199 
G01 X-14.7548 Y-36.2566 
G01 X-14.7266 Y-36.2848 
G01 X-14.6899 Y-36.3000 
G01 X-13.3318 Y-36.3000 
G01 X-13.0672 Y-36.8215 
G01 X-13.0492 Y-36.8570 
G01 X-13.0348 Y-36.8853 
G01 X-13.0251 Y-36.8987 
G01 X-13.0027 Y-36.9211 
G01 X-12.9815 Y-36.9447 
G01 X-12.9687 Y-36.9551 
G01 X-12.9412 Y-36.9710 
G01 X-12.9146 Y-36.9883 
G01 X-12.8995 Y-36.9950 
G01 X-12.8689 Y-37.0032 
G01 X-12.8388 Y-37.0131 
G01 X-12.8224 Y-37.0157 
G01 X-12.7907 Y-37.0157 
G01 X-12.7590 Y-37.0174 
G01 X-9.7748 Y-37.0157 
G01 X-9.7499 Y-37.0181 
G01 X-9.7351 Y-37.0157 
G01 X-9.7201 Y-37.0157 
G01 X-9.6958 Y-37.0092 
G01 X-9.6711 Y-37.0051 
G01 X-9.6575 Y-36.9989 
G01 X-9.6430 Y-36.9950 
G01 X-9.6212 Y-36.9825 
G01 X-9.5984 Y-36.9721 
G01 X-9.5868 Y-36.9626 
G01 X-9.5738 Y-36.9551 
G01 X-9.5561 Y-36.9374 
G01 X-9.5367 Y-36.9215 
G01 X-9.5280 Y-36.9093 
G01 X-9.5174 Y-36.8987 
G01 X-9.5048 Y-36.8769 
G01 X-9.4902 Y-36.8565 
G01 X-9.4850 Y-36.8425 
G01 X-9.4775 Y-36.8295 
G01 X-9.4710 Y-36.8053 
G01 X-9.2435 Y-36.2000 
G01 X-7.9501 Y-36.2000 
G01 X-7.9134 Y-36.1848 
G01 X-7.8852 Y-36.1566 
G01 X-7.8700 Y-36.1199 
G01 X-7.8700 Y-34.0801 
G01 X-7.8852 Y-34.0434 
G01 X-7.9134 Y-34.0152 
G01 X-7.9501 Y-34.0000 
G01 X-8.9043 Y-34.0000 
G01 X-8.9043 Y-32.1701 
G01 X-4.8514 Y-26.8702 
G01 X-4.8374 Y-26.8562 
G01 X-4.8272 Y-26.8386 
G01 X-4.8149 Y-26.8225 
G01 X-4.8074 Y-26.8042 
G01 X-4.7975 Y-26.7870 
G01 X-4.7922 Y-26.7674 
G01 X-4.7845 Y-26.7487 
G01 X-4.7819 Y-26.7290 
G01 X-4.7768 Y-26.7099 
G01 X-4.7768 Y-26.6896 
G01 X-4.7742 Y-26.6695 
G01 X-4.7768 Y-26.6499 
G01 X-4.7768 Y-23.1943 
G01 X-4.7742 Y-23.1713 
G01 X-4.7768 Y-23.1545 
G01 X-4.7768 Y-23.1376 
G01 X-4.7828 Y-23.1153 
G01 X-4.7863 Y-23.0924 
G01 X-4.7931 Y-23.0768 
G01 X-4.7975 Y-23.0605 
G01 X-4.8090 Y-23.0405 
G01 X-4.8183 Y-23.0193 
G01 X-4.8289 Y-23.0060 
G01 X-4.8374 Y-22.9913 
G01 X-4.8537 Y-22.9750 
G01 X-5.2975 Y-22.4203 
G01 X-5.2975 Y-20.6176 
G01 X-5.3127 Y-20.5809 
G01 X-5.3409 Y-20.5527 
G01 X-5.3776 Y-20.5375 
G01 X-6.0468 Y-20.5375 
G01 X-6.0468 Y-20.1025 
G01 X-5.3776 Y-20.1025 
G01 X-5.3409 Y-20.0873 
G01 X-5.3127 Y-20.0591 
G01 X-5.2975 Y-20.0224 
G01 X-5.2975 Y-17.7601 
G01 X-5.3127 Y-17.7234 
G01 X-5.3409 Y-17.6952 
G01 X-5.3776 Y-17.6800 
G01 X-6.0468 Y-17.6800 
G01 X-6.0468 Y-17.0259 
G01 X-1.8870 Y-15.2095 
G01 X-1.8705 Y-15.2050 
G01 X-1.8506 Y-15.1936 
G01 X-1.8296 Y-15.1844 
G01 X-1.8162 Y-15.1737 
G01 X-1.8013 Y-15.1651 
G01 X-1.7851 Y-15.1489 
G01 X-1.7672 Y-15.1346 
G01 X-1.7570 Y-15.1208 
G01 X-1.7449 Y-15.1087 
G01 X-1.7334 Y-15.0888 
G01 X-1.7198 Y-15.0703 
G01 X-1.7135 Y-15.0544 
G01 X-1.7050 Y-15.0395 
G01 X-1.6990 Y-15.0174 
G01 X-1.6907 Y-14.9960 
G01 X-1.6887 Y-14.9790 
G01 X-1.6843 Y-14.9624 
G01 X-1.6843 Y-14.9395 
G01 X-1.6817 Y-14.9167 
G01 X-1.6843 Y-14.8997 
G01 X-1.6843 Y-10.4880 
G01 X-1.6823 Y-10.4587 
G01 X-1.6843 Y-10.4482 
G01 X-1.6843 Y-10.4376 
G01 X-1.6919 Y-10.4092 
G01 X-1.6975 Y-10.3803 
G01 X-1.7050 Y-10.3605 
G01 X-1.7197 Y-10.3350 
G01 X-1.7326 Y-10.3086 
G01 X-1.7449 Y-10.2913 
G01 X-1.7657 Y-10.2705 
G01 X-2.2920 Y-9.6656 
G01 X-2.3182 Y-9.6355 
G01 X-2.3375 Y-9.6134 
G00 Z1.0000 
G00 X-2.5452 Y-11.7834 
G01 Z-0.0800 F50.00 
G01 X-2.5734 Y-11.7552 F100.00 
G01 X-2.6101 Y-11.7400 
G01 X-4.2499 Y-11.7400 
G01 X-4.2866 Y-11.7552 
G01 X-4.3148 Y-11.7834 
G01 X-4.3300 Y-11.8201 
G01 X-4.3300 Y-13.2599 
G01 X-4.3148 Y-13.2966 
G01 X-4.2866 Y-13.3248 
G01 X-4.2499 Y-13.3400 
G01 X-2.6101 Y-13.3400 
G01 X-2.5734 Y-13.3248 
G01 X-2.5452 Y-13.2966 
G01 X-2.5300 Y-13.2599 
G01 X-2.5300 Y-11.8201 
G01 X-2.5452 Y-11.7834 
G00 Z1.0000 
G00 X-4.4452 Y-12.3834 
G01 Z-0.0800 F50.00 
G01 X-4.4734 Y-12.3552 F100.00 
G01 X-4.5101 Y-12.3400 
G01 X-5.2499 Y-12.3400 
G01 X-5.2866 Y-12.3552 
G01 X-5.3148 Y-12.3834 
G01 X-5.3300 Y-12.4201 
G01 X-5.3300 Y-13.8599 
G01 X-5.3148 Y-13.8966 
G01 X-5.2866 Y-13.9248 
G01 X-5.2499 Y-13.9400 
G01 X-4.5101 Y-13.9400 
G01 X-4.4734 Y-13.9248 
G01 X-4.4452 Y-13.8966 
G01 X-4.4300 Y-13.8599 
G01 X-4.4300 Y-12.4201 
G01 X-4.4452 Y-12.3834 
G00 Z1.0000 
G00 X-5.3700 Y-12.3801 
G01 Z-0.0800 F50.00 
G01 X-5.3852 Y-12.3434 F100.00 
G01 X-5.4134 Y-12.3152 
G01 X-5.4501 Y-12.3000 
G01 X-6.3899 Y-12.3000 
G01 X-6.4266 Y-12.3152 
G01 X-6.4548 Y-12.3434 
G01 X-6.4700 Y-12.3801 
G01 X-6.4700 Y-14.3199 
G01 X-6.4548 Y-14.3566 
G01 X-6.4266 Y-14.3848 
G01 X-6.3899 Y-14.4000 
G01 X-5.4501 Y-14.4000 
G01 X-5.4134 Y-14.3848 
G01 X-5.3852 Y-14.3566 
G01 X-5.3700 Y-14.3199 
G01 X-5.3700 Y-12.3801 
G00 Z1.0000 
G00 X-6.4700 Y-12.3801 
G01 Z-0.0800 F50.00 
G01 X-6.4852 Y-12.3434 F100.00 
G01 X-6.5134 Y-12.3152 
G01 X-6.5501 Y-12.3000 
G01 X-7.4899 Y-12.3000 
G01 X-7.5266 Y-12.3152 
G01 X-7.5548 Y-12.3434 
G01 X-7.5700 Y-12.3801 
G01 X-7.5700 Y-14.3199 
G01 X-7.5548 Y-14.3566 
G01 X-7.5266 Y-14.3848 
G01 X-7.4899 Y-14.4000 
G01 X-7.3867 Y-14.4000 
G01 X-7.3879 Y-14.8013 
G01 X-9.1073 Y-16.6160 
G01 X-9.1326 Y-16.6413 
G01 X-9.1546 Y-16.6794 
G01 X-9.1725 Y-16.7105 
G01 X-9.1839 Y-16.7530 
G01 X-9.1932 Y-16.7876 
G01 X-9.1932 Y-16.8316 
G01 X-9.1932 Y-17.6800 
G01 X-9.8624 Y-17.6800 
G01 X-9.8991 Y-17.6952 
G01 X-9.9273 Y-17.7234 
G01 X-9.9425 Y-17.7601 
G01 X-9.9425 Y-20.0224 
G01 X-9.9273 Y-20.0591 
G01 X-9.8991 Y-20.0873 
G01 X-9.8624 Y-20.1025 
G01 X-7.9176 Y-20.1025 
G01 X-7.8809 Y-20.0873 
G01 X-7.8527 Y-20.0591 
G01 X-7.8375 Y-20.0224 
G01 X-7.8375 Y-17.7601 
G01 X-7.8527 Y-17.7234 
G01 X-7.8809 Y-17.6952 
G01 X-7.9176 Y-17.6800 
G01 X-8.5868 Y-17.6800 
G01 X-8.5868 Y-16.9483 
G01 X-6.8680 Y-15.1343 
G01 X-6.8429 Y-15.1093 
G01 X-6.8206 Y-15.0709 
G01 X-6.8028 Y-15.0403 
G01 X-6.7912 Y-14.9975 
G01 X-6.7819 Y-14.9633 
G01 X-6.7818 Y-14.9188 
G01 X-6.7803 Y-14.4000 
G01 X-6.5501 Y-14.4000 
G01 X-6.5134 Y-14.3848 
G01 X-6.4852 Y-14.3566 
G01 X-6.4700 Y-14.3199 
G01 X-6.4700 Y-12.3801 
G00 Z1.0000 
G00 X-8.6700 Y-12.3801 
G01 Z-0.0800 F50.00 
G01 X-8.6852 Y-12.3434 F100.00 
G01 X-8.7134 Y-12.3152 
G01 X-8.7501 Y-12.3000 
G01 X-9.6899 Y-12.3000 
G01 X-9.7266 Y-12.3152 
G01 X-9.7548 Y-12.3434 
G01 X-9.7700 Y-12.3801 
G01 X-9.7700 Y-14.3199 
G01 X-9.7548 Y-14.3566 
G01 X-9.7266 Y-14.3848 
G01 X-9.6899 Y-14.4000 
G01 X-9.6027 Y-14.4000 
G01 X-9.6086 Y-14.7853 
G01 X-11.6090 Y-16.5807 
G01 X-11.6387 Y-16.6074 
G01 X-11.6622 Y-16.6285 
G01 X-11.6726 Y-16.6413 
G01 X-11.6885 Y-16.6688 
G01 X-11.7058 Y-16.6954 
G01 X-11.7125 Y-16.7105 
G01 X-11.7207 Y-16.7411 
G01 X-11.7306 Y-16.7713 
G01 X-11.7332 Y-16.7876 
G01 X-11.7332 Y-16.8193 
G01 X-11.7349 Y-16.8510 
G01 X-11.7332 Y-17.6800 
G01 X-12.4024 Y-17.6800 
G01 X-12.4391 Y-17.6952 
G01 X-12.4673 Y-17.7234 
G01 X-12.4825 Y-17.7601 
G01 X-12.4825 Y-20.0224 
G01 X-12.4673 Y-20.0591 
G01 X-12.4391 Y-20.0873 
G01 X-12.4024 Y-20.1025 
G01 X-10.4576 Y-20.1025 
G01 X-10.4209 Y-20.0873 
G01 X-10.3927 Y-20.0591 
G01 X-10.3775 Y-20.0224 
G01 X-10.3775 Y-17.7601 
G01 X-10.3927 Y-17.7234 
G01 X-10.4209 Y-17.6952 
G01 X-10.4576 Y-17.6800 
G01 X-11.1268 Y-17.6800 
G01 X-11.1268 Y-16.9628 
G01 X-9.1303 Y-15.1708 
G01 X-9.1006 Y-15.1442 
G01 X-9.0753 Y-15.1215 
G01 X-9.0503 Y-15.0831 
G01 X-9.0317 Y-15.0546 
G01 X-9.0268 Y-15.0439 
G01 X-9.0175 Y-15.0111 
G01 X-9.0069 Y-14.9787 
G01 X-9.0050 Y-14.9671 
G01 X-9.0044 Y-14.9331 
G01 X-9.0026 Y-14.8990 
G01 X-8.9962 Y-14.4000 
G01 X-8.7501 Y-14.4000 
G01 X-8.7134 Y-14.3848 
G01 X-8.6852 Y-14.3566 
G01 X-8.6700 Y-14.3199 
G01 X-8.6700 Y-12.3801 
G00 Z1.0000 
G00 X-10.8700 Y-12.3801 
G01 Z-0.0800 F50.00 
G01 X-10.8852 Y-12.3434 F100.00 
G01 X-10.9134 Y-12.3152 
G01 X-10.9501 Y-12.3000 
G01 X-11.8899 Y-12.3000 
G01 X-11.9266 Y-12.3152 
G01 X-11.9548 Y-12.3434 
G01 X-11.9700 Y-12.3801 
G01 X-11.9700 Y-14.3199 
G01 X-11.9548 Y-14.3566 
G01 X-11.9266 Y-14.3848 
G01 X-11.8899 Y-14.4000 
G01 X-11.7480 Y-14.4000 
G01 X-11.7375 Y-14.7741 
G01 X-14.1373 Y-16.5740 
G01 X-14.1562 Y-16.5849 
G01 X-14.1692 Y-16.5979 
G01 X-14.1838 Y-16.6089 
G01 X-14.1972 Y-16.6260 
G01 X-14.2126 Y-16.6413 
G01 X-14.2218 Y-16.6573 
G01 X-14.2331 Y-16.6717 
G01 X-14.2417 Y-16.6917 
G01 X-14.2525 Y-16.7105 
G01 X-14.2573 Y-16.7282 
G01 X-14.2645 Y-16.7451 
G01 X-14.2676 Y-16.7666 
G01 X-14.2732 Y-16.7876 
G01 X-14.2732 Y-16.8060 
G01 X-14.2758 Y-16.8241 
G01 X-14.2732 Y-16.8457 
G01 X-14.2732 Y-17.6800 
G01 X-14.9424 Y-17.6800 
G01 X-14.9791 Y-17.6952 
G01 X-15.0073 Y-17.7234 
G01 X-15.0225 Y-17.7601 
G01 X-15.0225 Y-20.0224 
G01 X-15.0073 Y-20.0591 
G01 X-14.9791 Y-20.0873 
G01 X-14.9424 Y-20.1025 
G01 X-12.9976 Y-20.1025 
G01 X-12.9609 Y-20.0873 
G01 X-12.9327 Y-20.0591 
G01 X-12.9175 Y-20.0224 
G01 X-12.9175 Y-17.7601 
G01 X-12.9327 Y-17.7234 
G01 X-12.9609 Y-17.6952 
G01 X-12.9976 Y-17.6800 
G01 X-13.6668 Y-17.6800 
G01 X-13.6668 Y-16.9791 
G01 X-11.2592 Y-15.1734 
G01 X-11.2371 Y-15.1598 
G01 X-11.2274 Y-15.1496 
G01 X-11.2161 Y-15.1411 
G01 X-11.2001 Y-15.1207 
G01 X-11.1823 Y-15.1018 
G01 X-11.1755 Y-15.0894 
G01 X-11.1669 Y-15.0783 
G01 X-11.1567 Y-15.0544 
G01 X-11.1443 Y-15.0316 
G01 X-11.1410 Y-15.0178 
G01 X-11.1355 Y-15.0049 
G01 X-11.1318 Y-14.9792 
G01 X-11.1258 Y-14.9539 
G01 X-11.1262 Y-14.9398 
G01 X-11.1242 Y-14.9259 
G01 X-11.1273 Y-14.9001 
G01 X-11.1413 Y-14.4000 
G01 X-10.9501 Y-14.4000 
G01 X-10.9134 Y-14.3848 
G01 X-10.8852 Y-14.3566 
G01 X-10.8700 Y-14.3199 
G01 X-10.8700 Y-12.3801 
G00 Z1.0000 
G00 X-11.9700 Y-12.3801 
G01 Z-0.0800 F50.00 
G01 X-11.9852 Y-12.3434 F100.00 
G01 X-12.0134 Y-12.3152 
G01 X-12.0501 Y-12.3000 
G01 X-12.9899 Y-12.3000 
G01 X-13.0266 Y-12.3152 
G01 X-13.0548 Y-12.3434 
G01 X-13.0700 Y-12.3801 
G01 X-13.0700 Y-14.3199 
G01 X-13.0548 Y-14.3566 
G01 X-13.0266 Y-14.3848 
G01 X-12.9899 Y-14.4000 
G01 X-12.9002 Y-14.4000 
G01 X-12.9006 Y-14.4309 
G01 X-16.6161 Y-16.2245 
G01 X-16.6270 Y-16.2275 
G01 X-16.6519 Y-16.2418 
G01 X-16.6778 Y-16.2543 
G01 X-16.6962 Y-16.2674 
G01 X-16.7165 Y-16.2877 
G01 X-16.7382 Y-16.3064 
G01 X-16.7526 Y-16.3238 
G01 X-16.7670 Y-16.3487 
G01 X-16.7831 Y-16.3724 
G01 X-16.7869 Y-16.3832 
G01 X-16.8000 Y-16.4207 
G01 X-16.8094 Y-16.4478 
G01 X-16.8103 Y-16.4591 
G01 X-16.8132 Y-16.4701 
G01 X-16.8132 Y-16.4988 
G01 X-16.8153 Y-16.5274 
G01 X-16.8132 Y-16.5386 
G01 X-16.8132 Y-17.6800 
G01 X-17.4824 Y-17.6800 
G01 X-17.5191 Y-17.6952 
G01 X-17.5473 Y-17.7234 
G01 X-17.5625 Y-17.7601 
G01 X-17.5625 Y-20.0224 
G01 X-17.5473 Y-20.0591 
G01 X-17.5191 Y-20.0873 
G01 X-17.4824 Y-20.1025 
G01 X-15.5376 Y-20.1025 
G01 X-15.5009 Y-20.0873 
G01 X-15.4727 Y-20.0591 
G01 X-15.4575 Y-20.0224 
G01 X-15.4575 Y-17.7601 
G01 X-15.4727 Y-17.7234 
G01 X-15.5009 Y-17.6952 
G01 X-15.5376 Y-17.6800 
G01 X-16.2068 Y-17.6800 
G01 X-16.2068 Y-16.7003 
G01 X-12.4958 Y-14.9089 
G01 X-12.4599 Y-14.8916 
G01 X-12.4322 Y-14.8782 
G01 X-12.4171 Y-14.8676 
G01 X-12.3951 Y-14.8461 
G01 X-12.3718 Y-14.8261 
G01 X-12.3599 Y-14.8119 
G01 X-12.3442 Y-14.7855 
G01 X-12.3269 Y-14.7601 
G01 X-12.3191 Y-14.7433 
G01 X-12.3107 Y-14.7137 
G01 X-12.3006 Y-14.6847 
G01 X-12.2974 Y-14.6665 
G01 X-12.2970 Y-14.6357 
G01 X-12.2947 Y-14.6051 
G01 X-12.2938 Y-14.4000 
G01 X-12.0501 Y-14.4000 
G01 X-12.0134 Y-14.3848 
G01 X-11.9852 Y-14.3566 
G01 X-11.9700 Y-14.3199 
G01 X-11.9700 Y-12.3801 
G00 Z1.0000 
G00 X-13.2452 Y-12.3834 
G01 Z-0.0800 F50.00 
G01 X-13.2734 Y-12.3552 F100.00 
G01 X-13.3101 Y-12.3400 
G01 X-14.0499 Y-12.3400 
G01 X-14.0866 Y-12.3552 
G01 X-14.1148 Y-12.3834 
G01 X-14.1300 Y-12.4201 
G01 X-14.1300 Y-13.8599 
G01 X-14.1148 Y-13.8966 
G01 X-14.0866 Y-13.9248 
G01 X-14.0499 Y-13.9400 
G01 X-13.3101 Y-13.9400 
G01 X-13.2734 Y-13.9248 
G01 X-13.2452 Y-13.8966 
G01 X-13.2300 Y-13.8599 
G01 X-13.2300 Y-12.4201 
G01 X-13.2452 Y-12.3834 
G00 Z1.0000 
G00 X-17.3800 Y-11.8201 
G01 Z-0.0800 F50.00 
G01 X-17.3952 Y-11.7834 F100.00 
G01 X-17.4234 Y-11.7552 
G01 X-17.4601 Y-11.7400 
G01 X-19.0999 Y-11.7400 
G01 X-19.1366 Y-11.7552 
G01 X-19.1648 Y-11.7834 
G01 X-19.1800 Y-11.8201 
G01 X-19.1800 Y-13.2599 
G01 X-19.1648 Y-13.2966 
G01 X-19.1366 Y-13.3248 
G01 X-19.0999 Y-13.3400 
G01 X-17.4601 Y-13.3400 
G01 X-17.4234 Y-13.3248 
G01 X-17.3952 Y-13.2966 
G01 X-17.3800 Y-13.2599 
G01 X-17.3800 Y-11.8201 
G00 Z1.0000 
G00 X-17.4824 Y-20.5375 
G01 Z-0.0800 F50.00 
G01 X-17.5191 Y-20.5527 F100.00 
G01 X-17.5473 Y-20.5809 
G01 X-17.5625 Y-20.6176 
G01 X-17.5625 Y-22.8799 
G01 X-17.5473 Y-22.9166 
G01 X-17.5191 Y-22.9448 
G01 X-17.4824 Y-22.9600 
G01 X-15.9611 Y-22.9600 
G01 X-15.5432 Y-23.5868 
G01 X-15.5432 Y-31.1549 
G01 X-15.5225 Y-31.2320 
G01 X-15.4826 Y-31.3012 
G01 X-15.4262 Y-31.3576 
G01 X-14.7700 Y-32.0138 
G01 X-14.7700 Y-33.8199 
G01 X-14.7548 Y-33.8566 
G01 X-14.7266 Y-33.8848 
G01 X-14.6899 Y-33.9000 
G01 X-12.6501 Y-33.9000 
G01 X-12.6134 Y-33.8848 
G01 X-12.5852 Y-33.8566 
G01 X-12.5700 Y-33.8199 
G01 X-12.5700 Y-31.6801 
G01 X-12.5852 Y-31.6434 
G01 X-12.6134 Y-31.6152 
G01 X-12.6501 Y-31.6000 
G01 X-14.3262 Y-31.6000 
G01 X-14.9368 Y-30.9894 
G01 X-14.9368 Y-23.5250 
G01 X-14.9368 Y-23.4852 
G01 X-14.9368 Y-23.4551 
G01 X-14.9400 Y-23.4356 
G01 X-14.9497 Y-23.4071 
G01 X-14.9575 Y-23.3780 
G01 X-14.9656 Y-23.3600 
G01 X-14.9823 Y-23.3350 
G01 X-14.9974 Y-23.3088 
G01 X-15.4575 Y-22.6221 
G01 X-15.4575 Y-20.6176 
G01 X-15.4727 Y-20.5809 
G01 X-15.5009 Y-20.5527 
G01 X-15.5376 Y-20.5375 
G01 X-17.4824 Y-20.5375 
G00 Z1.0000 
G00 X-14.9791 Y-20.5527 
G01 Z-0.0800 F50.00 
G01 X-15.0073 Y-20.5809 F100.00 
G01 X-15.0225 Y-20.6176 
G01 X-15.0225 Y-22.8799 
G01 X-15.0073 Y-22.9166 
G01 X-14.9791 Y-22.9448 
G01 X-14.9424 Y-22.9600 
G01 X-14.2571 Y-22.9600 
G01 X-14.2525 Y-22.9770 
G01 X-14.2417 Y-22.9958 
G01 X-14.2331 Y-23.0158 
G01 X-14.2218 Y-23.0302 
G01 X-14.2126 Y-23.0462 
G01 X-14.1972 Y-23.0615 
G01 X-14.1838 Y-23.0786 
G01 X-14.1692 Y-23.0896 
G01 X-14.1562 Y-23.1026 
G01 X-14.1373 Y-23.1135 
G01 X-13.0032 Y-23.9641 
G01 X-13.0032 Y-27.3044 
G01 X-13.0034 Y-27.3436 
G01 X-12.9931 Y-27.3827 
G01 X-12.9831 Y-27.4208 
G01 X-12.9630 Y-27.4559 
G01 X-11.7336 Y-29.6073 
G01 X-11.7569 Y-34.0000 
G01 X-12.3899 Y-34.0000 
G01 X-12.4266 Y-34.0152 
G01 X-12.4548 Y-34.0434 
G01 X-12.4700 Y-34.0801 
G01 X-12.4700 Y-36.2199 
G01 X-12.4548 Y-36.2566 
G01 X-12.4266 Y-36.2848 
G01 X-12.3899 Y-36.3000 
G01 X-10.2501 Y-36.3000 
G01 X-10.2134 Y-36.2848 
G01 X-10.1852 Y-36.2566 
G01 X-10.1700 Y-36.2199 
G01 X-10.1700 Y-34.0801 
G01 X-10.1852 Y-34.0434 
G01 X-10.2134 Y-34.0152 
G01 X-10.2501 Y-34.0000 
G01 X-11.1505 Y-34.0000 
G01 X-11.1270 Y-29.5689 
G01 X-11.1268 Y-29.5275 
G01 X-11.1266 Y-29.4892 
G01 X-11.1369 Y-29.4499 
G01 X-11.1468 Y-29.4120 
G01 X-11.1666 Y-29.3773 
G01 X-11.1864 Y-29.3426 
G01 X-12.3968 Y-27.2245 
G01 X-12.3968 Y-23.8307 
G01 X-12.3942 Y-23.8091 
G01 X-12.3968 Y-23.7910 
G01 X-12.3968 Y-23.7726 
G01 X-12.4024 Y-23.7516 
G01 X-12.4055 Y-23.7301 
G01 X-12.4127 Y-23.7132 
G01 X-12.4175 Y-23.6955 
G01 X-12.4283 Y-23.6767 
G01 X-12.4369 Y-23.6567 
G01 X-12.4482 Y-23.6423 
G01 X-12.4574 Y-23.6263 
G01 X-12.4728 Y-23.6110 
G01 X-12.4861 Y-23.5939 
G01 X-12.5008 Y-23.5829 
G01 X-12.5138 Y-23.5699 
G01 X-12.5327 Y-23.5590 
G01 X-13.3313 Y-22.9600 
G01 X-12.9976 Y-22.9600 
G01 X-12.9609 Y-22.9448 
G01 X-12.9327 Y-22.9166 
G01 X-12.9175 Y-22.8799 
G01 X-12.9175 Y-20.6176 
G01 X-12.9327 Y-20.5809 
G01 X-12.9609 Y-20.5527 
G01 X-12.9976 Y-20.5375 
G01 X-14.9424 Y-20.5375 
G01 X-14.9791 Y-20.5527 
G00 Z1.0000 
G00 X-12.4391 Y-20.5527 
G01 Z-0.0800 F50.00 
G01 X-12.4673 Y-20.5809 F100.00 
G01 X-12.4825 Y-20.6176 
G01 X-12.4825 Y-22.8799 
G01 X-12.4673 Y-22.9166 
G01 X-12.4391 Y-22.9448 
G01 X-12.4024 Y-22.9600 
G01 X-11.7332 Y-22.9600 
G01 X-11.7332 Y-23.1402 
G01 X-11.7332 Y-23.1800 
G01 X-11.7332 Y-23.2174 
G01 X-11.7222 Y-23.2584 
G01 X-11.7125 Y-23.2945 
G01 X-11.6913 Y-23.3313 
G01 X-11.6726 Y-23.3637 
G01 X-11.6426 Y-23.3936 
G01 X-11.6162 Y-23.4201 
G01 X-11.5794 Y-23.4413 
G01 X-11.5470 Y-23.4600 
G01 X-11.5060 Y-23.4710 
G01 X-11.4699 Y-23.4807 
G01 X-9.4549 Y-23.9838 
G01 X-9.5596 Y-24.0885 
G01 X-9.6539 Y-24.2297 
G01 X-9.7189 Y-24.3866 
G01 X-9.7520 Y-24.5531 
G01 X-9.7520 Y-26.2469 
G01 X-9.7189 Y-26.4134 
G01 X-9.6539 Y-26.5703 
G01 X-9.5596 Y-26.7115 
G01 X-9.4395 Y-26.8316 
G01 X-9.2983 Y-26.9259 
G01 X-9.1414 Y-26.9909 
G01 X-8.9749 Y-27.0240 
G01 X-8.8051 Y-27.0240 
G01 X-8.6386 Y-26.9909 
G01 X-8.4817 Y-26.9259 
G01 X-8.3405 Y-26.8316 
G01 X-8.2204 Y-26.7115 
G01 X-8.1261 Y-26.5703 
G01 X-8.0611 Y-26.4134 
G01 X-8.0280 Y-26.2469 
G01 X-8.0280 Y-24.5531 
G01 X-8.0611 Y-24.3866 
G01 X-8.1261 Y-24.2297 
G01 X-8.2204 Y-24.0885 
G01 X-8.3405 Y-23.9684 
G01 X-8.4817 Y-23.8741 
G01 X-8.5865 Y-23.8307 
G01 X-8.5868 Y-23.8100 
G01 X-8.5868 Y-23.7726 
G01 X-8.5978 Y-23.7316 
G01 X-8.6075 Y-23.6955 
G01 X-8.6287 Y-23.6587 
G01 X-8.6474 Y-23.6263 
G01 X-8.6774 Y-23.5964 
G01 X-8.7038 Y-23.5699 
G01 X-8.7406 Y-23.5487 
G01 X-8.7730 Y-23.5300 
G01 X-8.8140 Y-23.5190 
G01 X-8.8501 Y-23.5093 
G01 X-11.0499 Y-22.9600 
G01 X-10.4576 Y-22.9600 
G01 X-10.4209 Y-22.9448 
G01 X-10.3927 Y-22.9166 
G01 X-10.3775 Y-22.8799 
G01 X-10.3775 Y-20.6176 
G01 X-10.3927 Y-20.5809 
G01 X-10.4209 Y-20.5527 
G01 X-10.4576 Y-20.5375 
G01 X-12.4024 Y-20.5375 
G01 X-12.4391 Y-20.5527 
G00 Z1.0000 
G00 X-11.9795 Y-23.9684 
G01 Z-0.0800 F50.00 
G01 X-12.0996 Y-24.0885 F100.00 
G01 X-12.1939 Y-24.2297 
G01 X-12.2589 Y-24.3866 
G01 X-12.2920 Y-24.5531 
G01 X-12.2920 Y-26.2469 
G01 X-12.2589 Y-26.4134 
G01 X-12.1939 Y-26.5703 
G01 X-12.0996 Y-26.7115 
G01 X-11.9795 Y-26.8316 
G01 X-11.8383 Y-26.9259 
G01 X-11.6814 Y-26.9909 
G01 X-11.5149 Y-27.0240 
G01 X-11.3451 Y-27.0240 
G01 X-11.1786 Y-26.9909 
G01 X-11.0217 Y-26.9259 
G01 X-10.8805 Y-26.8316 
G01 X-10.7604 Y-26.7115 
G01 X-10.6661 Y-26.5703 
G01 X-10.6011 Y-26.4134 
G01 X-10.5680 Y-26.2469 
G01 X-10.5680 Y-24.5531 
G01 X-10.6011 Y-24.3866 
G01 X-10.6661 Y-24.2297 
G01 X-10.7604 Y-24.0885 
G01 X-10.8805 Y-23.9684 
G01 X-11.0217 Y-23.8741 
G01 X-11.1786 Y-23.8091 
G01 X-11.3451 Y-23.7760 
G01 X-11.5149 Y-23.7760 
G01 X-11.6814 Y-23.8091 
G01 X-11.8383 Y-23.8741 
G01 X-11.9795 Y-23.9684 
G00 Z1.0000 
G00 X-13.3004 Y-24.0885 
G01 Z-0.0800 F50.00 
G01 X-13.4205 Y-23.9684 F100.00 
G01 X-13.5617 Y-23.8741 
G01 X-13.7186 Y-23.8091 
G01 X-13.8851 Y-23.7760 
G01 X-14.0549 Y-23.7760 
G01 X-14.2214 Y-23.8091 
G01 X-14.3783 Y-23.8741 
G01 X-14.5195 Y-23.9684 
G01 X-14.6396 Y-24.0885 
G01 X-14.7339 Y-24.2297 
G01 X-14.7989 Y-24.3866 
G01 X-14.8320 Y-24.5531 
G01 X-14.8320 Y-26.2469 
G01 X-14.7989 Y-26.4134 
G01 X-14.7339 Y-26.5703 
G01 X-14.6396 Y-26.7115 
G01 X-14.5195 Y-26.8316 
G01 X-14.3783 Y-26.9259 
G01 X-14.2214 Y-26.9909 
G01 X-14.0549 Y-27.0240 
G01 X-13.8851 Y-27.0240 
G01 X-13.7186 Y-26.9909 
G01 X-13.5617 Y-26.9259 
G01 X-13.4205 Y-26.8316 
G01 X-13.3004 Y-26.7115 
G01 X-13.2061 Y-26.5703 
G01 X-13.1411 Y-26.4134 
G01 X-13.1080 Y-26.2469 
G01 X-13.1080 Y-24.5531 
G01 X-13.1411 Y-24.3866 
G01 X-13.2061 Y-24.2297 
G01 X-13.3004 Y-24.0885 
G00 Z1.0000 
G00 X-4.4796 Y-24.0885 
G01 Z-0.0800 F50.00 
G01 X-4.5739 Y-24.2297 F100.00 
G01 X-4.6389 Y-24.3866 
G01 X-4.6720 Y-24.5531 
G01 X-4.6720 Y-26.2469 
G01 X-4.6389 Y-26.4134 
G01 X-4.5739 Y-26.5703 
G01 X-4.4796 Y-26.7115 
G01 X-4.3595 Y-26.8316 
G01 X-4.2183 Y-26.9259 
G01 X-4.0614 Y-26.9909 
G01 X-3.8949 Y-27.0240 
G01 X-3.7251 Y-27.0240 
G01 X-3.5586 Y-26.9909 
G01 X-3.4017 Y-26.9259 
G01 X-3.2605 Y-26.8316 
G01 X-3.1404 Y-26.7115 
G01 X-3.0461 Y-26.5703 
G01 X-2.9811 Y-26.4134 
G01 X-2.9480 Y-26.2469 
G01 X-2.9480 Y-24.5531 
G01 X-2.9811 Y-24.3866 
G01 X-3.0461 Y-24.2297 
G01 X-3.1404 Y-24.0885 
G01 X-3.2605 Y-23.9684 
G01 X-3.4017 Y-23.8741 
G01 X-3.5586 Y-23.8091 
G01 X-3.7251 Y-23.7760 
G01 X-3.8949 Y-23.7760 
G01 X-4.0614 Y-23.8091 
G01 X-4.2183 Y-23.8741 
G01 X-4.3595 Y-23.9684 
G01 X-4.4796 Y-24.0885 
G00 Z1.0000 
G00 X-5.6852 Y-31.6434 
G01 Z-0.0800 F50.00 
G01 X-5.7134 Y-31.6152 F100.00 
G01 X-5.7501 Y-31.6000 
G01 X-7.7899 Y-31.6000 
G01 X-7.8266 Y-31.6152 
G01 X-7.8548 Y-31.6434 
G01 X-7.8700 Y-31.6801 
G01 X-7.8700 Y-33.6199 
G01 X-7.8548 Y-33.6566 
G01 X-7.8266 Y-33.6848 
G01 X-7.7899 Y-33.7000 
G01 X-5.7501 Y-33.7000 
G01 X-5.7134 Y-33.6848 
G01 X-5.6852 Y-33.6566 
G01 X-5.6700 Y-33.6199 
G01 X-5.6700 Y-31.6801 
G01 X-5.6852 Y-31.6434 
G00 Z1.0000 
G00 X-5.1366 Y-34.8402 
G01 Z-0.0800 F50.00 
G01 X-5.1648 Y-34.8684 F100.00 
G01 X-5.1800 Y-34.9051 
G01 X-5.1800 Y-37.3650 
G01 X-9.2943 Y-37.3650 
G01 X-9.3482 Y-37.3339 
G01 X-9.5700 Y-37.2420 
G01 X-9.8019 Y-37.1798 
G01 X-10.0400 Y-37.1485 
G01 X-10.2800 Y-37.1485 
G01 X-10.5181 Y-37.1798 
G01 X-10.7500 Y-37.2420 
G01 X-10.9718 Y-37.3339 
G01 X-11.0257 Y-37.3650 
G01 X-15.1400 Y-37.3650 
G01 X-15.1400 Y-35.5401 
G01 X-15.1552 Y-35.5034 
G01 X-15.1834 Y-35.4752 
G01 X-15.2201 Y-35.4600 
G01 X-22.2449 Y-35.4600 
G01 X-22.2816 Y-35.4752 
G01 X-22.3098 Y-35.5034 
G01 X-22.3250 Y-35.5401 
G01 X-22.3250 Y-42.8824 
G01 X-22.3098 Y-42.9191 
G01 X-22.2816 Y-42.9473 
G01 X-22.2449 Y-42.9625 
G01 X0.0199 Y-42.9625 
G01 X0.0566 Y-42.9473 
G01 X0.0848 Y-42.9191 
G01 X0.1000 Y-42.8824 
G01 X0.1000 Y-34.9051 
G01 X0.0848 Y-34.8684 
G01 X0.0566 Y-34.8402 
G01 X0.0199 Y-34.8250 
G01 X-5.0999 Y-34.8250 
G01 X-5.1366 Y-34.8402 
G00 Z1.0000 
G00 Z5.0000 
M05
M02
