(.../EAGLE-7.2.0/ulp/pcb-gcode/pcb-gcode.ulp)
(Copyright 2005 - 2012 by John Johnson)
(See readme.txt for licensing terms.)
(This file generated from the board:)
(.../EAGLE-7.2.0/projects/xc6lx9/lx9io.brd)
(Current profile is .../pcb-gcode/profiles/generic.pp  )
(This file generated 2020/03/27 22:07:53)
(Settings from pcb-machine.h)
(spindle on time = 2.0000)
(spindle speed = 1000.0000)
(tool change at 0.0000 0.0000 5.0000 )
(feed rate xy = F0.00  )
(feed rate z  = F254.00 )
(Z Axis Settings)
(  High     Up        Down     Drill)
(5.0000 	1.0000 	-0.0800 	-1.8000 )
(Settings from pcb-defaults.h)
(isolate min = 0.0000)
(isolate max = 0.1500)
(isolate step = 0.1500)
(Generated top outlines, top drill, )
(Unit of measure: mm)
( Tool|       Size       |  Min Sub |  Max Sub |   Count )
( T01  0.600mm 0.0236in 0.0000in 0.0000in )
( T02  0.900mm 0.0354in 0.0000in 0.0000in )
( T03  1.016mm 0.0400in 0.0000in 0.0000in )
( T04  2.309mm 0.0909in 0.0000in 0.0000in )
( T05  2.800mm 0.1102in 0.0000in 0.0000in )
(Metric Mode)
G21
(Absolute Coordinates)
G90
S1000
G00 Z5.0000 
G00 X0.0000 Y0.0000 
M03
G04 P2.000000
M05
M06 T01  ; 0.6000 
G00 Z1.0000 
M03
G04 P2.000000
G00 Z1.000000
G00 X15.5575 Y33.3375 
G01 Z-1.8000 F254.00 
G01 Z1.000000
(R1.0000  P1.000000)
G00 X15.5575 Y43.4975 
G01 Z-1.800000
G01 Z1.000000
G00 X35.8775 Y38.1000 
G01 Z-1.800000
G01 Z1.000000
G00 X36.8300 Y38.1000 
G01 Z-1.800000
G01 Z1.000000
G00 X36.8300 Y32.0675 
G01 Z-1.800000
G01 Z1.000000
G00 X36.8300 Y28.1400 
G01 Z-1.800000
G01 Z1.000000
G00 X36.8300 Y15.2400 
G01 Z-1.800000
G01 Z1.000000
G00 X54.6100 Y29.5275 
G01 Z-1.800000
G01 Z1.000000
G00 X54.6100 Y29.5275 
G01 Z-1.800000
G01 Z1.000000
G00 X54.6100 Y34.2900 
G01 Z-1.800000
G01 Z1.000000
G00 X54.6100 Y38.1000 
G01 Z-1.800000
G01 Z1.000000
G00 X55.5625 Y38.1000 
G01 Z-1.800000
G01 Z1.000000
G00 X49.5300 Y40.0050 
G01 Z-1.800000
G01 Z1.000000
G00 X49.5300 Y43.1800 
G01 Z-1.800000
G01 Z1.000000
M05
M02
