(.../EAGLE-7.2.0/ulp/pcb-gcode/pcb-gcode.ulp)
(Copyright 2005 - 2012 by John Johnson)
(See readme.txt for licensing terms.)
(This file generated from the board:)
(.../EAGLE-7.2.0/projects/xc6lx9/lx9io.brd)
(Current profile is .../pcb-gcode/profiles/generic.pp  )
(This file generated 2020/03/27 22:07:53)
(Settings from pcb-machine.h)
(spindle on time = 2.0000)
(spindle speed = 1000.0000)
(tool change at 0.0000 0.0000 5.0000 )
(feed rate xy = F0.00  )
(feed rate z  = F254.00 )
(Z Axis Settings)
(  High     Up        Down     Drill)
(5.0000 	1.0000 	-0.0800 	-1.8000 )
(Settings from pcb-defaults.h)
(isolate min = 0.0000)
(isolate max = 0.1500)
(isolate step = 0.1500)
(Generated top outlines, top drill, )
(Unit of measure: mm)
( Tool|       Size       |  Min Sub |  Max Sub |   Count )
( T01  0.600mm 0.0236in 0.0000in 0.0000in )
( T02  0.900mm 0.0354in 0.0000in 0.0000in )
( T03  1.016mm 0.0400in 0.0000in 0.0000in )
( T04  2.309mm 0.0909in 0.0000in 0.0000in )
( T05  2.800mm 0.1102in 0.0000in 0.0000in )
(Metric Mode)
G21
(Absolute Coordinates)
G90
S1000
G00 Z5.0000 
G00 X0.0000 Y0.0000 
M03
G04 P2.000000
M05
G00 Z5.0000 
G00 X0.0000 Y0.0000 
M06 T02  ; 0.9000 
G00 Z1.0000 
M03
G04 P2.000000
G00 Z1.000000
G00 X6.3500 Y9.7900 
G01 Z-1.8000 F254.00 
G01 Z1.000000
(R1.0000  P1.000000)
G00 X6.3500 Y12.0760 
G01 Z-1.800000
G01 Z1.000000
G00 X6.3500 Y14.3620 
G01 Z-1.800000
G01 Z1.000000
G00 X6.3500 Y16.6480 
G01 Z-1.800000
G01 Z1.000000
G00 X6.3500 Y18.9340 
G01 Z-1.800000
G01 Z1.000000
G00 X8.8900 Y17.7910 
G01 Z-1.800000
G01 Z1.000000
G00 X8.8900 Y15.5050 
G01 Z-1.800000
G01 Z1.000000
G00 X8.8900 Y13.2190 
G01 Z-1.800000
G01 Z1.000000
G00 X8.8900 Y10.9330 
G01 Z-1.800000
G01 Z1.000000
G00 X11.4300 Y9.7900 
G01 Z-1.800000
G01 Z1.000000
G00 X11.4300 Y12.0760 
G01 Z-1.800000
G01 Z1.000000
G00 X11.4300 Y14.3620 
G01 Z-1.800000
G01 Z1.000000
G00 X11.4300 Y16.6480 
G01 Z-1.800000
G01 Z1.000000
G00 X11.4300 Y18.9340 
G01 Z-1.800000
G01 Z1.000000
G00 X8.8900 Y20.0770 
G01 Z-1.800000
G01 Z1.000000
G00 X9.2700 Y34.7000 
G01 Z-1.800000
G01 Z1.000000
G00 X9.2700 Y36.8000 
G01 Z-1.800000
G01 Z1.000000
G00 X9.2700 Y39.4000 
G01 Z-1.800000
G01 Z1.000000
G00 X9.2700 Y41.5000 
G01 Z-1.800000
G01 Z1.000000
G00 X11.7700 Y41.5000 
G01 Z-1.800000
G01 Z1.000000
G00 X11.7700 Y34.7000 
G01 Z-1.800000
G01 Z1.000000
G00 X33.1500 Y1.2700 
G01 Z-1.800000
G01 Z1.000000
G00 X41.1500 Y1.2700 
G01 Z-1.800000
G01 Z1.000000
M05
G00 Z5.0000 
G00 X0.0000 Y0.0000 
M06 T03  ; 1.0160 
G00 Z1.0000 
M03
G04 P2.000000
G00 Z1.000000
G00 X20.3200 Y3.8100 
G01 Z-1.8000 F254.00 
G01 Z1.000000
(R1.0000  P1.000000)
G00 X22.8600 Y3.8100 
G01 Z-1.800000
G01 Z1.000000
G00 X22.8600 Y6.3500 
G01 Z-1.800000
G01 Z1.000000
G00 X20.3200 Y6.3500 
G01 Z-1.800000
G01 Z1.000000
G00 X20.3200 Y8.8900 
G01 Z-1.800000
G01 Z1.000000
G00 X20.3200 Y11.4300 
G01 Z-1.800000
G01 Z1.000000
G00 X22.8600 Y11.4300 
G01 Z-1.800000
G01 Z1.000000
G00 X22.8600 Y8.8900 
G01 Z-1.800000
G01 Z1.000000
G00 X22.8600 Y13.9700 
G01 Z-1.800000
G01 Z1.000000
G00 X20.3200 Y13.9700 
G01 Z-1.800000
G01 Z1.000000
G00 X20.3200 Y16.5100 
G01 Z-1.800000
G01 Z1.000000
G00 X20.3200 Y19.0500 
G01 Z-1.800000
G01 Z1.000000
G00 X20.3200 Y21.5900 
G01 Z-1.800000
G01 Z1.000000
G00 X20.3200 Y24.1300 
G01 Z-1.800000
G01 Z1.000000
G00 X22.8600 Y24.1300 
G01 Z-1.800000
G01 Z1.000000
G00 X22.8600 Y21.5900 
G01 Z-1.800000
G01 Z1.000000
G00 X22.8600 Y19.0500 
G01 Z-1.800000
G01 Z1.000000
G00 X22.8600 Y16.5100 
G01 Z-1.800000
G01 Z1.000000
G00 X22.8600 Y26.6700 
G01 Z-1.800000
G01 Z1.000000
G00 X20.3200 Y26.6700 
G01 Z-1.800000
G01 Z1.000000
G00 X20.3200 Y29.2100 
G01 Z-1.800000
G01 Z1.000000
G00 X20.3200 Y31.7500 
G01 Z-1.800000
G01 Z1.000000
G00 X20.3200 Y34.2900 
G01 Z-1.800000
G01 Z1.000000
G00 X20.3200 Y36.8300 
G01 Z-1.800000
G01 Z1.000000
G00 X20.3200 Y39.3700 
G01 Z-1.800000
G01 Z1.000000
G00 X20.3200 Y41.9100 
G01 Z-1.800000
G01 Z1.000000
G00 X22.8600 Y41.9100 
G01 Z-1.800000
G01 Z1.000000
G00 X22.8600 Y39.3700 
G01 Z-1.800000
G01 Z1.000000
G00 X22.8600 Y36.8300 
G01 Z-1.800000
G01 Z1.000000
G00 X22.8600 Y34.2900 
G01 Z-1.800000
G01 Z1.000000
G00 X22.8600 Y31.7500 
G01 Z-1.800000
G01 Z1.000000
G00 X22.8600 Y29.2100 
G01 Z-1.800000
G01 Z1.000000
G00 X63.5000 Y29.2100 
G01 Z-1.800000
G01 Z1.000000
G00 X63.5000 Y26.6700 
G01 Z-1.800000
G01 Z1.000000
G00 X63.5000 Y24.1300 
G01 Z-1.800000
G01 Z1.000000
G00 X63.5000 Y21.5900 
G01 Z-1.800000
G01 Z1.000000
G00 X63.5000 Y19.0500 
G01 Z-1.800000
G01 Z1.000000
G00 X63.5000 Y16.5100 
G01 Z-1.800000
G01 Z1.000000
G00 X63.5000 Y13.9700 
G01 Z-1.800000
G01 Z1.000000
G00 X63.5000 Y11.4300 
G01 Z-1.800000
G01 Z1.000000
G00 X63.5000 Y8.8900 
G01 Z-1.800000
G01 Z1.000000
G00 X63.5000 Y6.3500 
G01 Z-1.800000
G01 Z1.000000
G00 X63.5000 Y3.8100 
G01 Z-1.800000
G01 Z1.000000
G00 X66.0400 Y3.8100 
G01 Z-1.800000
G01 Z1.000000
G00 X66.0400 Y6.3500 
G01 Z-1.800000
G01 Z1.000000
G00 X66.0400 Y8.8900 
G01 Z-1.800000
G01 Z1.000000
G00 X66.0400 Y11.4300 
G01 Z-1.800000
G01 Z1.000000
G00 X66.0400 Y13.9700 
G01 Z-1.800000
G01 Z1.000000
G00 X66.0400 Y16.5100 
G01 Z-1.800000
G01 Z1.000000
G00 X66.0400 Y19.0500 
G01 Z-1.800000
G01 Z1.000000
G00 X66.0400 Y21.5900 
G01 Z-1.800000
G01 Z1.000000
G00 X66.0400 Y24.1300 
G01 Z-1.800000
G01 Z1.000000
G00 X66.0400 Y26.6700 
G01 Z-1.800000
G01 Z1.000000
G00 X66.0400 Y29.2100 
G01 Z-1.800000
G01 Z1.000000
G00 X66.0400 Y31.7500 
G01 Z-1.800000
G01 Z1.000000
G00 X66.0400 Y34.2900 
G01 Z-1.800000
G01 Z1.000000
G00 X66.0400 Y36.8300 
G01 Z-1.800000
G01 Z1.000000
G00 X66.0400 Y39.3700 
G01 Z-1.800000
G01 Z1.000000
G00 X66.0400 Y41.9100 
G01 Z-1.800000
G01 Z1.000000
G00 X63.5000 Y41.9100 
G01 Z-1.800000
G01 Z1.000000
G00 X63.5000 Y39.3700 
G01 Z-1.800000
G01 Z1.000000
G00 X63.5000 Y36.8300 
G01 Z-1.800000
G01 Z1.000000
G00 X63.5000 Y34.2900 
G01 Z-1.800000
G01 Z1.000000
G00 X63.5000 Y31.7500 
G01 Z-1.800000
G01 Z1.000000
M05
G00 Z5.0000 
G00 X0.0000 Y0.0000 
M06 T04  ; 2.3087 
G00 Z1.0000 
M03
G04 P2.000000
G00 Z1.000000
G00 X5.4700 Y38.1000 
G01 Z-1.8000 F254.00 
G01 Z1.000000
(R1.0000  P1.000000)
G00 X6.2700 Y31.3500 
G01 Z-1.800000
G01 Z1.000000
G00 X6.2700 Y44.8500 
G01 Z-1.800000
G01 Z1.000000
M05
G00 Z5.0000 
G00 X0.0000 Y0.0000 
M06 T05  ; 2.8000 
G00 Z1.0000 
M03
G04 P2.000000
G00 Z1.000000
G00 X8.8900 Y2.1050 
G01 Z-1.8000 F254.00 
G01 Z1.000000
(R1.0000  P1.000000)
G00 X8.8900 Y27.1050 
G01 Z-1.800000
G01 Z1.000000
T01 
G00 Z5.0000 
M05
M02
