(.../EAGLE-7.2.0/ulp/pcb-gcode/pcb-gcode.ulp)
(Copyright 2005 - 2012 by John Johnson)
(See readme.txt for licensing terms.)
(This file generated from the board:)
(.../EAGLE-7.2.0/projects/xc6lx9/pmod_vga6.brd)
(Current profile is .../pcb-gcode/profiles/generic.pp  )
(This file generated 2020/08/18 20:03:22)
(Settings from pcb-machine.h)
(spindle on time = 2.0000)
(spindle speed = 1000.0000)
(tool change at 0.0000 0.0000 5.0000 )
(feed rate xy = F0.00  )
(feed rate z  = F254.00 )
(Z Axis Settings)
(  High     Up        Down     Drill)
(5.0000 	1.0000 	-0.0800 	-1.8000 )
(Settings from pcb-defaults.h)
(isolate min = 0.0000)
(isolate max = 0.2000)
(isolate step = 0.2000)
(Generated top outlines, top drill, )
(Unit of measure: mm)
( Tool|       Size       |  Min Sub |  Max Sub |   Count )
( T01  1.016mm 0.0400in 0.0000in 0.0000in )
( T02  1.190mm 0.0469in 0.0000in 0.0000in )
( T03  3.050mm 0.1201in 0.0000in 0.0000in )
(Metric Mode)
G21
(Absolute Coordinates)
G90
S1000
G00 Z5.0000 
G00 X0.0000 Y0.0000 
M03
G04 P2.000000
M05
M06 T01  ; 1.0160 
G00 Z1.0000 
M03
G04 P2.000000
G00 Z1.000000
G00 X25.4000 Y6.3500 
G01 Z-1.8000 F254.00 
G01 Z1.000000
(R1.0000  P1.000000)
G00 X25.4000 Y8.8900 
G01 Z-1.800000
G01 Z1.000000
G00 X25.4000 Y11.4300 
G01 Z-1.800000
G01 Z1.000000
G00 X25.4000 Y13.9700 
G01 Z-1.800000
G01 Z1.000000
G00 X25.4000 Y16.5100 
G01 Z-1.800000
G01 Z1.000000
G00 X25.4000 Y19.0500 
G01 Z-1.800000
G01 Z1.000000
G00 X27.9400 Y19.0500 
G01 Z-1.800000
G01 Z1.000000
G00 X27.9400 Y16.5100 
G01 Z-1.800000
G01 Z1.000000
G00 X27.9400 Y13.9700 
G01 Z-1.800000
G01 Z1.000000
G00 X27.9400 Y11.4300 
G01 Z-1.800000
G01 Z1.000000
G00 X27.9400 Y8.8900 
G01 Z-1.800000
G01 Z1.000000
G00 X27.9400 Y6.3500 
G01 Z-1.800000
G01 Z1.000000
M05
G00 Z5.0000 
G00 X0.0000 Y0.0000 
M06 T02  ; 1.1900 
G00 Z1.0000 
M03
G04 P2.000000
G00 Z1.000000
G00 X10.1600 Y12.4300 
G01 Z-1.8000 F254.00 
G01 Z1.000000
(R1.0000  P1.000000)
G00 X10.1600 Y14.7200 
G01 Z-1.800000
G01 Z1.000000
G00 X10.1600 Y17.0100 
G01 Z-1.800000
G01 Z1.000000
G00 X10.1600 Y19.3000 
G01 Z-1.800000
G01 Z1.000000
G00 X10.1600 Y21.5900 
G01 Z-1.800000
G01 Z1.000000
G00 X12.1600 Y20.4450 
G01 Z-1.800000
G01 Z1.000000
G00 X12.1600 Y18.1550 
G01 Z-1.800000
G01 Z1.000000
G00 X12.1600 Y15.8650 
G01 Z-1.800000
G01 Z1.000000
G00 X12.1600 Y13.5750 
G01 Z-1.800000
G01 Z1.000000
G00 X14.1600 Y12.4300 
G01 Z-1.800000
G01 Z1.000000
G00 X14.1600 Y14.7200 
G01 Z-1.800000
G01 Z1.000000
G00 X14.1600 Y17.0100 
G01 Z-1.800000
G01 Z1.000000
G00 X14.1600 Y19.3000 
G01 Z-1.800000
G01 Z1.000000
G00 X14.1600 Y21.5900 
G01 Z-1.800000
G01 Z1.000000
G00 X12.1600 Y22.7350 
G01 Z-1.800000
G01 Z1.000000
M05
G00 Z5.0000 
G00 X0.0000 Y0.0000 
M06 T03  ; 3.0500 
G00 Z1.0000 
M03
G04 P2.000000
G00 Z1.000000
G00 X12.1600 Y4.7700 
G01 Z-1.8000 F254.00 
G01 Z1.000000
(R1.0000  P1.000000)
G00 X12.1600 Y29.7600 
G01 Z-1.800000
G01 Z1.000000
T01 
G00 Z5.0000 
M05
M02
