(.../EAGLE-7.2.0/ulp/pcb-gcode/pcb-gcode.ulp)
(Copyright 2005 - 2012 by John Johnson)
(See readme.txt for licensing terms.)
(This file generated from the board:)
(.../EAGLE-7.2.0/projects/xc6lx9/xc6xl9.brd)
(Current profile is .../pcb-gcode/profiles/generic.pp  )
(This file generated 2020/06/29 10:17:15)
(Settings from pcb-machine.h)
(spindle on time = 2.0000)
(spindle speed = 1000.0000)
(tool change at 0.0000 0.0000 5.0000 )
(feed rate xy = F0.00  )
(feed rate z  = F254.00 )
(Z Axis Settings)
(  High     Up        Down     Drill)
(5.0000 	1.0000 	-0.0800 	-1.8000 )
(Settings from pcb-defaults.h)
(isolate min = 0.0000)
(isolate max = 0.1800)
(isolate step = 0.1800)
(Generated top outlines, top drill, )
(Unit of measure: mm)
( Tool|       Size       |  Min Sub |  Max Sub |   Count )
( T01  0.600mm 0.0236in 0.0000in 0.0000in )
( T02  1.000mm 0.0394in 0.0000in 0.0000in )
( T03  1.016mm 0.0400in 0.0000in 0.0000in )
(Metric Mode)
G21
(Absolute Coordinates)
G90
S1000
G00 Z5.0000 
G00 X0.0000 Y0.0000 
M03
G04 P2.000000
M05
M06 T01  ; 0.6000 
G00 Z1.0000 
M03
G04 P2.000000
G00 Z1.000000
G00 X-8.0962 Y-23.1775 
G01 Z-1.8000 F254.00 
G01 Z1.000000
(R1.0000  P1.000000)
G00 X-8.8900 Y-24.6062 
G01 Z-1.800000
G01 Z1.000000
G00 X-9.7631 Y-25.8175 
G01 Z-1.800000
G01 Z1.000000
G00 X-8.9500 Y-30.3500 
G01 Z-1.800000
G01 Z1.000000
G00 X-13.4899 Y-38.1000 
G01 Z-1.800000
G01 Z1.000000
G00 X-17.2136 Y-38.1000 
G01 Z-1.800000
G01 Z1.000000
G00 X-17.7800 Y-36.8300 
G01 Z-1.800000
G01 Z1.000000
G00 X-22.2750 Y-36.8800 
G01 Z-1.800000
G01 Z1.000000
G00 X-22.3044 Y-38.1000 
G01 Z-1.800000
G01 Z1.000000
G00 X-30.3800 Y-36.9888 
G01 Z-1.800000
G01 Z1.000000
G00 X-38.3350 Y-32.1469 
G01 Z-1.800000
G01 Z1.000000
G00 X-38.3350 Y-28.2050 
G01 Z-1.800000
G01 Z1.000000
G00 X-36.6213 Y-28.5162 
G01 Z-1.800000
G01 Z1.000000
G00 X-34.9250 Y-24.9413 
G01 Z-1.800000
G01 Z1.000000
G00 X-36.6962 Y-24.2913 
G01 Z-1.800000
G01 Z1.000000
G00 X-40.6400 Y-13.9700 
G01 Z-1.800000
G01 Z1.000000
G00 X-40.3225 Y-2.6194 
G01 Z-1.800000
G01 Z1.000000
G00 X-29.5275 Y-10.3187 
G01 Z-1.800000
G01 Z1.000000
G00 X-21.9869 Y-10.1600 
G01 Z-1.800000
G01 Z1.000000
G00 X-20.7138 Y-11.3506 
G01 Z-1.800000
G01 Z1.000000
G00 X-15.1019 Y-11.3800 
G01 Z-1.800000
G01 Z1.000000
G00 X-8.8900 Y-18.2150 
G01 Z-1.800000
G01 Z1.000000
G00 X-8.8900 Y-20.7963 
G01 Z-1.800000
G01 Z1.000000
G00 X-8.4138 Y-41.8141 
G01 Z-1.800000
G01 Z1.000000
G00 X-53.8982 Y-34.4771 
G01 Z-1.800000
G01 Z1.000000
G00 X-53.9750 Y-32.0675 
G01 Z-1.800000
G01 Z1.000000
G00 X-53.9750 Y-27.3844 
G01 Z-1.800000
G01 Z1.000000
M05
M02
