(.../EAGLE-7.2.0/ulp/pcb-gcode/pcb-gcode.ulp)
(Copyright 2005 - 2012 by John Johnson)
(See readme.txt for licensing terms.)
(This file generated from the board:)
(.../EAGLE-7.2.0/projects/xc6lx9/xc6xl9.brd)
(Current profile is .../pcb-gcode/profiles/generic.pp  )
(This file generated 2020/06/29 10:17:15)
(Settings from pcb-machine.h)
(spindle on time = 2.0000)
(spindle speed = 1000.0000)
(tool change at 0.0000 0.0000 5.0000 )
(feed rate xy = F0.00  )
(feed rate z  = F254.00 )
(Z Axis Settings)
(  High     Up        Down     Drill)
(5.0000 	1.0000 	-0.0800 	-1.8000 )
(Settings from pcb-defaults.h)
(isolate min = 0.0000)
(isolate max = 0.1800)
(isolate step = 0.1800)
(Generated top outlines, top drill, )
(Unit of measure: mm)
( Tool|       Size       |  Min Sub |  Max Sub |   Count )
( T01  0.600mm 0.0236in 0.0000in 0.0000in )
( T02  1.000mm 0.0394in 0.0000in 0.0000in )
( T03  1.016mm 0.0400in 0.0000in 0.0000in )
(Metric Mode)
G21
(Absolute Coordinates)
G90
S1000
G00 Z5.0000 
G00 X0.0000 Y0.0000 
M03
G04 P2.000000
M05
G00 Z5.0000 
G00 X0.0000 Y0.0000 
M06 T02  ; 1.0000 
G00 Z1.0000 
M03
G04 P2.000000
G00 Z1.000000
G00 X-11.4300 Y-13.3350 
G01 Z-1.8000 F254.00 
G01 Z1.000000
(R1.0000  P1.000000)
G00 X-33.0200 Y-34.9250 
G01 Z-1.800000
G01 Z1.000000
M05
G00 Z5.0000 
G00 X0.0000 Y0.0000 
M06 T03  ; 1.0160 
G00 Z1.0000 
M03
G04 P2.000000
G00 Z1.000000
G00 X-3.7600 Y-31.7500 
G01 Z-1.8000 F254.00 
G01 Z1.000000
(R1.0000  P1.000000)
G00 X-3.7600 Y-34.2900 
G01 Z-1.800000
G01 Z1.000000
G00 X-3.7600 Y-36.8300 
G01 Z-1.800000
G01 Z1.000000
G00 X-3.7600 Y-39.3700 
G01 Z-1.800000
G01 Z1.000000
G00 X-3.7600 Y-41.9100 
G01 Z-1.800000
G01 Z1.000000
G00 X-6.3000 Y-41.9100 
G01 Z-1.800000
G01 Z1.000000
G00 X-6.3000 Y-39.3700 
G01 Z-1.800000
G01 Z1.000000
G00 X-6.3000 Y-36.8300 
G01 Z-1.800000
G01 Z1.000000
G00 X-6.3000 Y-34.2900 
G01 Z-1.800000
G01 Z1.000000
G00 X-6.3000 Y-31.7500 
G01 Z-1.800000
G01 Z1.000000
G00 X-6.3000 Y-44.4500 
G01 Z-1.800000
G01 Z1.000000
G00 X-3.7600 Y-44.4500 
G01 Z-1.800000
G01 Z1.000000
G00 X-3.8100 Y-15.2400 
G01 Z-1.800000
G01 Z1.000000
G00 X-6.3500 Y-15.2400 
G01 Z-1.800000
G01 Z1.000000
G00 X-6.3500 Y-12.7000 
G01 Z-1.800000
G01 Z1.000000
G00 X-6.3500 Y-10.1600 
G01 Z-1.800000
G01 Z1.000000
G00 X-3.8100 Y-10.1600 
G01 Z-1.800000
G01 Z1.000000
G00 X-3.8100 Y-12.7000 
G01 Z-1.800000
G01 Z1.000000
G00 X-3.8100 Y-7.6200 
G01 Z-1.800000
G01 Z1.000000
G00 X-6.3500 Y-7.6200 
G01 Z-1.800000
G01 Z1.000000
G00 X-6.3500 Y-5.0800 
G01 Z-1.800000
G01 Z1.000000
G00 X-3.8100 Y-5.0800 
G01 Z-1.800000
G01 Z1.000000
G00 X-3.8100 Y-2.5400 
G01 Z-1.800000
G01 Z1.000000
G00 X-6.3500 Y-2.5400 
G01 Z-1.800000
G01 Z1.000000
G00 X-42.0370 Y-3.5560 
G01 Z-1.800000
G01 Z1.000000
G00 X-44.5770 Y-3.5560 
G01 Z-1.800000
G01 Z1.000000
G00 X-47.1170 Y-3.5560 
G01 Z-1.800000
G01 Z1.000000
G00 X-49.6570 Y-3.5560 
G01 Z-1.800000
G01 Z1.000000
G00 X-49.6570 Y-6.0960 
G01 Z-1.800000
G01 Z1.000000
G00 X-47.1170 Y-6.0960 
G01 Z-1.800000
G01 Z1.000000
G00 X-44.5770 Y-6.0960 
G01 Z-1.800000
G01 Z1.000000
G00 X-42.0370 Y-6.0960 
G01 Z-1.800000
G01 Z1.000000
G00 X-52.1970 Y-6.0960 
G01 Z-1.800000
G01 Z1.000000
G00 X-52.1970 Y-3.5560 
G01 Z-1.800000
G01 Z1.000000
T01 
G00 Z5.0000 
M05
M02
