(.../EAGLE-7.2.0/ulp/pcb-gcode/pcb-gcode.ulp)
(Copyright 2005 - 2012 by John Johnson)
(See readme.txt for licensing terms.)
(This file generated from the board:)
(.../EAGLE-7.2.0/projects/max1k/max1k.brd)
(Current profile is .../pcb-gcode/profiles/generic.pp  )
(This file generated 2020/06/08 18:41:52)
(Settings from pcb-machine.h)
(spindle on time = 2.0000)
(spindle speed = 1000.0000)
(tool change at 0.0000 0.0000 5.0000 )
(feed rate xy = F0.00  )
(feed rate z  = F254.00 )
(Z Axis Settings)
(  High     Up        Down     Drill)
(5.0000 	1.0000 	-0.0800 	-1.8000 )
(Settings from pcb-defaults.h)
(isolate min = 0.0000)
(isolate max = 0.1500)
(isolate step = 0.1500)
(Generated top outlines, top drill, )
(Unit of measure: mm)
( Tool|       Size       |  Min Sub |  Max Sub |   Count )
( T01  0.900mm 0.0354in 0.0000in 0.0000in )
( T02  1.016mm 0.0400in 0.0000in 0.0000in )
( T03  1.190mm 0.0469in 0.0000in 0.0000in )
( T04  2.309mm 0.0909in 0.0000in 0.0000in )
( T05  3.050mm 0.1201in 0.0000in 0.0000in )
(Metric Mode)
G21
(Absolute Coordinates)
G90
S1000
G00 Z5.0000 
G00 X0.0000 Y0.0000 
M03
G04 P2.000000
M05
M06 T01  ; 0.9000 
G00 Z1.0000 
M03
G04 P2.000000
G00 Z1.000000
G00 X-10.9200 Y-50.8000 
G01 Z-1.8000 F254.00 
G01 Z1.000000
(R1.0000  P1.000000)
G00 X-18.9200 Y-50.8000 
G01 Z-1.800000
G01 Z1.000000
G00 X-32.6800 Y-46.5800 
G01 Z-1.800000
G01 Z1.000000
G00 X-35.1800 Y-46.5800 
G01 Z-1.800000
G01 Z1.000000
G00 X-35.1800 Y-44.4800 
G01 Z-1.800000
G01 Z1.000000
G00 X-35.1800 Y-41.8800 
G01 Z-1.800000
G01 Z1.000000
G00 X-35.1800 Y-39.7800 
G01 Z-1.800000
G01 Z1.000000
G00 X-32.6800 Y-39.7800 
G01 Z-1.800000
G01 Z1.000000
M05
G00 Z5.0000 
G00 X0.0000 Y0.0000 
M06 T02  ; 1.0160 
G00 Z1.0000 
M03
G04 P2.000000
G00 Z1.000000
G00 X-5.0800 Y-3.8100 
G01 Z-1.8000 F254.00 
G01 Z1.000000
(R1.0000  P1.000000)
G00 X-5.0800 Y-6.3500 
G01 Z-1.800000
G01 Z1.000000
G00 X-5.0800 Y-8.8900 
G01 Z-1.800000
G01 Z1.000000
G00 X-5.0800 Y-11.4300 
G01 Z-1.800000
G01 Z1.000000
G00 X-5.0800 Y-13.9700 
G01 Z-1.800000
G01 Z1.000000
G00 X-5.0800 Y-16.5100 
G01 Z-1.800000
G01 Z1.000000
G00 X-5.0800 Y-19.0500 
G01 Z-1.800000
G01 Z1.000000
G00 X-5.0800 Y-21.5900 
G01 Z-1.800000
G01 Z1.000000
G00 X-5.0800 Y-24.1300 
G01 Z-1.800000
G01 Z1.000000
G00 X-5.0800 Y-26.6700 
G01 Z-1.800000
G01 Z1.000000
G00 X-5.0800 Y-29.2100 
G01 Z-1.800000
G01 Z1.000000
G00 X-5.0800 Y-31.7500 
G01 Z-1.800000
G01 Z1.000000
G00 X-5.0800 Y-34.2900 
G01 Z-1.800000
G01 Z1.000000
G00 X-5.0800 Y-36.8300 
G01 Z-1.800000
G01 Z1.000000
G00 X-25.4000 Y-36.8300 
G01 Z-1.800000
G01 Z1.000000
G00 X-25.4000 Y-34.2900 
G01 Z-1.800000
G01 Z1.000000
G00 X-25.4000 Y-31.7500 
G01 Z-1.800000
G01 Z1.000000
G00 X-25.4000 Y-29.2100 
G01 Z-1.800000
G01 Z1.000000
G00 X-25.4000 Y-26.6700 
G01 Z-1.800000
G01 Z1.000000
G00 X-25.4000 Y-24.1300 
G01 Z-1.800000
G01 Z1.000000
G00 X-25.4000 Y-21.5900 
G01 Z-1.800000
G01 Z1.000000
G00 X-25.4000 Y-19.0500 
G01 Z-1.800000
G01 Z1.000000
G00 X-25.4000 Y-16.5100 
G01 Z-1.800000
G01 Z1.000000
G00 X-25.4000 Y-13.9700 
G01 Z-1.800000
G01 Z1.000000
G00 X-25.4000 Y-11.4300 
G01 Z-1.800000
G01 Z1.000000
G00 X-25.4000 Y-8.8900 
G01 Z-1.800000
G01 Z1.000000
G00 X-25.4000 Y-6.3500 
G01 Z-1.800000
G01 Z1.000000
G00 X-25.4000 Y-3.8100 
G01 Z-1.800000
G01 Z1.000000
M05
G00 Z5.0000 
G00 X0.0000 Y0.0000 
M06 T03  ; 1.1900 
G00 Z1.0000 
M03
G04 P2.000000
G00 Z1.000000
G00 X-34.1000 Y-12.7000 
G01 Z-1.8000 F254.00 
G01 Z1.000000
(R1.0000  P1.000000)
G00 X-34.1000 Y-14.9900 
G01 Z-1.800000
G01 Z1.000000
G00 X-34.1000 Y-17.2800 
G01 Z-1.800000
G01 Z1.000000
G00 X-34.1000 Y-19.5700 
G01 Z-1.800000
G01 Z1.000000
G00 X-34.1000 Y-21.8600 
G01 Z-1.800000
G01 Z1.000000
G00 X-36.1000 Y-20.7150 
G01 Z-1.800000
G01 Z1.000000
G00 X-36.1000 Y-18.4250 
G01 Z-1.800000
G01 Z1.000000
G00 X-36.1000 Y-16.1350 
G01 Z-1.800000
G01 Z1.000000
G00 X-36.1000 Y-13.8450 
G01 Z-1.800000
G01 Z1.000000
G00 X-36.1000 Y-11.5550 
G01 Z-1.800000
G01 Z1.000000
G00 X-38.1000 Y-12.7000 
G01 Z-1.800000
G01 Z1.000000
G00 X-38.1000 Y-14.9900 
G01 Z-1.800000
G01 Z1.000000
G00 X-38.1000 Y-17.2800 
G01 Z-1.800000
G01 Z1.000000
G00 X-38.1000 Y-19.5700 
G01 Z-1.800000
G01 Z1.000000
G00 X-38.1000 Y-21.8600 
G01 Z-1.800000
G01 Z1.000000
M05
G00 Z5.0000 
G00 X0.0000 Y0.0000 
M06 T04  ; 2.3087 
G00 Z1.0000 
M03
G04 P2.000000
G00 Z1.000000
G00 X-38.1800 Y-36.4300 
G01 Z-1.8000 F254.00 
G01 Z1.000000
(R1.0000  P1.000000)
G00 X-38.9800 Y-43.1800 
G01 Z-1.800000
G01 Z1.000000
G00 X-38.1800 Y-49.9300 
G01 Z-1.800000
G01 Z1.000000
M05
G00 Z5.0000 
G00 X0.0000 Y0.0000 
M06 T05  ; 3.0500 
G00 Z1.0000 
M03
G04 P2.000000
G00 Z1.000000
G00 X-36.1000 Y-4.5300 
G01 Z-1.8000 F254.00 
G01 Z1.000000
(R1.0000  P1.000000)
G00 X-36.1000 Y-29.5200 
G01 Z-1.800000
G01 Z1.000000
T01 
G00 Z5.0000 
M05
M02
