(.../EAGLE-7.2.0/ulp/pcb-gcode/pcb-gcode.ulp)
(Copyright 2005 - 2012 by John Johnson)
(See readme.txt for licensing terms.)
(This file generated from the board:)
(.../EAGLE-7.2.0/projects/max1k/max1k.brd)
(Current profile is .../pcb-gcode/profiles/generic.pp  )
(This file generated 2020/06/08 18:41:51)
(Settings from pcb-machine.h)
(spindle on time = 2.0000)
(  Tool Size)
(0.1800 )
(spindle speed = 1000.0000)
(tool change at 0.0000 0.0000 5.0000 )
(feed rate xy = F100.00 )
(feed rate z  = F50.00 )
(Z Axis Settings)
(  High     Up        Down     Drill)
(5.0000 	1.0000 	-0.0800 	-1.8000 )
(Settings from pcb-defaults.h)
(isolate min = 0.0000)
(isolate max = 0.1500)
(isolate step = 0.1500)
(Generated top outlines, top drill, )
(Unit of measure: mm)
(Metric Mode)
G21
(Absolute Coordinates)
G90
S1000
G00 Z5.0000 
G00 X0.0000 Y0.0000 
M03
G04 P2.000000
G00 Z1.0000 
G00 X-3.3247 Y-1.1661 
G01 Z-0.0800 F50.00 
G01 X-3.3362 Y-1.1579 F100.00 
G01 X-3.3462 Y-1.1479 
G01 X-3.3675 Y-1.1356 
G01 X-3.3875 Y-1.1213 
G01 X-3.4008 Y-1.1164 
G01 X-3.4131 Y-1.1093 
G01 X-3.4368 Y-1.1029 
G01 X-3.4599 Y-1.0943 
G01 X-3.4740 Y-1.0930 
G01 X-3.4876 Y-1.0893 
G01 X-3.5122 Y-1.0893 
G01 X-3.5367 Y-1.0870 
G01 X-3.5507 Y-1.0893 
G01 X-6.8132 Y-1.0893 
G01 X-6.8285 Y-1.0869 
G01 X-6.8517 Y-1.0893 
G01 X-6.8749 Y-1.0893 
G01 X-6.8899 Y-1.0933 
G01 X-6.9053 Y-1.0950 
G01 X-6.9270 Y-1.1033 
G01 X-6.9494 Y-1.1093 
G01 X-6.9629 Y-1.1171 
G01 X-6.9774 Y-1.1226 
G01 X-6.9962 Y-1.1363 
G01 X-7.0163 Y-1.1479 
G01 X-7.0273 Y-1.1589 
G01 X-7.0398 Y-1.1680 
G01 X-7.0544 Y-1.1860 
G01 X-7.0709 Y-1.2025 
G01 X-7.0786 Y-1.2159 
G01 X-12.9786 Y-8.5040 
G01 X-12.9954 Y-8.5210 
G01 X-13.0028 Y-8.5339 
G01 X-13.0122 Y-8.5455 
G01 X-13.0219 Y-8.5673 
G01 X-13.0337 Y-8.5880 
G01 X-13.0375 Y-8.6024 
G01 X-13.0436 Y-8.6160 
G01 X-13.0473 Y-8.6396 
G01 X-13.0534 Y-8.6627 
G01 X-13.0533 Y-8.6776 
G01 X-13.0556 Y-8.6923 
G01 X-13.0531 Y-8.7160 
G01 X-12.9537 Y-31.6766 
G01 X-18.4946 Y-37.2175 
G01 X-18.5332 Y-37.2843 
G01 X-18.5532 Y-37.3589 
G01 X-18.5532 Y-38.4600 
G01 X-18.7779 Y-38.4600 
G01 X-18.8110 Y-38.4737 
G01 X-18.8363 Y-38.4990 
G01 X-18.8500 Y-38.5321 
G01 X-18.8500 Y-40.9679 
G01 X-18.8363 Y-41.0010 
G01 X-18.8110 Y-41.0263 
G01 X-18.7779 Y-41.0400 
G01 X-17.8421 Y-41.0400 
G01 X-17.8090 Y-41.0263 
G01 X-17.7837 Y-41.0010 
G01 X-17.7700 Y-40.9679 
G01 X-17.7700 Y-38.5321 
G01 X-17.7837 Y-38.4990 
G01 X-17.8090 Y-38.4737 
G01 X-17.8421 Y-38.4600 
G01 X-17.9668 Y-38.4600 
G01 X-17.9668 Y-37.5189 
G01 X-12.4795 Y-32.0317 
G01 X-12.4523 Y-32.0045 
G01 X-12.4254 Y-31.9775 
G01 X-12.4058 Y-31.9435 
G01 X-12.3868 Y-31.9107 
G01 X-12.3766 Y-31.8726 
G01 X-12.3668 Y-31.8361 
G01 X-12.3668 Y-31.7966 
G01 X-12.3668 Y-31.7589 
G01 X-12.4664 Y-8.8032 
G01 X-6.6964 Y-1.6757 
G01 X-3.6644 Y-1.6757 
G01 X-2.7107 Y-2.8316 
G01 X-2.7107 Y-9.1199 
G01 X-3.8979 Y-10.2623 
G01 X-3.9178 Y-10.2424 
G01 X-3.9508 Y-10.2287 
G01 X-6.2092 Y-10.2287 
G01 X-6.2422 Y-10.2424 
G01 X-6.2675 Y-10.2678 
G01 X-6.2812 Y-10.3008 
G01 X-6.2812 Y-12.5592 
G01 X-6.2675 Y-12.5922 
G01 X-6.2422 Y-12.6175 
G01 X-6.2092 Y-12.6312 
G01 X-3.9508 Y-12.6312 
G01 X-3.9178 Y-12.6175 
G01 X-3.8925 Y-12.5922 
G01 X-3.8788 Y-12.5592 
G01 X-3.8788 Y-11.6227 
G01 X-2.0260 Y-9.8371 
G01 X-1.9585 Y-9.7251 
G01 X-1.9224 Y-9.5995 
G01 X-1.9200 Y-9.4688 
G01 X-1.9515 Y-9.3420 
G01 X-2.0147 Y-9.2276 
G01 X-2.1054 Y-9.1335 
G01 X-2.1243 Y-9.1221 
G01 X-2.1243 Y-2.7403 
G01 X-2.1220 Y-2.7158 
G01 X-2.1243 Y-2.7018 
G01 X-2.1243 Y-2.6876 
G01 X-2.1307 Y-2.6639 
G01 X-2.1347 Y-2.6397 
G01 X-2.1406 Y-2.6268 
G01 X-2.1443 Y-2.6131 
G01 X-2.1566 Y-2.5918 
G01 X-2.1668 Y-2.5694 
G01 X-2.1758 Y-2.5585 
G01 X-2.1829 Y-2.5462 
G01 X-2.2003 Y-2.5288 
G01 X-3.2845 Y-1.2147 
G01 X-3.2916 Y-1.2025 
G01 X-3.3090 Y-1.1851 
G01 X-3.3247 Y-1.1661 
G00 Z1.0000 
G00 X-3.6172 Y-1.8832 
G01 Z-0.0800 F50.00 
G01 X-3.6241 Y-1.8787 F100.00 
G01 X-3.6563 Y-1.8577 
G01 X-3.6818 Y-1.8410 
G01 X-3.6968 Y-1.8343 
G01 X-3.7262 Y-1.8264 
G01 X-3.7552 Y-1.8169 
G01 X-3.7714 Y-1.8143 
G01 X-3.8019 Y-1.8143 
G01 X-3.8323 Y-1.8126 
G01 X-6.3933 Y-1.8143 
G01 X-6.4137 Y-1.8118 
G01 X-6.4317 Y-1.8143 
G01 X-6.4498 Y-1.8143 
G01 X-6.4698 Y-1.8196 
G01 X-6.4902 Y-1.8225 
G01 X-6.5069 Y-1.8296 
G01 X-6.5244 Y-1.8343 
G01 X-6.5423 Y-1.8446 
G01 X-6.5612 Y-1.8526 
G01 X-6.5755 Y-1.8638 
G01 X-6.5913 Y-1.8729 
G01 X-6.6059 Y-1.8875 
G01 X-6.6221 Y-1.9001 
G01 X-6.6330 Y-1.9146 
G01 X-6.6459 Y-1.9275 
G01 X-6.6562 Y-1.9453 
G01 X-11.7555 Y-8.7071 
G01 X-11.7684 Y-8.7200 
G01 X-11.7787 Y-8.7378 
G01 X-11.7911 Y-8.7543 
G01 X-11.7979 Y-8.7711 
G01 X-11.8070 Y-8.7868 
G01 X-11.8123 Y-8.8067 
G01 X-11.8200 Y-8.8258 
G01 X-11.8222 Y-8.8439 
G01 X-11.8269 Y-8.8614 
G01 X-11.8269 Y-8.8820 
G01 X-11.8295 Y-8.9025 
G01 X-11.8269 Y-8.9204 
G01 X-11.8269 Y-33.3538 
G01 X-16.1828 Y-37.2462 
G01 X-16.2115 Y-37.2719 
G01 X-16.2341 Y-37.2921 
G01 X-16.2446 Y-37.3050 
G01 X-16.2598 Y-37.3313 
G01 X-16.2764 Y-37.3567 
G01 X-16.2832 Y-37.3718 
G01 X-16.2911 Y-37.4012 
G01 X-16.3006 Y-37.4300 
G01 X-16.3032 Y-37.4464 
G01 X-16.3032 Y-37.4768 
G01 X-16.3049 Y-37.5071 
G01 X-16.3032 Y-38.4600 
G01 X-16.5779 Y-38.4600 
G01 X-16.6110 Y-38.4737 
G01 X-16.6363 Y-38.4990 
G01 X-16.6500 Y-38.5321 
G01 X-16.6500 Y-40.9679 
G01 X-16.6363 Y-41.0010 
G01 X-16.6110 Y-41.0263 
G01 X-16.5779 Y-41.0400 
G01 X-15.6421 Y-41.0400 
G01 X-15.6090 Y-41.0263 
G01 X-15.5837 Y-41.0010 
G01 X-15.5700 Y-40.9679 
G01 X-15.5700 Y-38.5321 
G01 X-15.5837 Y-38.4990 
G01 X-15.6090 Y-38.4737 
G01 X-15.6421 Y-38.4600 
G01 X-15.7168 Y-38.4600 
G01 X-15.7168 Y-37.6162 
G01 X-11.3609 Y-33.7238 
G01 X-11.3322 Y-33.6981 
G01 X-11.3096 Y-33.6779 
G01 X-11.2991 Y-33.6650 
G01 X-11.2840 Y-33.6387 
G01 X-11.2673 Y-33.6133 
G01 X-11.2605 Y-33.5982 
G01 X-11.2527 Y-33.5688 
G01 X-11.2432 Y-33.5400 
G01 X-11.2406 Y-33.5236 
G01 X-11.2406 Y-33.4932 
G01 X-11.2388 Y-33.4629 
G01 X-11.2406 Y-8.9982 
G01 X-6.2651 Y-2.4007 
G01 X-3.9411 Y-2.4007 
G01 X-3.7532 Y-2.6108 
G01 X-3.7532 Y-7.7578 
G01 X-3.8788 Y-7.8640 
G01 X-3.8788 Y-7.7608 
G01 X-3.8925 Y-7.7278 
G01 X-3.9178 Y-7.7024 
G01 X-3.9508 Y-7.6887 
G01 X-6.2092 Y-7.6887 
G01 X-6.2422 Y-7.7024 
G01 X-6.2675 Y-7.7278 
G01 X-6.2812 Y-7.7608 
G01 X-6.2812 Y-10.0191 
G01 X-6.2675 Y-10.0522 
G01 X-6.2422 Y-10.0775 
G01 X-6.2092 Y-10.0912 
G01 X-3.9508 Y-10.0912 
G01 X-3.9178 Y-10.0775 
G01 X-3.8925 Y-10.0522 
G01 X-3.8788 Y-10.0191 
G01 X-3.8788 Y-9.1642 
G01 X-3.0896 Y-8.4968 
G01 X-3.0150 Y-8.3895 
G01 X-2.9708 Y-8.2665 
G01 X-2.9599 Y-8.1362 
G01 X-2.9831 Y-8.0076 
G01 X-3.0388 Y-7.8894 
G01 X-3.1232 Y-7.7896 
G01 X-3.1668 Y-7.7593 
G01 X-3.1668 Y-2.5069 
G01 X-3.1651 Y-2.4765 
G01 X-3.1668 Y-2.4601 
G01 X-3.1747 Y-2.4307 
G01 X-3.1809 Y-2.4009 
G01 X-3.1868 Y-2.3856 
G01 X-3.2020 Y-2.3592 
G01 X-3.2157 Y-2.3320 
G01 X-3.2254 Y-2.3187 
G01 X-3.2469 Y-2.2972 
G01 X-3.5712 Y-1.9346 
G01 X-3.5969 Y-1.9059 
G01 X-3.6172 Y-1.8832 
G00 Z1.0000 
G00 X-3.8925 Y-2.6478 
G01 Z-0.0800 F50.00 
G01 X-3.9178 Y-2.6225 F100.00 
G01 X-3.9508 Y-2.6088 
G01 X-6.2092 Y-2.6088 
G01 X-6.2422 Y-2.6225 
G01 X-6.2675 Y-2.6478 
G01 X-6.2812 Y-2.6808 
G01 X-6.2812 Y-3.4424 
G01 X-6.3602 Y-3.4801 
G01 X-6.4596 Y-3.5650 
G01 X-10.7199 Y-9.7639 
G01 X-10.7635 Y-9.8872 
G01 X-10.7737 Y-10.0175 
G01 X-10.7499 Y-10.1460 
G01 X-10.6936 Y-10.2639 
G01 X-10.6088 Y-10.3633 
G01 X-10.5669 Y-10.3921 
G01 X-10.5669 Y-35.1926 
G01 X-12.9103 Y-36.6382 
G01 X-12.9400 Y-36.6554 
G01 X-12.9703 Y-36.6857 
G01 X-12.9946 Y-36.7100 
G01 X-13.0160 Y-36.7471 
G01 X-13.0332 Y-36.7768 
G01 X-13.0443 Y-36.8182 
G01 X-13.0532 Y-36.8514 
G01 X-13.0532 Y-36.8943 
G01 X-13.0532 Y-38.4600 
G01 X-13.2779 Y-38.4600 
G01 X-13.3110 Y-38.4737 
G01 X-13.3363 Y-38.4990 
G01 X-13.3500 Y-38.5321 
G01 X-13.3500 Y-40.9679 
G01 X-13.3363 Y-41.0010 
G01 X-13.3110 Y-41.0263 
G01 X-13.2779 Y-41.0400 
G01 X-12.3421 Y-41.0400 
G01 X-12.3090 Y-41.0263 
G01 X-12.2837 Y-41.0010 
G01 X-12.2700 Y-40.9679 
G01 X-12.2700 Y-38.5321 
G01 X-12.2837 Y-38.4990 
G01 X-12.3090 Y-38.4737 
G01 X-12.3421 Y-38.4600 
G01 X-12.4668 Y-38.4600 
G01 X-12.4668 Y-37.0536 
G01 X-10.1235 Y-35.6080 
G01 X-10.0937 Y-35.5909 
G01 X-10.0634 Y-35.5606 
G01 X-10.0391 Y-35.5363 
G01 X-10.0177 Y-35.4992 
G01 X-10.0005 Y-35.4694 
G01 X-9.9894 Y-35.4280 
G01 X-9.9805 Y-35.3948 
G01 X-9.9805 Y-35.3520 
G01 X-9.9805 Y-10.3936 
G01 X-9.9017 Y-10.3263 
G01 X-6.2401 Y-4.9984 
G01 X-6.2092 Y-5.0112 
G01 X-3.9508 Y-5.0112 
G01 X-3.9178 Y-4.9975 
G01 X-3.8925 Y-4.9722 
G01 X-3.8788 Y-4.9391 
G01 X-3.8788 Y-2.6808 
G01 X-3.8925 Y-2.6478 
G00 Z1.0000 
G00 X-3.8925 Y-5.1878 
G01 Z-0.0800 F50.00 
G01 X-3.9178 Y-5.1624 F100.00 
G01 X-3.9508 Y-5.1487 
G01 X-6.2092 Y-5.1487 
G01 X-6.2422 Y-5.1624 
G01 X-6.2675 Y-5.1878 
G01 X-6.2812 Y-5.2208 
G01 X-6.2812 Y-5.9404 
G01 X-6.3811 Y-5.9944 
G01 X-6.4761 Y-6.0842 
G01 X-9.3083 Y-10.6881 
G01 X-9.3456 Y-10.8133 
G01 X-9.3493 Y-10.9440 
G01 X-9.3190 Y-11.0711 
G01 X-9.2568 Y-11.1861 
G01 X-9.1670 Y-11.2811 
G01 X-9.1418 Y-11.2965 
G01 X-8.9860 Y-35.1815 
G01 X-10.9886 Y-41.2818 
G01 X-13.3818 Y-41.2818 
G01 X-13.4725 Y-41.0400 
G01 X-13.4421 Y-41.0400 
G01 X-13.4090 Y-41.0263 
G01 X-13.3837 Y-41.0010 
G01 X-13.3700 Y-40.9679 
G01 X-13.3700 Y-38.5321 
G01 X-13.3837 Y-38.4990 
G01 X-13.4090 Y-38.4737 
G01 X-13.4421 Y-38.4600 
G01 X-14.3779 Y-38.4600 
G01 X-14.4110 Y-38.4737 
G01 X-14.4363 Y-38.4990 
G01 X-14.4500 Y-38.5321 
G01 X-14.4500 Y-40.9679 
G01 X-14.4363 Y-41.0010 
G01 X-14.4110 Y-41.0263 
G01 X-14.3779 Y-41.0400 
G01 X-14.0988 Y-41.0400 
G01 X-13.8645 Y-41.6646 
G01 X-13.8582 Y-41.6882 
G01 X-13.8510 Y-41.7006 
G01 X-13.8460 Y-41.7141 
G01 X-13.8318 Y-41.7339 
G01 X-13.8196 Y-41.7550 
G01 X-13.8094 Y-41.7652 
G01 X-13.8011 Y-41.7769 
G01 X-13.7823 Y-41.7924 
G01 X-13.7650 Y-41.8096 
G01 X-13.7526 Y-41.8168 
G01 X-13.7415 Y-41.8259 
G01 X-13.7193 Y-41.8360 
G01 X-13.6982 Y-41.8482 
G01 X-13.6843 Y-41.8519 
G01 X-13.6712 Y-41.8579 
G01 X-13.6471 Y-41.8619 
G01 X-13.6236 Y-41.8682 
G01 X-13.6092 Y-41.8682 
G01 X-13.5950 Y-41.8706 
G01 X-13.5708 Y-41.8682 
G01 X-10.7844 Y-41.8682 
G01 X-10.7539 Y-41.8699 
G01 X-10.7376 Y-41.8682 
G01 X-10.7082 Y-41.8603 
G01 X-10.6784 Y-41.8541 
G01 X-10.6631 Y-41.8482 
G01 X-10.6367 Y-41.8330 
G01 X-10.6095 Y-41.8192 
G01 X-10.5962 Y-41.8096 
G01 X-10.5747 Y-41.7881 
G01 X-10.5520 Y-41.7677 
G01 X-10.5416 Y-41.7550 
G01 X-10.5264 Y-41.7286 
G01 X-10.5097 Y-41.7031 
G01 X-10.5030 Y-41.6882 
G01 X-10.4951 Y-41.6587 
G01 X-8.4231 Y-35.3469 
G01 X-8.4111 Y-35.3103 
G01 X-8.4019 Y-35.2823 
G01 X-8.3991 Y-35.2642 
G01 X-8.3992 Y-35.2346 
G01 X-8.3976 Y-35.2052 
G01 X-8.5554 Y-11.2959 
G01 X-8.4627 Y-11.2083 
G01 X-6.2122 Y-7.5500 
G01 X-3.9508 Y-7.5512 
G01 X-3.9178 Y-7.5375 
G01 X-3.8925 Y-7.5122 
G01 X-3.8788 Y-7.4791 
G01 X-3.8788 Y-5.2208 
G01 X-3.8925 Y-5.1878 
G00 Z1.0000 
G00 X-3.8925 Y-12.8078 
G01 Z-0.0800 F50.00 
G01 X-3.9178 Y-12.7825 F100.00 
G01 X-3.9508 Y-12.7688 
G01 X-6.2092 Y-12.7688 
G01 X-6.2422 Y-12.7825 
G01 X-6.2675 Y-12.8078 
G01 X-6.2812 Y-12.8408 
G01 X-6.2812 Y-15.0991 
G01 X-6.2675 Y-15.1322 
G01 X-6.2422 Y-15.1575 
G01 X-6.2092 Y-15.1712 
G01 X-3.9508 Y-15.1712 
G01 X-3.9178 Y-15.1575 
G01 X-3.8925 Y-15.1322 
G01 X-3.8788 Y-15.0991 
G01 X-3.8788 Y-12.8408 
G01 X-3.8925 Y-12.8078 
G00 Z1.0000 
G00 X-3.8925 Y-15.3478 
G01 Z-0.0800 F50.00 
G01 X-3.9178 Y-15.3224 F100.00 
G01 X-3.9508 Y-15.3087 
G01 X-6.2092 Y-15.3087 
G01 X-6.2422 Y-15.3224 
G01 X-6.2675 Y-15.3478 
G01 X-6.2812 Y-15.3808 
G01 X-6.2812 Y-17.6392 
G01 X-6.2675 Y-17.6722 
G01 X-6.2422 Y-17.6975 
G01 X-6.2092 Y-17.7112 
G01 X-3.9508 Y-17.7112 
G01 X-3.9178 Y-17.6975 
G01 X-3.8925 Y-17.6722 
G01 X-3.8788 Y-17.6392 
G01 X-3.8788 Y-15.3808 
G01 X-3.8925 Y-15.3478 
G00 Z1.0000 
G00 X-3.8925 Y-17.8878 
G01 Z-0.0800 F50.00 
G01 X-3.9178 Y-17.8624 F100.00 
G01 X-3.9508 Y-17.8487 
G01 X-6.2092 Y-17.8487 
G01 X-6.2422 Y-17.8624 
G01 X-6.2675 Y-17.8878 
G01 X-6.2812 Y-17.9208 
G01 X-6.2812 Y-20.1791 
G01 X-6.2675 Y-20.2122 
G01 X-6.2422 Y-20.2375 
G01 X-6.2092 Y-20.2512 
G01 X-3.9508 Y-20.2512 
G01 X-3.9178 Y-20.2375 
G01 X-3.8925 Y-20.2122 
G01 X-3.8788 Y-20.1791 
G01 X-3.8788 Y-17.9208 
G01 X-3.8925 Y-17.8878 
G00 Z1.0000 
G00 X-3.8925 Y-20.4278 
G01 Z-0.0800 F50.00 
G01 X-3.9178 Y-20.4025 F100.00 
G01 X-3.9508 Y-20.3888 
G01 X-6.2092 Y-20.3888 
G01 X-6.2422 Y-20.4025 
G01 X-6.2675 Y-20.4278 
G01 X-6.2812 Y-20.4608 
G01 X-6.2812 Y-22.7191 
G01 X-6.2675 Y-22.7522 
G01 X-6.2422 Y-22.7775 
G01 X-6.2092 Y-22.7912 
G01 X-3.9508 Y-22.7912 
G01 X-3.9178 Y-22.7775 
G01 X-3.8925 Y-22.7522 
G01 X-3.8788 Y-22.7191 
G01 X-3.8788 Y-20.4608 
G01 X-3.8925 Y-20.4278 
G00 Z1.0000 
G00 X-3.8925 Y-22.9678 
G01 Z-0.0800 F50.00 
G01 X-3.9178 Y-22.9425 F100.00 
G01 X-3.9508 Y-22.9288 
G01 X-6.2092 Y-22.9288 
G01 X-6.2422 Y-22.9425 
G01 X-6.2675 Y-22.9678 
G01 X-6.2812 Y-23.0008 
G01 X-6.2812 Y-25.2592 
G01 X-6.2675 Y-25.2922 
G01 X-6.2422 Y-25.3175 
G01 X-6.2092 Y-25.3312 
G01 X-3.9508 Y-25.3312 
G01 X-3.9178 Y-25.3175 
G01 X-3.8925 Y-25.2922 
G01 X-3.8788 Y-25.2592 
G01 X-3.8788 Y-23.0008 
G01 X-3.8925 Y-22.9678 
G00 Z1.0000 
G00 X-3.8925 Y-25.5078 
G01 Z-0.0800 F50.00 
G01 X-3.9178 Y-25.4825 F100.00 
G01 X-3.9508 Y-25.4688 
G01 X-6.2092 Y-25.4688 
G01 X-6.2422 Y-25.4825 
G01 X-6.2675 Y-25.5078 
G01 X-6.2812 Y-25.5408 
G01 X-6.2812 Y-27.7992 
G01 X-6.2675 Y-27.8322 
G01 X-6.2422 Y-27.8575 
G01 X-6.2092 Y-27.8712 
G01 X-3.9508 Y-27.8712 
G01 X-3.9178 Y-27.8575 
G01 X-3.8925 Y-27.8322 
G01 X-3.8788 Y-27.7992 
G01 X-3.8788 Y-25.5408 
G01 X-3.8925 Y-25.5078 
G00 Z1.0000 
G00 X-3.8925 Y-28.0478 
G01 Z-0.0800 F50.00 
G01 X-3.9178 Y-28.0224 F100.00 
G01 X-3.9508 Y-28.0087 
G01 X-6.2092 Y-28.0087 
G01 X-6.2422 Y-28.0224 
G01 X-6.2675 Y-28.0478 
G01 X-6.2812 Y-28.0808 
G01 X-6.2812 Y-30.3392 
G01 X-6.2675 Y-30.3722 
G01 X-6.2422 Y-30.3975 
G01 X-6.2092 Y-30.4112 
G01 X-3.9508 Y-30.4112 
G01 X-3.9178 Y-30.3975 
G01 X-3.8925 Y-30.3722 
G01 X-3.8788 Y-30.3392 
G01 X-3.8788 Y-29.7064 
G01 X-3.5198 Y-29.7064 
G01 X-3.5198 Y-44.8431 
G01 X-5.3365 Y-45.8015 
G01 X-26.3404 Y-45.8015 
G01 X-26.3802 Y-45.7990 
G01 X-26.3922 Y-45.8015 
G01 X-26.4045 Y-45.8015 
G01 X-26.4430 Y-45.8118 
G01 X-26.4820 Y-45.8197 
G01 X-26.4930 Y-45.8252 
G01 X-26.5049 Y-45.8284 
G01 X-26.5394 Y-45.8483 
G01 X-26.5751 Y-45.8661 
G01 X-26.5949 Y-45.8803 
G01 X-26.6231 Y-45.9085 
G01 X-26.6530 Y-45.9349 
G01 X-26.6597 Y-45.9452 
G01 X-26.6883 Y-45.9883 
G01 X-28.6288 Y-48.9185 
G01 X-35.1434 Y-48.9421 
G01 X-36.3352 Y-47.6311 
G01 X-36.3352 Y-44.7876 
G01 X-36.2850 Y-44.7876 
G01 X-36.2850 Y-45.4204 
G01 X-36.2713 Y-45.4535 
G01 X-36.2460 Y-45.4788 
G01 X-36.2129 Y-45.4925 
G01 X-34.2721 Y-45.4925 
G01 X-34.2390 Y-45.4788 
G01 X-34.2137 Y-45.4535 
G01 X-34.2000 Y-45.4204 
G01 X-34.2000 Y-44.7876 
G01 X-32.6371 Y-44.7876 
G01 X-32.5109 Y-44.7538 
G01 X-32.3977 Y-44.6885 
G01 X-19.8704 Y-44.5316 
G01 X-19.8186 Y-44.5310 
G01 X-19.7708 Y-44.5304 
G01 X-19.7167 Y-44.5152 
G01 X-19.6707 Y-44.5023 
G01 X-19.6224 Y-44.4736 
G01 X-19.5813 Y-44.4492 
G01 X-16.9568 Y-42.8136 
G01 X-16.9176 Y-42.7909 
G01 X-16.9072 Y-42.7826 
G01 X-16.8762 Y-42.7495 
G01 X-16.8441 Y-42.7174 
G01 X-16.8362 Y-42.7067 
G01 X-16.8148 Y-42.6667 
G01 X-16.7921 Y-42.6274 
G01 X-16.7872 Y-42.6150 
G01 X-16.7769 Y-42.5708 
G01 X-16.7652 Y-42.5270 
G01 X-16.7637 Y-42.5138 
G01 X-16.7652 Y-42.4684 
G01 X-16.7652 Y-41.6182 
G01 X-16.7652 Y-41.5664 
G01 X-16.7652 Y-41.5230 
G01 X-16.7882 Y-41.0400 
G01 X-16.7421 Y-41.0400 
G01 X-16.7090 Y-41.0263 
G01 X-16.6837 Y-41.0010 
G01 X-16.6700 Y-40.9679 
G01 X-16.6700 Y-38.5321 
G01 X-16.6837 Y-38.4990 
G01 X-16.7090 Y-38.4737 
G01 X-16.7421 Y-38.4600 
G01 X-17.6779 Y-38.4600 
G01 X-17.7110 Y-38.4737 
G01 X-17.7363 Y-38.4990 
G01 X-17.7500 Y-38.5321 
G01 X-17.7500 Y-40.9679 
G01 X-17.7363 Y-41.0010 
G01 X-17.7110 Y-41.0263 
G01 X-17.6779 Y-41.0400 
G01 X-17.5785 Y-41.0400 
G01 X-17.5548 Y-41.5836 
G01 X-17.5548 Y-42.2558 
G01 X-19.9426 Y-43.7428 
G01 X-32.3999 Y-43.8928 
G01 X-32.5109 Y-43.8287 
G01 X-32.6371 Y-43.7948 
G01 X-34.2000 Y-43.7948 
G01 X-34.2000 Y-43.4796 
G01 X-34.2137 Y-43.4465 
G01 X-34.2390 Y-43.4212 
G01 X-34.2721 Y-43.4075 
G01 X-36.2129 Y-43.4075 
G01 X-36.2460 Y-43.4212 
G01 X-36.2713 Y-43.4465 
G01 X-36.2850 Y-43.4796 
G01 X-36.2850 Y-43.7948 
G01 X-36.3352 Y-43.7948 
G01 X-36.3352 Y-40.7695 
G01 X-36.2369 Y-40.7200 
G01 X-36.2129 Y-40.7300 
G01 X-34.2721 Y-40.7300 
G01 X-34.2390 Y-40.7163 
G01 X-34.2137 Y-40.6910 
G01 X-34.2000 Y-40.6579 
G01 X-34.2000 Y-38.7171 
G01 X-34.2137 Y-38.6840 
G01 X-34.2390 Y-38.6587 
G01 X-34.2721 Y-38.6450 
G01 X-34.6165 Y-38.6450 
G01 X-34.5893 Y-37.3995 
G01 X-31.1929 Y-34.4461 
G01 X-31.1710 Y-34.4316 
G01 X-31.1538 Y-34.4121 
G01 X-31.1342 Y-34.3951 
G01 X-31.1196 Y-34.3733 
G01 X-31.1022 Y-34.3537 
G01 X-31.0906 Y-34.3304 
G01 X-31.0761 Y-34.3089 
G01 X-31.0676 Y-34.2841 
G01 X-31.0559 Y-34.2606 
G01 X-31.0507 Y-34.2351 
G01 X-31.0423 Y-34.2106 
G01 X-31.0404 Y-34.1844 
G01 X-30.4605 Y-31.3229 
G01 X-30.4502 Y-31.2845 
G01 X-30.4502 Y-31.2721 
G01 X-30.4477 Y-31.2600 
G01 X-30.4502 Y-31.2203 
G01 X-30.4502 Y-24.2205 
G01 X-30.4771 Y-24.1201 
G01 X-30.5291 Y-24.0301 
G01 X-30.6026 Y-23.9566 
G01 X-31.1798 Y-23.3794 
G01 X-31.2034 Y-23.3517 
G01 X-31.2164 Y-23.3428 
G01 X-31.2276 Y-23.3316 
G01 X-31.2591 Y-23.3134 
G01 X-33.1312 Y-22.0254 
G01 X-33.1175 Y-21.9568 
G01 X-33.1175 Y-21.7632 
G01 X-33.1553 Y-21.5734 
G01 X-33.2293 Y-21.3946 
G01 X-33.3368 Y-21.2337 
G01 X-33.4737 Y-21.0968 
G01 X-33.6346 Y-20.9893 
G01 X-33.8134 Y-20.9153 
G01 X-34.0032 Y-20.8775 
G01 X-34.1968 Y-20.8775 
G01 X-34.3866 Y-20.9153 
G01 X-34.4218 Y-20.9298 
G01 X-35.6002 Y-19.7514 
G01 X-35.6152 Y-19.7352 
G01 X-35.6152 Y-19.2827 
G01 X-35.4737 Y-19.1882 
G01 X-35.3368 Y-19.0513 
G01 X-35.2293 Y-18.8904 
G01 X-35.1553 Y-18.7116 
G01 X-35.1175 Y-18.5218 
G01 X-35.1175 Y-18.3282 
G01 X-35.1553 Y-18.1384 
G01 X-35.2293 Y-17.9596 
G01 X-35.3368 Y-17.7987 
G01 X-35.4737 Y-17.6618 
G01 X-35.6346 Y-17.5543 
G01 X-35.7402 Y-17.5106 
G01 X-35.7402 Y-17.0494 
G01 X-35.6346 Y-17.0057 
G01 X-35.4737 Y-16.8982 
G01 X-35.3368 Y-16.7613 
G01 X-35.2293 Y-16.6004 
G01 X-35.1553 Y-16.4216 
G01 X-35.1175 Y-16.2318 
G01 X-35.1175 Y-16.0382 
G01 X-35.1553 Y-15.8484 
G01 X-35.2293 Y-15.6696 
G01 X-35.3368 Y-15.5087 
G01 X-35.4737 Y-15.3718 
G01 X-35.6152 Y-15.2773 
G01 X-35.6152 Y-14.7027 
G01 X-35.4737 Y-14.6082 
G01 X-35.3368 Y-14.4713 
G01 X-35.2293 Y-14.3104 
G01 X-35.1553 Y-14.1316 
G01 X-35.1175 Y-13.9418 
G01 X-35.1175 Y-13.7482 
G01 X-35.1553 Y-13.5584 
G01 X-35.2293 Y-13.3796 
G01 X-35.3368 Y-13.2187 
G01 X-35.4737 Y-13.0818 
G01 X-35.6152 Y-12.9873 
G01 X-35.6152 Y-12.4127 
G01 X-35.4737 Y-12.3182 
G01 X-35.3368 Y-12.1813 
G01 X-35.2293 Y-12.0204 
G01 X-35.1553 Y-11.8416 
G01 X-35.1175 Y-11.6518 
G01 X-35.1175 Y-11.4582 
G01 X-35.1553 Y-11.2684 
G01 X-35.2293 Y-11.0896 
G01 X-35.3368 Y-10.9287 
G01 X-35.4737 Y-10.7918 
G01 X-35.6346 Y-10.6843 
G01 X-35.8134 Y-10.6103 
G01 X-36.0032 Y-10.5725 
G01 X-36.1968 Y-10.5725 
G01 X-36.3866 Y-10.6103 
G01 X-36.5654 Y-10.6843 
G01 X-36.7263 Y-10.7918 
G01 X-36.8632 Y-10.9287 
G01 X-36.9707 Y-11.0896 
G01 X-37.0447 Y-11.2684 
G01 X-37.0825 Y-11.4582 
G01 X-37.0825 Y-11.6518 
G01 X-37.0447 Y-11.8416 
G01 X-36.9707 Y-12.0204 
G01 X-36.8632 Y-12.1813 
G01 X-36.7263 Y-12.3182 
G01 X-36.5654 Y-12.4257 
G01 X-36.4048 Y-12.4922 
G01 X-36.4048 Y-12.9078 
G01 X-36.5654 Y-12.9743 
G01 X-36.7263 Y-13.0818 
G01 X-36.8632 Y-13.2187 
G01 X-36.9707 Y-13.3796 
G01 X-37.0447 Y-13.5584 
G01 X-37.0825 Y-13.7482 
G01 X-37.0825 Y-13.9418 
G01 X-37.0447 Y-14.1316 
G01 X-36.9707 Y-14.3104 
G01 X-36.8632 Y-14.4713 
G01 X-36.7263 Y-14.6082 
G01 X-36.5654 Y-14.7157 
G01 X-36.4048 Y-14.7822 
G01 X-36.4048 Y-15.1978 
G01 X-36.5654 Y-15.2643 
G01 X-36.7263 Y-15.3718 
G01 X-36.8632 Y-15.5087 
G01 X-36.9707 Y-15.6696 
G01 X-37.0447 Y-15.8484 
G01 X-37.0825 Y-16.0382 
G01 X-37.0825 Y-16.2318 
G01 X-37.0447 Y-16.4216 
G01 X-36.9707 Y-16.6004 
G01 X-36.8632 Y-16.7613 
G01 X-36.7263 Y-16.8982 
G01 X-36.5654 Y-17.0057 
G01 X-36.5298 Y-17.0204 
G01 X-36.5298 Y-17.5396 
G01 X-36.5654 Y-17.5543 
G01 X-36.7263 Y-17.6618 
G01 X-36.8632 Y-17.7987 
G01 X-36.9707 Y-17.9596 
G01 X-37.0447 Y-18.1384 
G01 X-37.0825 Y-18.3282 
G01 X-37.0825 Y-18.5218 
G01 X-37.0447 Y-18.7116 
G01 X-36.9707 Y-18.8904 
G01 X-36.8632 Y-19.0513 
G01 X-36.7263 Y-19.1882 
G01 X-36.5654 Y-19.2957 
G01 X-36.4048 Y-19.3622 
G01 X-36.4048 Y-19.7778 
G01 X-36.5654 Y-19.8443 
G01 X-36.7263 Y-19.9518 
G01 X-36.8632 Y-20.0887 
G01 X-36.9707 Y-20.2496 
G01 X-37.0447 Y-20.4284 
G01 X-37.0825 Y-20.6182 
G01 X-37.0825 Y-20.8118 
G01 X-37.0447 Y-21.0016 
G01 X-36.9707 Y-21.1804 
G01 X-36.8632 Y-21.3413 
G01 X-36.7263 Y-21.4782 
G01 X-36.5654 Y-21.5857 
G01 X-36.3866 Y-21.6597 
G01 X-36.1968 Y-21.6975 
G01 X-36.0032 Y-21.6975 
G01 X-35.8134 Y-21.6597 
G01 X-35.6346 Y-21.5857 
G01 X-35.4737 Y-21.4782 
G01 X-35.3368 Y-21.3413 
G01 X-35.2528 Y-21.2155 
G01 X-35.0009 Y-21.4675 
G01 X-35.0447 Y-21.5734 
G01 X-35.0825 Y-21.7632 
G01 X-35.0825 Y-21.9568 
G01 X-35.0447 Y-22.1466 
G01 X-34.9707 Y-22.3254 
G01 X-34.8632 Y-22.4863 
G01 X-34.7263 Y-22.6232 
G01 X-34.5654 Y-22.7307 
G01 X-34.3866 Y-22.8047 
G01 X-34.1968 Y-22.8425 
G01 X-34.0032 Y-22.8425 
G01 X-33.8134 Y-22.8047 
G01 X-33.6346 Y-22.7307 
G01 X-33.5659 Y-22.6848 
G01 X-31.7236 Y-23.9522 
G01 X-31.2398 Y-24.4360 
G01 X-31.2398 Y-31.1929 
G01 X-31.7928 Y-33.9214 
G01 X-35.1137 Y-36.8091 
G01 X-35.1382 Y-36.8085 
G01 X-35.2652 Y-36.8396 
G01 X-35.3798 Y-36.9025 
G01 X-35.4742 Y-36.9928 
G01 X-35.5420 Y-37.1046 
G01 X-35.5786 Y-37.2301 
G01 X-35.6095 Y-38.6450 
G01 X-36.2129 Y-38.6450 
G01 X-36.2460 Y-38.6587 
G01 X-36.2713 Y-38.6840 
G01 X-36.2850 Y-38.7171 
G01 X-36.2850 Y-40.0877 
G01 X-36.6257 Y-40.2592 
G01 X-36.6780 Y-40.2452 
G01 X-36.7820 Y-40.2452 
G01 X-36.8824 Y-40.2721 
G01 X-36.9724 Y-40.3241 
G01 X-37.0459 Y-40.3976 
G01 X-37.0979 Y-40.4876 
G01 X-37.1248 Y-40.5880 
G01 X-37.1248 Y-43.9840 
G01 X-37.1926 Y-44.0996 
G01 X-37.2264 Y-44.2259 
G01 X-37.2264 Y-44.3566 
G01 X-37.1926 Y-44.4829 
G01 X-37.1272 Y-44.5960 
G01 X-37.1248 Y-47.7744 
G01 X-37.1268 Y-47.8169 
G01 X-37.1248 Y-47.8357 
G01 X-37.1138 Y-47.8768 
G01 X-37.1047 Y-47.9185 
G01 X-37.0979 Y-47.9361 
G01 X-37.0766 Y-47.9730 
G01 X-37.0571 Y-48.0109 
G01 X-37.0459 Y-48.0262 
G01 X-37.0158 Y-48.0563 
G01 X-35.6377 Y-49.5722 
G01 X-35.6028 Y-49.6106 
G01 X-35.5747 Y-49.6415 
G01 X-35.5588 Y-49.6543 
G01 X-35.5224 Y-49.6751 
G01 X-35.4872 Y-49.6977 
G01 X-35.4686 Y-49.7059 
G01 X-35.4281 Y-49.7166 
G01 X-35.3882 Y-49.7294 
G01 X-35.3779 Y-49.7299 
G01 X-35.3262 Y-49.7323 
G01 X-35.2844 Y-49.7343 
G01 X-35.2743 Y-49.7321 
G01 X-28.4276 Y-49.7073 
G01 X-28.3886 Y-49.7097 
G01 X-28.3758 Y-49.7072 
G01 X-28.3628 Y-49.7071 
G01 X-28.3251 Y-49.6968 
G01 X-28.2867 Y-49.6890 
G01 X-28.2751 Y-49.6832 
G01 X-28.2625 Y-49.6798 
G01 X-28.2287 Y-49.6601 
G01 X-28.1937 Y-49.6427 
G01 X-28.1727 Y-49.6275 
G01 X-28.1451 Y-49.5998 
G01 X-28.1158 Y-49.5738 
G01 X-28.1086 Y-49.5630 
G01 X-28.0800 Y-49.5198 
G01 X-26.1404 Y-46.5910 
G01 X-5.2463 Y-46.5910 
G01 X-5.2019 Y-46.5927 
G01 X-5.1868 Y-46.5910 
G01 X-5.1439 Y-46.5796 
G01 X-5.1005 Y-46.5697 
G01 X-5.0864 Y-46.5641 
G01 X-5.0479 Y-46.5419 
G01 X-2.9800 Y-45.4511 
G01 X-2.9342 Y-45.4270 
G01 X-2.8948 Y-45.4062 
G01 X-2.8826 Y-45.3972 
G01 X-2.8512 Y-45.3657 
G01 X-2.8186 Y-45.3355 
G01 X-2.8091 Y-45.3237 
G01 X-2.7869 Y-45.2852 
G01 X-2.7632 Y-45.2476 
G01 X-2.7571 Y-45.2336 
G01 X-2.7456 Y-45.1908 
G01 X-2.7325 Y-45.1483 
G01 X-2.7302 Y-45.1332 
G01 X-2.7302 Y-45.0888 
G01 X-2.7285 Y-45.0444 
G01 X-2.7302 Y-29.5172 
G01 X-2.6624 Y-29.4016 
G01 X-2.6286 Y-29.2754 
G01 X-2.6286 Y-29.1446 
G01 X-2.6624 Y-29.0184 
G01 X-2.7278 Y-28.9052 
G01 X-2.8202 Y-28.8128 
G01 X-2.9334 Y-28.7474 
G01 X-3.0596 Y-28.7136 
G01 X-3.8788 Y-28.7136 
G01 X-3.8788 Y-28.0808 
G01 X-3.8925 Y-28.0478 
G00 Z1.0000 
G00 X-3.8925 Y-30.5878 
G01 Z-0.0800 F50.00 
G01 X-3.9178 Y-30.5624 F100.00 
G01 X-3.9508 Y-30.5487 
G01 X-6.2092 Y-30.5487 
G01 X-6.2422 Y-30.5624 
G01 X-6.2675 Y-30.5878 
G01 X-6.2812 Y-30.6208 
G01 X-6.2812 Y-31.2536 
G01 X-7.1254 Y-31.2536 
G01 X-7.2516 Y-31.2874 
G01 X-7.3648 Y-31.3528 
G01 X-7.4572 Y-31.4452 
G01 X-7.5226 Y-31.5584 
G01 X-7.5564 Y-31.6846 
G01 X-7.5564 Y-31.8154 
G01 X-7.5226 Y-31.9416 
G01 X-7.4572 Y-32.0548 
G01 X-7.4548 Y-35.4639 
G01 X-10.4906 Y-42.0891 
G01 X-12.1733 Y-42.1402 
G01 X-14.5652 Y-42.1531 
G01 X-14.5652 Y-41.0400 
G01 X-14.5421 Y-41.0400 
G01 X-14.5090 Y-41.0263 
G01 X-14.4837 Y-41.0010 
G01 X-14.4700 Y-40.9679 
G01 X-14.4700 Y-38.5321 
G01 X-14.4837 Y-38.4990 
G01 X-14.5090 Y-38.4737 
G01 X-14.5421 Y-38.4600 
G01 X-15.4779 Y-38.4600 
G01 X-15.5110 Y-38.4737 
G01 X-15.5363 Y-38.4990 
G01 X-15.5500 Y-38.5321 
G01 X-15.5500 Y-40.9679 
G01 X-15.5363 Y-41.0010 
G01 X-15.5110 Y-41.0263 
G01 X-15.4779 Y-41.0400 
G01 X-15.3548 Y-41.0400 
G01 X-15.3548 Y-42.3187 
G01 X-19.8632 Y-44.8465 
G01 X-26.9686 Y-44.8489 
G01 X-27.0014 Y-44.8458 
G01 X-27.0204 Y-44.8490 
G01 X-27.0396 Y-44.8490 
G01 X-27.0714 Y-44.8575 
G01 X-27.1039 Y-44.8629 
G01 X-27.1214 Y-44.8709 
G01 X-27.1400 Y-44.8759 
G01 X-27.1686 Y-44.8924 
G01 X-27.1985 Y-44.9061 
G01 X-27.2134 Y-44.9183 
G01 X-27.2300 Y-44.9279 
G01 X-27.2533 Y-44.9512 
G01 X-27.2787 Y-44.9722 
G01 X-27.2899 Y-44.9878 
G01 X-27.3035 Y-45.0014 
G01 X-27.3200 Y-45.0300 
G01 X-29.4134 Y-47.9652 
G01 X-33.7814 Y-47.9652 
G01 X-34.2000 Y-47.1999 
G01 X-34.2000 Y-45.7021 
G01 X-34.2137 Y-45.6690 
G01 X-34.2390 Y-45.6437 
G01 X-34.2721 Y-45.6300 
G01 X-36.2129 Y-45.6300 
G01 X-36.2460 Y-45.6437 
G01 X-36.2713 Y-45.6690 
G01 X-36.2850 Y-45.7021 
G01 X-36.2850 Y-47.6429 
G01 X-36.2713 Y-47.6760 
G01 X-36.2460 Y-47.7013 
G01 X-36.2129 Y-47.7150 
G01 X-35.0499 Y-47.7150 
G01 X-34.5354 Y-48.6556 
G01 X-34.4451 Y-48.7501 
G01 X-34.3335 Y-48.8180 
G01 X-34.2080 Y-48.8548 
G01 X-34.0774 Y-48.8578 
G01 X-33.9504 Y-48.8269 
G01 X-33.8357 Y-48.7641 
G01 X-29.2289 Y-48.7548 
G01 X-29.1961 Y-48.7580 
G01 X-29.1772 Y-48.7548 
G01 X-29.1580 Y-48.7548 
G01 X-29.1261 Y-48.7463 
G01 X-29.0936 Y-48.7408 
G01 X-29.0761 Y-48.7328 
G01 X-29.0576 Y-48.7279 
G01 X-29.0290 Y-48.7114 
G01 X-28.9990 Y-48.6977 
G01 X-28.9842 Y-48.6855 
G01 X-28.9676 Y-48.6759 
G01 X-28.9442 Y-48.6526 
G01 X-28.9188 Y-48.6316 
G01 X-28.9076 Y-48.6160 
G01 X-28.8941 Y-48.6024 
G01 X-28.8776 Y-48.5738 
G01 X-26.7841 Y-45.6385 
G01 X-19.7624 Y-45.6360 
G01 X-19.7130 Y-45.6367 
G01 X-19.6601 Y-45.6232 
G01 X-19.6123 Y-45.6110 
G01 X-19.5647 Y-45.5844 
G01 X-14.8559 Y-42.9442 
G01 X-12.2111 Y-42.9300 
G01 X-12.1592 Y-42.9298 
G01 X-12.1122 Y-42.9295 
G01 X-10.2610 Y-42.8721 
G01 X-10.2485 Y-42.8742 
G01 X-10.2092 Y-42.8705 
G01 X-10.1698 Y-42.8693 
G01 X-10.1576 Y-42.8656 
G01 X-10.1450 Y-42.8644 
G01 X-10.1080 Y-42.8507 
G01 X-10.0703 Y-42.8393 
G01 X-10.0595 Y-42.8327 
G01 X-10.0475 Y-42.8282 
G01 X-10.0154 Y-42.8054 
G01 X-9.9818 Y-42.7847 
G01 X-9.9628 Y-42.7680 
G01 X-9.9376 Y-42.7377 
G01 X-9.9106 Y-42.7090 
G01 X-9.9046 Y-42.6977 
G01 X-9.8801 Y-42.6521 
G01 X-9.8614 Y-42.6174 
G01 X-9.8585 Y-42.6050 
G01 X-6.7088 Y-35.7313 
G01 X-6.6921 Y-35.7024 
G01 X-6.6873 Y-35.6843 
G01 X-6.6794 Y-35.6672 
G01 X-6.6738 Y-35.6343 
G01 X-6.6652 Y-35.6020 
G01 X-6.6652 Y-35.5832 
G01 X-6.6621 Y-35.5647 
G01 X-6.6652 Y-35.5314 
G01 X-6.6652 Y-32.2464 
G01 X-6.2812 Y-32.2464 
G01 X-6.2812 Y-32.8792 
G01 X-6.2675 Y-32.9122 
G01 X-6.2422 Y-32.9375 
G01 X-6.2092 Y-32.9512 
G01 X-3.9508 Y-32.9512 
G01 X-3.9178 Y-32.9375 
G01 X-3.8925 Y-32.9122 
G01 X-3.8788 Y-32.8792 
G01 X-3.8788 Y-30.6208 
G01 X-3.8925 Y-30.5878 
G00 Z1.0000 
G00 X-3.8925 Y-33.1278 
G01 Z-0.0800 F50.00 
G01 X-3.9178 Y-33.1024 F100.00 
G01 X-3.9508 Y-33.0887 
G01 X-6.2092 Y-33.0887 
G01 X-6.2422 Y-33.1024 
G01 X-6.2675 Y-33.1278 
G01 X-6.2812 Y-33.1608 
G01 X-6.2812 Y-35.4192 
G01 X-6.2675 Y-35.4522 
G01 X-6.2422 Y-35.4775 
G01 X-6.2092 Y-35.4912 
G01 X-3.9508 Y-35.4912 
G01 X-3.9178 Y-35.4775 
G01 X-3.8925 Y-35.4522 
G01 X-3.8788 Y-35.4192 
G01 X-3.8788 Y-33.1608 
G01 X-3.8925 Y-33.1278 
G00 Z1.0000 
G00 X-3.8925 Y-35.6678 
G01 Z-0.0800 F50.00 
G01 X-3.9178 Y-35.6424 F100.00 
G01 X-3.9508 Y-35.6287 
G01 X-6.2092 Y-35.6287 
G01 X-6.2422 Y-35.6424 
G01 X-6.2675 Y-35.6678 
G01 X-6.2812 Y-35.7008 
G01 X-6.2812 Y-37.9592 
G01 X-6.2675 Y-37.9922 
G01 X-6.2422 Y-38.0175 
G01 X-6.2092 Y-38.0312 
G01 X-3.9508 Y-38.0312 
G01 X-3.9178 Y-38.0175 
G01 X-3.8925 Y-37.9922 
G01 X-3.8788 Y-37.9592 
G01 X-3.8788 Y-35.7008 
G01 X-3.8925 Y-35.6678 
G00 Z1.0000 
G00 X-6.2437 Y-40.0490 
G01 Z-0.0800 F50.00 
G01 X-6.2690 Y-40.0237 F100.00 
G01 X-6.3021 Y-40.0100 
G01 X-7.9379 Y-40.0100 
G01 X-7.9710 Y-40.0237 
G01 X-7.9963 Y-40.0490 
G01 X-8.0100 Y-40.0821 
G01 X-8.0100 Y-41.5179 
G01 X-7.9963 Y-41.5510 
G01 X-7.9710 Y-41.5763 
G01 X-7.9379 Y-41.5900 
G01 X-6.3021 Y-41.5900 
G01 X-6.2690 Y-41.5763 
G01 X-6.2437 Y-41.5510 
G01 X-6.2300 Y-41.5179 
G01 X-6.2300 Y-40.0821 
G01 X-6.2437 Y-40.0490 
G00 Z1.0000 
G00 X-11.1700 Y-40.9679 
G01 Z-0.0800 F50.00 
G01 X-11.1700 Y-38.5321 F100.00 
G01 X-11.1837 Y-38.4990 
G01 X-11.2090 Y-38.4737 
G01 X-11.2421 Y-38.4600 
G01 X-12.1779 Y-38.4600 
G01 X-12.2110 Y-38.4737 
G01 X-12.2363 Y-38.4990 
G01 X-12.2500 Y-38.5321 
G01 X-12.2500 Y-40.9679 
G01 X-12.2363 Y-41.0010 
G01 X-12.2110 Y-41.0263 
G01 X-12.1779 Y-41.0400 
G01 X-11.2421 Y-41.0400 
G01 X-11.2090 Y-41.0263 
G01 X-11.1837 Y-41.0010 
G01 X-11.1700 Y-40.9679 
G00 Z1.0000 
G00 X-18.8700 Y-40.9679 
G01 Z-0.0800 F50.00 
G01 X-18.8700 Y-38.5321 F100.00 
G01 X-18.8837 Y-38.4990 
G01 X-18.9090 Y-38.4737 
G01 X-18.9421 Y-38.4600 
G01 X-19.8779 Y-38.4600 
G01 X-19.9110 Y-38.4737 
G01 X-19.9363 Y-38.4990 
G01 X-19.9500 Y-38.5321 
G01 X-19.9500 Y-40.9679 
G01 X-19.9363 Y-41.0010 
G01 X-19.9110 Y-41.0263 
G01 X-19.8779 Y-41.0400 
G01 X-18.9421 Y-41.0400 
G01 X-18.9090 Y-41.0263 
G01 X-18.8837 Y-41.0010 
G01 X-18.8700 Y-40.9679 
G00 Z1.0000 
G00 X-19.9700 Y-40.9679 
G01 Z-0.0800 F50.00 
G01 X-19.9700 Y-38.5321 F100.00 
G01 X-19.9837 Y-38.4990 
G01 X-20.0090 Y-38.4737 
G01 X-20.0421 Y-38.4600 
G01 X-20.9779 Y-38.4600 
G01 X-21.0110 Y-38.4737 
G01 X-21.0363 Y-38.4990 
G01 X-21.0500 Y-38.5321 
G01 X-21.0500 Y-40.9679 
G01 X-21.0363 Y-41.0010 
G01 X-21.0110 Y-41.0263 
G01 X-20.9779 Y-41.0400 
G01 X-20.0421 Y-41.0400 
G01 X-20.0090 Y-41.0263 
G01 X-19.9837 Y-41.0010 
G01 X-19.9700 Y-40.9679 
G00 Z1.0000 
G00 X-21.0800 Y-41.5179 
G01 Z-0.0800 F50.00 
G01 X-21.0800 Y-40.0821 F100.00 
G01 X-21.0937 Y-40.0490 
G01 X-21.1190 Y-40.0237 
G01 X-21.1521 Y-40.0100 
G01 X-22.7879 Y-40.0100 
G01 X-22.8210 Y-40.0237 
G01 X-22.8463 Y-40.0490 
G01 X-22.8600 Y-40.0821 
G01 X-22.8600 Y-41.5179 
G01 X-22.8463 Y-41.5510 
G01 X-22.8210 Y-41.5763 
G01 X-22.7879 Y-41.5900 
G01 X-21.1521 Y-41.5900 
G01 X-21.1190 Y-41.5763 
G01 X-21.0937 Y-41.5510 
G01 X-21.0800 Y-41.5179 
G00 Z1.0000 
G00 X-24.2378 Y-38.0175 
G01 Z-0.0800 F50.00 
G01 X-24.2125 Y-37.9922 F100.00 
G01 X-24.1988 Y-37.9592 
G01 X-24.1988 Y-35.7008 
G01 X-24.2125 Y-35.6678 
G01 X-24.2378 Y-35.6424 
G01 X-24.2708 Y-35.6287 
G01 X-26.5292 Y-35.6287 
G01 X-26.5622 Y-35.6424 
G01 X-26.5875 Y-35.6678 
G01 X-26.6012 Y-35.7008 
G01 X-26.6012 Y-37.9592 
G01 X-26.5875 Y-37.9922 
G01 X-26.5622 Y-38.0175 
G01 X-26.5292 Y-38.0312 
G01 X-24.2708 Y-38.0312 
G01 X-24.2378 Y-38.0175 
G00 Z1.0000 
G00 X-24.2378 Y-35.4775 
G01 Z-0.0800 F50.00 
G01 X-24.2125 Y-35.4522 F100.00 
G01 X-24.1988 Y-35.4192 
G01 X-24.1988 Y-33.1608 
G01 X-24.2125 Y-33.1278 
G01 X-24.2378 Y-33.1024 
G01 X-24.2708 Y-33.0887 
G01 X-26.5292 Y-33.0887 
G01 X-26.5622 Y-33.1024 
G01 X-26.5875 Y-33.1278 
G01 X-26.6012 Y-33.1608 
G01 X-26.6012 Y-35.4192 
G01 X-26.5875 Y-35.4522 
G01 X-26.5622 Y-35.4775 
G01 X-26.5292 Y-35.4912 
G01 X-24.2708 Y-35.4912 
G01 X-24.2378 Y-35.4775 
G00 Z1.0000 
G00 X-24.2378 Y-32.9375 
G01 Z-0.0800 F50.00 
G01 X-24.2125 Y-32.9122 F100.00 
G01 X-24.1988 Y-32.8792 
G01 X-24.1988 Y-30.6208 
G01 X-24.2125 Y-30.5878 
G01 X-24.2378 Y-30.5624 
G01 X-24.2708 Y-30.5487 
G01 X-26.5292 Y-30.5487 
G01 X-26.5622 Y-30.5624 
G01 X-26.5875 Y-30.5878 
G01 X-26.6012 Y-30.6208 
G01 X-26.6012 Y-31.5833 
G01 X-27.5067 Y-31.8474 
G01 X-27.6185 Y-31.9152 
G01 X-27.7088 Y-32.0096 
G01 X-27.7717 Y-32.1242 
G01 X-27.8027 Y-32.2512 
G01 X-27.7998 Y-32.3819 
G01 X-27.7632 Y-32.5074 
G01 X-27.6954 Y-32.6191 
G01 X-27.6010 Y-32.7094 
G01 X-27.5982 Y-39.4073 
G01 X-29.4492 Y-41.2583 
G01 X-29.4621 Y-41.2548 
G01 X-34.2000 Y-41.2548 
G01 X-34.2000 Y-40.9396 
G01 X-34.2137 Y-40.9065 
G01 X-34.2390 Y-40.8812 
G01 X-34.2721 Y-40.8675 
G01 X-36.2129 Y-40.8675 
G01 X-36.2460 Y-40.8812 
G01 X-36.2713 Y-40.9065 
G01 X-36.2850 Y-40.9396 
G01 X-36.2850 Y-42.8804 
G01 X-36.2713 Y-42.9135 
G01 X-36.2460 Y-42.9388 
G01 X-36.2129 Y-42.9525 
G01 X-34.2721 Y-42.9525 
G01 X-34.2390 Y-42.9388 
G01 X-34.2137 Y-42.9135 
G01 X-34.2000 Y-42.8804 
G01 X-34.2000 Y-42.2476 
G01 X-29.4621 Y-42.2476 
G01 X-29.3359 Y-42.2138 
G01 X-29.2227 Y-42.1485 
G01 X-29.1303 Y-42.0560 
G01 X-29.0649 Y-41.9429 
G01 X-29.0311 Y-41.8166 
G01 X-29.0311 Y-41.6859 
G01 X-29.0346 Y-41.6730 
G01 X-27.1250 Y-39.7634 
G01 X-27.0704 Y-39.7088 
G01 X-27.0318 Y-39.6419 
G01 X-27.0118 Y-39.5673 
G01 X-27.0118 Y-32.7372 
G01 X-26.6012 Y-32.6174 
G01 X-26.6012 Y-32.8792 
G01 X-26.5875 Y-32.9122 
G01 X-26.5622 Y-32.9375 
G01 X-26.5292 Y-32.9512 
G01 X-24.2708 Y-32.9512 
G01 X-24.2378 Y-32.9375 
G00 Z1.0000 
G00 X-24.2378 Y-30.3182 
G01 Z-0.0800 F50.00 
G01 X-24.2125 Y-30.2929 F100.00 
G01 X-24.1988 Y-30.2598 
G01 X-24.1988 Y-28.3190 
G01 X-24.2125 Y-28.2859 
G01 X-24.2378 Y-28.2606 
G01 X-24.2708 Y-28.2469 
G01 X-25.2238 Y-28.2469 
G01 X-25.3036 Y-28.2310 
G01 X-25.4964 Y-28.2310 
G01 X-25.5762 Y-28.2469 
G01 X-26.5292 Y-28.2469 
G01 X-26.5622 Y-28.2606 
G01 X-26.5875 Y-28.2859 
G01 X-26.6012 Y-28.3190 
G01 X-26.6012 Y-28.7136 
G01 X-27.3704 Y-28.7136 
G01 X-27.4966 Y-28.7474 
G01 X-27.6098 Y-28.8128 
G01 X-27.7022 Y-28.9052 
G01 X-27.7676 Y-29.0184 
G01 X-27.8014 Y-29.1446 
G01 X-27.8014 Y-29.2754 
G01 X-27.7676 Y-29.4016 
G01 X-27.7509 Y-29.4304 
G01 X-30.3264 Y-34.3606 
G01 X-32.4958 Y-36.8098 
G01 X-32.6091 Y-36.8098 
G01 X-32.7354 Y-36.8437 
G01 X-32.8485 Y-36.9090 
G01 X-32.9410 Y-37.0015 
G01 X-33.0063 Y-37.1146 
G01 X-33.0401 Y-37.2409 
G01 X-33.0401 Y-38.6450 
G01 X-33.6729 Y-38.6450 
G01 X-33.7060 Y-38.6587 
G01 X-33.7313 Y-38.6840 
G01 X-33.7450 Y-38.7171 
G01 X-33.7450 Y-40.6579 
G01 X-33.7313 Y-40.6910 
G01 X-33.7060 Y-40.7163 
G01 X-33.6729 Y-40.7300 
G01 X-31.7321 Y-40.7300 
G01 X-31.6990 Y-40.7163 
G01 X-31.6737 Y-40.6910 
G01 X-31.6600 Y-40.6579 
G01 X-31.6600 Y-38.7171 
G01 X-31.6737 Y-38.6840 
G01 X-31.6990 Y-38.6587 
G01 X-31.7321 Y-38.6450 
G01 X-32.0474 Y-38.6450 
G01 X-32.0474 Y-37.2409 
G01 X-32.0582 Y-37.2003 
G01 X-29.8654 Y-34.7246 
G01 X-29.8411 Y-34.6981 
G01 X-29.8220 Y-34.6615 
G01 X-27.2335 Y-29.7064 
G01 X-26.6012 Y-29.7064 
G01 X-26.6012 Y-30.2598 
G01 X-26.5875 Y-30.2929 
G01 X-26.5622 Y-30.3182 
G01 X-26.5292 Y-30.3319 
G01 X-24.2708 Y-30.3319 
G01 X-24.2378 Y-30.3182 
G00 Z1.0000 
G00 X-24.2378 Y-27.6194 
G01 Z-0.0800 F50.00 
G01 X-24.2125 Y-27.5941 F100.00 
G01 X-24.1988 Y-27.5610 
G01 X-24.1988 Y-27.1464 
G01 X-21.9600 Y-27.1464 
G01 X-21.9600 Y-27.3879 
G01 X-21.9463 Y-27.4210 
G01 X-21.9210 Y-27.4463 
G01 X-21.8879 Y-27.4600 
G01 X-20.7521 Y-27.4600 
G01 X-20.7190 Y-27.4463 
G01 X-20.6937 Y-27.4210 
G01 X-20.6800 Y-27.3879 
G01 X-20.6800 Y-25.9521 
G01 X-20.6937 Y-25.9190 
G01 X-20.7190 Y-25.8937 
G01 X-20.7521 Y-25.8800 
G01 X-21.8879 Y-25.8800 
G01 X-21.9210 Y-25.8937 
G01 X-21.9463 Y-25.9190 
G01 X-21.9600 Y-25.9521 
G01 X-21.9600 Y-26.1536 
G01 X-24.1988 Y-26.1536 
G01 X-24.1988 Y-25.5408 
G01 X-24.2125 Y-25.5078 
G01 X-24.2378 Y-25.4825 
G01 X-24.2708 Y-25.4688 
G01 X-26.5292 Y-25.4688 
G01 X-26.5622 Y-25.4825 
G01 X-26.5875 Y-25.5078 
G01 X-26.6012 Y-25.5408 
G01 X-26.6012 Y-27.5610 
G01 X-26.5875 Y-27.5941 
G01 X-26.5622 Y-27.6194 
G01 X-26.5292 Y-27.6331 
G01 X-25.5762 Y-27.6331 
G01 X-25.4964 Y-27.6490 
G01 X-25.3036 Y-27.6490 
G01 X-25.2238 Y-27.6331 
G01 X-24.2708 Y-27.6331 
G01 X-24.2378 Y-27.6194 
G00 Z1.0000 
G00 X-24.2378 Y-25.3175 
G01 Z-0.0800 F50.00 
G01 X-24.2125 Y-25.2922 F100.00 
G01 X-24.1988 Y-25.2592 
G01 X-24.1988 Y-24.6264 
G01 X-21.9600 Y-24.6264 
G01 X-21.9600 Y-24.8479 
G01 X-21.9463 Y-24.8810 
G01 X-21.9210 Y-24.9063 
G01 X-21.8879 Y-24.9200 
G01 X-20.7521 Y-24.9200 
G01 X-20.7190 Y-24.9063 
G01 X-20.6937 Y-24.8810 
G01 X-20.6800 Y-24.8479 
G01 X-20.6800 Y-23.4121 
G01 X-20.6937 Y-23.3790 
G01 X-20.7190 Y-23.3537 
G01 X-20.7521 Y-23.3400 
G01 X-21.8879 Y-23.3400 
G01 X-21.9210 Y-23.3537 
G01 X-21.9463 Y-23.3790 
G01 X-21.9600 Y-23.4121 
G01 X-21.9600 Y-23.6336 
G01 X-24.1988 Y-23.6336 
G01 X-24.1988 Y-23.2390 
G01 X-24.2125 Y-23.2059 
G01 X-24.2378 Y-23.1806 
G01 X-24.2708 Y-23.1669 
G01 X-25.2238 Y-23.1669 
G01 X-25.3036 Y-23.1510 
G01 X-25.4964 Y-23.1510 
G01 X-25.5762 Y-23.1669 
G01 X-26.5292 Y-23.1669 
G01 X-26.5622 Y-23.1806 
G01 X-26.5875 Y-23.2059 
G01 X-26.6012 Y-23.2390 
G01 X-26.6012 Y-25.2592 
G01 X-26.5875 Y-25.2922 
G01 X-26.5622 Y-25.3175 
G01 X-26.5292 Y-25.3312 
G01 X-24.2708 Y-25.3312 
G01 X-24.2378 Y-25.3175 
G00 Z1.0000 
G00 X-24.2378 Y-22.5394 
G01 Z-0.0800 F50.00 
G01 X-24.2125 Y-22.5141 F100.00 
G01 X-24.1988 Y-22.4810 
G01 X-24.1988 Y-22.0214 
G01 X-21.9600 Y-22.0214 
G01 X-21.9600 Y-22.3079 
G01 X-21.9463 Y-22.3410 
G01 X-21.9210 Y-22.3663 
G01 X-21.8879 Y-22.3800 
G01 X-20.7521 Y-22.3800 
G01 X-20.7190 Y-22.3663 
G01 X-20.6937 Y-22.3410 
G01 X-20.6800 Y-22.3079 
G01 X-20.6800 Y-20.8721 
G01 X-20.6937 Y-20.8390 
G01 X-20.7190 Y-20.8137 
G01 X-20.7521 Y-20.8000 
G01 X-21.8879 Y-20.8000 
G01 X-21.9210 Y-20.8137 
G01 X-21.9463 Y-20.8390 
G01 X-21.9600 Y-20.8721 
G01 X-21.9600 Y-21.0286 
G01 X-24.1988 Y-21.0286 
G01 X-24.1988 Y-20.5402 
G01 X-24.2125 Y-20.5071 
G01 X-24.2378 Y-20.4818 
G01 X-24.2708 Y-20.4681 
G01 X-26.5292 Y-20.4681 
G01 X-26.5622 Y-20.4818 
G01 X-26.5875 Y-20.5071 
G01 X-26.6012 Y-20.5402 
G01 X-26.6012 Y-22.4810 
G01 X-26.5875 Y-22.5141 
G01 X-26.5622 Y-22.5394 
G01 X-26.5292 Y-22.5531 
G01 X-25.5762 Y-22.5531 
G01 X-25.4964 Y-22.5690 
G01 X-25.3036 Y-22.5690 
G01 X-25.2238 Y-22.5531 
G01 X-24.2708 Y-22.5531 
G01 X-24.2378 Y-22.5394 
G00 Z1.0000 
G00 X-23.6615 Y-22.6176 
G01 Z-0.0800 F50.00 
G01 X-26.9471 Y-22.6176 F100.00 
G01 X-27.4881 Y-21.6709 
G01 X-27.4881 Y-18.0224 
G01 X-20.8033 Y-18.0224 
G01 X-20.7557 Y-18.0511 
G01 X-20.6815 Y-18.0724 
G01 X-20.6043 Y-18.0739 
G01 X-20.5294 Y-18.0552 
G01 X-20.4618 Y-18.0179 
G01 X-19.7171 Y-17.3000 
G01 X-18.7521 Y-17.3000 
G01 X-18.7190 Y-17.2863 
G01 X-18.6937 Y-17.2610 
G01 X-18.6800 Y-17.2279 
G01 X-18.6800 Y-15.7921 
G01 X-18.6937 Y-15.7590 
G01 X-18.7190 Y-15.7337 
G01 X-18.7521 Y-15.7200 
G01 X-18.7636 Y-15.7200 
G01 X-18.7636 Y-14.7600 
G01 X-18.7521 Y-14.7600 
G01 X-18.7190 Y-14.7463 
G01 X-18.6937 Y-14.7210 
G01 X-18.6800 Y-14.6879 
G01 X-18.6800 Y-13.2521 
G01 X-18.6937 Y-13.2190 
G01 X-18.7190 Y-13.1937 
G01 X-18.7521 Y-13.1800 
G01 X-19.8879 Y-13.1800 
G01 X-19.9210 Y-13.1937 
G01 X-19.9463 Y-13.2190 
G01 X-19.9600 Y-13.2521 
G01 X-19.9600 Y-14.6879 
G01 X-19.9463 Y-14.7210 
G01 X-19.9210 Y-14.7463 
G01 X-19.8879 Y-14.7600 
G01 X-19.7564 Y-14.7600 
G01 X-19.7564 Y-15.7200 
G01 X-19.8879 Y-15.7200 
G01 X-19.9210 Y-15.7337 
G01 X-19.9463 Y-15.7590 
G01 X-19.9600 Y-15.7921 
G01 X-19.9600 Y-16.7197 
G01 X-20.8085 Y-17.5376 
G01 X-27.6147 Y-17.5376 
G01 X-27.6681 Y-17.5068 
G01 X-27.7426 Y-17.4868 
G01 X-27.8198 Y-17.4868 
G01 X-27.8944 Y-17.5068 
G01 X-27.9478 Y-17.5376 
G01 X-29.6542 Y-17.5376 
G01 X-31.2812 Y-15.0971 
G01 X-31.2519 Y-14.9736 
G01 X-31.2557 Y-14.8429 
G01 X-31.2931 Y-14.7177 
G01 X-31.3617 Y-14.6064 
G01 X-31.4567 Y-14.5167 
G01 X-31.5718 Y-14.4546 
G01 X-31.6989 Y-14.4244 
G01 X-33.2662 Y-14.4694 
G01 X-33.3368 Y-14.3637 
G01 X-33.4737 Y-14.2268 
G01 X-33.6346 Y-14.1193 
G01 X-33.8134 Y-14.0453 
G01 X-34.0032 Y-14.0075 
G01 X-34.1968 Y-14.0075 
G01 X-34.3866 Y-14.0453 
G01 X-34.5654 Y-14.1193 
G01 X-34.7263 Y-14.2268 
G01 X-34.8632 Y-14.3637 
G01 X-34.9707 Y-14.5246 
G01 X-35.0447 Y-14.7034 
G01 X-35.0825 Y-14.8932 
G01 X-35.0825 Y-15.0868 
G01 X-35.0447 Y-15.2766 
G01 X-34.9707 Y-15.4554 
G01 X-34.8632 Y-15.6163 
G01 X-34.7263 Y-15.7532 
G01 X-34.5654 Y-15.8607 
G01 X-34.3866 Y-15.9347 
G01 X-34.1968 Y-15.9725 
G01 X-34.0032 Y-15.9725 
G01 X-33.8134 Y-15.9347 
G01 X-33.6346 Y-15.8607 
G01 X-33.4737 Y-15.7532 
G01 X-33.3368 Y-15.6163 
G01 X-33.2335 Y-15.4617 
G01 X-31.7709 Y-15.4197 
G01 X-30.0675 Y-17.9748 
G01 X-30.0096 Y-18.0257 
G01 X-29.9403 Y-18.0599 
G01 X-29.8647 Y-18.0751 
G01 X-29.7876 Y-18.0701 
G01 X-29.7145 Y-18.0454 
G01 X-29.6800 Y-18.0224 
G01 X-28.0744 Y-18.0224 
G01 X-28.0744 Y-21.7482 
G01 X-28.0746 Y-21.7860 
G01 X-28.0647 Y-21.8238 
G01 X-28.0550 Y-21.8607 
G01 X-28.0357 Y-21.8944 
G01 X-27.3817 Y-23.0390 
G01 X-27.3273 Y-23.0938 
G01 X-27.2606 Y-23.1327 
G01 X-27.1862 Y-23.1530 
G01 X-27.1090 Y-23.1534 
G01 X-27.0343 Y-23.1337 
G01 X-26.9795 Y-23.1024 
G01 X-23.6615 Y-23.1024 
G01 X-23.6082 Y-23.1332 
G01 X-23.5336 Y-23.1532 
G01 X-20.0400 Y-23.1532 
G01 X-19.9466 Y-23.3797 
G01 X-19.9600 Y-23.4121 
G01 X-19.9600 Y-24.8479 
G01 X-19.9463 Y-24.8810 
G01 X-19.9210 Y-24.9063 
G01 X-19.8879 Y-24.9200 
G01 X-18.7521 Y-24.9200 
G01 X-18.7190 Y-24.9063 
G01 X-18.6937 Y-24.8810 
G01 X-18.6800 Y-24.8479 
G01 X-18.6800 Y-23.4121 
G01 X-18.6937 Y-23.3790 
G01 X-18.7190 Y-23.3537 
G01 X-18.7521 Y-23.3400 
G01 X-19.3286 Y-23.3400 
G01 X-19.5655 Y-22.7658 
G01 X-19.5705 Y-22.7468 
G01 X-19.5801 Y-22.7302 
G01 X-19.5874 Y-22.7125 
G01 X-19.5993 Y-22.6970 
G01 X-19.6091 Y-22.6800 
G01 X-19.6227 Y-22.6664 
G01 X-19.6343 Y-22.6512 
G01 X-19.6499 Y-22.6392 
G01 X-19.6637 Y-22.6254 
G01 X-19.6803 Y-22.6158 
G01 X-19.6955 Y-22.6041 
G01 X-19.7136 Y-22.5966 
G01 X-19.7306 Y-22.5868 
G01 X-19.7491 Y-22.5818 
G01 X-19.7668 Y-22.5745 
G01 X-19.7862 Y-22.5719 
G01 X-19.8051 Y-22.5668 
G01 X-19.8243 Y-22.5668 
G01 X-19.8433 Y-22.5643 
G01 X-19.8627 Y-22.5668 
G01 X-23.5336 Y-22.5668 
G01 X-23.6082 Y-22.5868 
G01 X-23.6615 Y-22.6176 
G00 Z1.0000 
G00 X-24.2378 Y-20.2375 
G01 Z-0.0800 F50.00 
G01 X-24.2125 Y-20.2122 F100.00 
G01 X-24.1988 Y-20.1791 
G01 X-24.1988 Y-19.5214 
G01 X-21.9600 Y-19.5214 
G01 X-21.9600 Y-19.7679 
G01 X-21.9463 Y-19.8010 
G01 X-21.9210 Y-19.8263 
G01 X-21.8879 Y-19.8400 
G01 X-20.7521 Y-19.8400 
G01 X-20.7190 Y-19.8263 
G01 X-20.6937 Y-19.8010 
G01 X-20.6800 Y-19.7679 
G01 X-20.6800 Y-18.3321 
G01 X-20.6937 Y-18.2990 
G01 X-20.7190 Y-18.2737 
G01 X-20.7521 Y-18.2600 
G01 X-21.8879 Y-18.2600 
G01 X-21.9210 Y-18.2737 
G01 X-21.9463 Y-18.2990 
G01 X-21.9600 Y-18.3321 
G01 X-21.9600 Y-18.5286 
G01 X-24.1988 Y-18.5286 
G01 X-24.1988 Y-18.1590 
G01 X-24.2125 Y-18.1259 
G01 X-24.2378 Y-18.1006 
G01 X-24.2708 Y-18.0869 
G01 X-25.2238 Y-18.0869 
G01 X-25.3036 Y-18.0710 
G01 X-25.4964 Y-18.0710 
G01 X-25.5762 Y-18.0869 
G01 X-26.5292 Y-18.0869 
G01 X-26.5622 Y-18.1006 
G01 X-26.5875 Y-18.1259 
G01 X-26.6012 Y-18.1590 
G01 X-26.6012 Y-20.1791 
G01 X-26.5875 Y-20.2122 
G01 X-26.5622 Y-20.2375 
G01 X-26.5292 Y-20.2512 
G01 X-24.2708 Y-20.2512 
G01 X-24.2378 Y-20.2375 
G00 Z1.0000 
G00 X-24.2378 Y-17.4594 
G01 Z-0.0800 F50.00 
G01 X-24.2125 Y-17.4341 F100.00 
G01 X-24.1988 Y-17.4010 
G01 X-24.1988 Y-17.0214 
G01 X-21.9600 Y-17.0214 
G01 X-21.9600 Y-17.2279 
G01 X-21.9463 Y-17.2610 
G01 X-21.9210 Y-17.2863 
G01 X-21.8879 Y-17.3000 
G01 X-20.7521 Y-17.3000 
G01 X-20.7190 Y-17.2863 
G01 X-20.6937 Y-17.2610 
G01 X-20.6800 Y-17.2279 
G01 X-20.6800 Y-15.7921 
G01 X-20.6937 Y-15.7590 
G01 X-20.7190 Y-15.7337 
G01 X-20.7521 Y-15.7200 
G01 X-21.8879 Y-15.7200 
G01 X-21.9210 Y-15.7337 
G01 X-21.9463 Y-15.7590 
G01 X-21.9600 Y-15.7921 
G01 X-21.9600 Y-16.0286 
G01 X-24.1988 Y-16.0286 
G01 X-24.1988 Y-15.3808 
G01 X-24.2125 Y-15.3478 
G01 X-24.2378 Y-15.3224 
G01 X-24.2708 Y-15.3087 
G01 X-26.5292 Y-15.3087 
G01 X-26.5622 Y-15.3224 
G01 X-26.5875 Y-15.3478 
G01 X-26.6012 Y-15.3808 
G01 X-26.6012 Y-17.4010 
G01 X-26.5875 Y-17.4341 
G01 X-26.5622 Y-17.4594 
G01 X-26.5292 Y-17.4731 
G01 X-25.5762 Y-17.4731 
G01 X-25.4964 Y-17.4890 
G01 X-25.3036 Y-17.4890 
G01 X-25.2238 Y-17.4731 
G01 X-24.2708 Y-17.4731 
G01 X-24.2378 Y-17.4594 
G00 Z1.0000 
G00 X-24.2378 Y-15.1575 
G01 Z-0.0800 F50.00 
G01 X-24.2125 Y-15.1322 F100.00 
G01 X-24.1988 Y-15.0991 
G01 X-24.1988 Y-14.3964 
G01 X-21.9600 Y-14.3964 
G01 X-21.9600 Y-14.6879 
G01 X-21.9463 Y-14.7210 
G01 X-21.9210 Y-14.7463 
G01 X-21.8879 Y-14.7600 
G01 X-20.7521 Y-14.7600 
G01 X-20.7190 Y-14.7463 
G01 X-20.6937 Y-14.7210 
G01 X-20.6800 Y-14.6879 
G01 X-20.6800 Y-13.2521 
G01 X-20.6937 Y-13.2190 
G01 X-20.7190 Y-13.1937 
G01 X-20.7521 Y-13.1800 
G01 X-21.8879 Y-13.1800 
G01 X-21.9210 Y-13.1937 
G01 X-21.9463 Y-13.2190 
G01 X-21.9600 Y-13.2521 
G01 X-21.9600 Y-13.4036 
G01 X-24.1988 Y-13.4036 
G01 X-24.1988 Y-13.0790 
G01 X-24.2125 Y-13.0459 
G01 X-24.2378 Y-13.0206 
G01 X-24.2708 Y-13.0069 
G01 X-25.2238 Y-13.0069 
G01 X-25.3036 Y-12.9910 
G01 X-25.4964 Y-12.9910 
G01 X-25.5762 Y-13.0069 
G01 X-26.5292 Y-13.0069 
G01 X-26.5622 Y-13.0206 
G01 X-26.5875 Y-13.0459 
G01 X-26.6012 Y-13.0790 
G01 X-26.6012 Y-15.0991 
G01 X-26.5875 Y-15.1322 
G01 X-26.5622 Y-15.1575 
G01 X-26.5292 Y-15.1712 
G01 X-24.2708 Y-15.1712 
G01 X-24.2378 Y-15.1575 
G00 Z1.0000 
G00 X-24.2378 Y-12.3794 
G01 Z-0.0800 F50.00 
G01 X-24.2125 Y-12.3541 F100.00 
G01 X-24.1988 Y-12.3210 
G01 X-24.1988 Y-11.8964 
G01 X-21.9600 Y-11.8964 
G01 X-21.9600 Y-12.1479 
G01 X-21.9463 Y-12.1810 
G01 X-21.9210 Y-12.2063 
G01 X-21.8879 Y-12.2200 
G01 X-20.7521 Y-12.2200 
G01 X-20.7190 Y-12.2063 
G01 X-20.6937 Y-12.1810 
G01 X-20.6800 Y-12.1479 
G01 X-20.6800 Y-10.7121 
G01 X-20.6937 Y-10.6790 
G01 X-20.7190 Y-10.6537 
G01 X-20.7521 Y-10.6400 
G01 X-21.8879 Y-10.6400 
G01 X-21.9210 Y-10.6537 
G01 X-21.9463 Y-10.6790 
G01 X-21.9600 Y-10.7121 
G01 X-21.9600 Y-10.9036 
G01 X-24.1988 Y-10.9036 
G01 X-24.1988 Y-10.3008 
G01 X-24.2125 Y-10.2678 
G01 X-24.2378 Y-10.2424 
G01 X-24.2708 Y-10.2287 
G01 X-26.5292 Y-10.2287 
G01 X-26.5622 Y-10.2424 
G01 X-26.5875 Y-10.2678 
G01 X-26.6012 Y-10.3008 
G01 X-26.6012 Y-12.3210 
G01 X-26.5875 Y-12.3541 
G01 X-26.5622 Y-12.3794 
G01 X-26.5292 Y-12.3931 
G01 X-25.5762 Y-12.3931 
G01 X-25.4964 Y-12.4090 
G01 X-25.3036 Y-12.4090 
G01 X-25.2238 Y-12.3931 
G01 X-24.2708 Y-12.3931 
G01 X-24.2378 Y-12.3794 
G00 Z1.0000 
G00 X-22.8678 Y-12.4576 
G01 Z-0.0800 F50.00 
G01 X-27.5068 Y-12.4576 F100.00 
G01 X-27.5428 Y-12.3952 
G01 X-27.6352 Y-12.3028 
G01 X-27.7484 Y-12.2374 
G01 X-27.8746 Y-12.2036 
G01 X-33.1175 Y-12.2036 
G01 X-33.1175 Y-11.7896 
G01 X-33.1312 Y-11.7565 
G01 X-33.1565 Y-11.7312 
G01 X-33.1896 Y-11.7175 
G01 X-35.0104 Y-11.7175 
G01 X-35.0435 Y-11.7312 
G01 X-35.0688 Y-11.7565 
G01 X-35.0825 Y-11.7896 
G01 X-35.0825 Y-13.6104 
G01 X-35.0688 Y-13.6435 
G01 X-35.0435 Y-13.6688 
G01 X-35.0104 Y-13.6825 
G01 X-33.1896 Y-13.6825 
G01 X-33.1565 Y-13.6688 
G01 X-33.1312 Y-13.6435 
G01 X-33.1175 Y-13.6104 
G01 X-33.1175 Y-13.1964 
G01 X-27.8746 Y-13.1964 
G01 X-27.7484 Y-13.1626 
G01 X-27.6352 Y-13.0972 
G01 X-27.5428 Y-13.0048 
G01 X-27.5068 Y-12.9424 
G01 X-22.8678 Y-12.9424 
G01 X-22.8144 Y-12.9732 
G01 X-22.7399 Y-12.9932 
G01 X-17.5839 Y-12.9932 
G01 X-16.8032 Y-13.7739 
G01 X-16.8032 Y-21.2968 
G01 X-18.6800 Y-21.2968 
G01 X-18.6800 Y-20.8721 
G01 X-18.6937 Y-20.8390 
G01 X-18.7190 Y-20.8137 
G01 X-18.7521 Y-20.8000 
G01 X-18.7636 Y-20.8000 
G01 X-18.7636 Y-19.8400 
G01 X-18.7521 Y-19.8400 
G01 X-18.7190 Y-19.8263 
G01 X-18.6937 Y-19.8010 
G01 X-18.6800 Y-19.7679 
G01 X-18.6800 Y-18.3321 
G01 X-18.6937 Y-18.2990 
G01 X-18.7190 Y-18.2737 
G01 X-18.7521 Y-18.2600 
G01 X-19.8879 Y-18.2600 
G01 X-19.9210 Y-18.2737 
G01 X-19.9463 Y-18.2990 
G01 X-19.9600 Y-18.3321 
G01 X-19.9600 Y-19.7679 
G01 X-19.9463 Y-19.8010 
G01 X-19.9210 Y-19.8263 
G01 X-19.8879 Y-19.8400 
G01 X-19.7564 Y-19.8400 
G01 X-19.7564 Y-20.8000 
G01 X-19.8879 Y-20.8000 
G01 X-19.9210 Y-20.8137 
G01 X-19.9463 Y-20.8390 
G01 X-19.9600 Y-20.8721 
G01 X-19.9600 Y-22.3079 
G01 X-19.9463 Y-22.3410 
G01 X-19.9210 Y-22.3663 
G01 X-19.8879 Y-22.3800 
G01 X-18.7521 Y-22.3800 
G01 X-18.7190 Y-22.3663 
G01 X-18.6937 Y-22.3410 
G01 X-18.6800 Y-22.3079 
G01 X-18.6800 Y-21.8832 
G01 X-16.8032 Y-21.8832 
G01 X-16.8032 Y-25.2108 
G01 X-18.6800 Y-26.0590 
G01 X-18.6800 Y-25.9521 
G01 X-18.6937 Y-25.9190 
G01 X-18.7190 Y-25.8937 
G01 X-18.7521 Y-25.8800 
G01 X-19.8879 Y-25.8800 
G01 X-19.9210 Y-25.8937 
G01 X-19.9463 Y-25.9190 
G01 X-19.9600 Y-25.9521 
G01 X-19.9600 Y-27.3879 
G01 X-19.9463 Y-27.4210 
G01 X-19.9210 Y-27.4463 
G01 X-19.8879 Y-27.4600 
G01 X-18.7521 Y-27.4600 
G01 X-18.7190 Y-27.4463 
G01 X-18.6937 Y-27.4210 
G01 X-18.6800 Y-27.3879 
G01 X-18.6800 Y-26.7025 
G01 X-16.4110 Y-25.6770 
G01 X-16.3968 Y-25.6732 
G01 X-16.3760 Y-25.6612 
G01 X-16.3541 Y-25.6513 
G01 X-16.3427 Y-25.6420 
G01 X-16.3300 Y-25.6346 
G01 X-16.3130 Y-25.6176 
G01 X-16.2943 Y-25.6024 
G01 X-16.2858 Y-25.5904 
G01 X-16.2754 Y-25.5800 
G01 X-16.2633 Y-25.5592 
G01 X-16.2493 Y-25.5397 
G01 X-16.2441 Y-25.5259 
G01 X-16.2368 Y-25.5132 
G01 X-16.2306 Y-25.4899 
G01 X-16.2221 Y-25.4674 
G01 X-16.2206 Y-25.4528 
G01 X-16.2168 Y-25.4386 
G01 X-16.2168 Y-25.4145 
G01 X-16.2144 Y-25.3906 
G01 X-16.2168 Y-25.3761 
G01 X-16.2168 Y-13.6139 
G01 X-16.2368 Y-13.5393 
G01 X-16.2754 Y-13.4725 
G01 X-16.3300 Y-13.4179 
G01 X-17.2279 Y-12.5200 
G01 X-17.2825 Y-12.4654 
G01 X-17.3493 Y-12.4268 
G01 X-17.4239 Y-12.4068 
G01 X-22.7399 Y-12.4068 
G01 X-22.8144 Y-12.4268 
G01 X-22.8678 Y-12.4576 
G00 Z1.0000 
G00 X-19.9463 Y-12.1810 
G01 Z-0.0800 F50.00 
G01 X-19.9210 Y-12.2063 F100.00 
G01 X-19.8879 Y-12.2200 
G01 X-18.7521 Y-12.2200 
G01 X-18.7190 Y-12.2063 
G01 X-18.6937 Y-12.1810 
G01 X-18.6800 Y-12.1479 
G01 X-18.6800 Y-11.7232 
G01 X-17.2664 Y-11.7232 
G01 X-15.5332 Y-13.4564 
G01 X-15.5332 Y-26.5131 
G01 X-17.3100 Y-27.6976 
G01 X-27.4218 Y-27.6976 
G01 X-28.9168 Y-25.0065 
G01 X-28.9168 Y-20.3286 
G01 X-28.9150 Y-20.2987 
G01 X-28.9168 Y-20.2814 
G01 X-28.9246 Y-20.2524 
G01 X-28.9306 Y-20.2231 
G01 X-28.9368 Y-20.2068 
G01 X-28.9518 Y-20.1809 
G01 X-28.9652 Y-20.1541 
G01 X-28.9754 Y-20.1400 
G01 X-28.9966 Y-20.1188 
G01 X-31.2617 Y-17.5705 
G01 X-31.2500 Y-17.4358 
G01 X-31.2740 Y-17.3073 
G01 X-31.3304 Y-17.1894 
G01 X-31.4154 Y-17.0901 
G01 X-31.5232 Y-17.0162 
G01 X-31.6464 Y-16.9727 
G01 X-33.2143 Y-16.8509 
G01 X-33.2293 Y-16.8146 
G01 X-33.3368 Y-16.6537 
G01 X-33.4737 Y-16.5168 
G01 X-33.6346 Y-16.4093 
G01 X-33.8134 Y-16.3353 
G01 X-34.0032 Y-16.2975 
G01 X-34.1968 Y-16.2975 
G01 X-34.3866 Y-16.3353 
G01 X-34.5654 Y-16.4093 
G01 X-34.7263 Y-16.5168 
G01 X-34.8632 Y-16.6537 
G01 X-34.9707 Y-16.8146 
G01 X-35.0447 Y-16.9934 
G01 X-35.0825 Y-17.1832 
G01 X-35.0825 Y-17.3768 
G01 X-35.0447 Y-17.5666 
G01 X-34.9707 Y-17.7454 
G01 X-34.8632 Y-17.9063 
G01 X-34.7263 Y-18.0432 
G01 X-34.5654 Y-18.1507 
G01 X-34.3866 Y-18.2247 
G01 X-34.1968 Y-18.2625 
G01 X-34.0032 Y-18.2625 
G01 X-33.8134 Y-18.2247 
G01 X-33.6346 Y-18.1507 
G01 X-33.4737 Y-18.0432 
G01 X-33.3368 Y-17.9063 
G01 X-33.2929 Y-17.8406 
G01 X-31.7233 Y-17.9625 
G01 X-31.7015 Y-17.9584 
G01 X-29.5032 Y-20.4315 
G01 X-29.5032 Y-25.0801 
G01 X-29.5038 Y-25.1163 
G01 X-29.4938 Y-25.1560 
G01 X-29.4850 Y-25.1911 
G01 X-29.4652 Y-25.2269 
G01 X-27.8601 Y-28.1161 
G01 X-27.8064 Y-28.1716 
G01 X-27.7402 Y-28.2113 
G01 X-27.6659 Y-28.2325 
G01 X-27.5887 Y-28.2338 
G01 X-27.5139 Y-28.2150 
G01 X-27.4551 Y-28.1824 
G01 X-17.3133 Y-28.1824 
G01 X-17.2403 Y-28.2199 
G01 X-17.1647 Y-28.2351 
G01 X-17.0876 Y-28.2301 
G01 X-17.0145 Y-28.2054 
G01 X-15.0852 Y-26.9192 
G01 X-15.0600 Y-26.9046 
G01 X-15.0452 Y-26.8925 
G01 X-15.0260 Y-26.8707 
G01 X-15.0054 Y-26.8500 
G01 X-14.9943 Y-26.8346 
G01 X-14.9814 Y-26.8084 
G01 X-14.9668 Y-26.7832 
G01 X-14.9601 Y-26.7654 
G01 X-14.9543 Y-26.7368 
G01 X-14.9468 Y-26.7086 
G01 X-14.9449 Y-26.6897 
G01 X-14.9468 Y-26.6606 
G01 X-14.9468 Y-13.2964 
G01 X-14.9668 Y-13.2218 
G01 X-15.0054 Y-13.1550 
G01 X-15.0600 Y-13.1004 
G01 X-16.9650 Y-11.1954 
G01 X-17.0318 Y-11.1568 
G01 X-17.1064 Y-11.1368 
G01 X-18.6800 Y-11.1368 
G01 X-18.6800 Y-10.7121 
G01 X-18.6937 Y-10.6790 
G01 X-18.7190 Y-10.6537 
G01 X-18.7521 Y-10.6400 
G01 X-19.0268 Y-10.6400 
G01 X-19.0268 Y-9.6800 
G01 X-18.7521 Y-9.6800 
G01 X-18.7190 Y-9.6663 
G01 X-18.6937 Y-9.6410 
G01 X-18.6800 Y-9.6079 
G01 X-18.6800 Y-8.1721 
G01 X-18.6937 Y-8.1390 
G01 X-18.7190 Y-8.1137 
G01 X-18.7521 Y-8.1000 
G01 X-19.8879 Y-8.1000 
G01 X-19.9210 Y-8.1137 
G01 X-19.9463 Y-8.1390 
G01 X-19.9600 Y-8.1721 
G01 X-19.9600 Y-9.6079 
G01 X-19.9463 Y-9.6410 
G01 X-19.9210 Y-9.6663 
G01 X-19.8879 Y-9.6800 
G01 X-19.6132 Y-9.6800 
G01 X-19.6132 Y-10.6400 
G01 X-19.8879 Y-10.6400 
G01 X-19.9210 Y-10.6537 
G01 X-19.9463 Y-10.6790 
G01 X-19.9600 Y-10.7121 
G01 X-19.9600 Y-12.1479 
G01 X-19.9463 Y-12.1810 
G00 Z1.0000 
G00 X-20.7190 Y-9.6663 
G01 Z-0.0800 F50.00 
G01 X-20.6937 Y-9.6410 F100.00 
G01 X-20.6800 Y-9.6079 
G01 X-20.6800 Y-8.1721 
G01 X-20.6937 Y-8.1390 
G01 X-20.7190 Y-8.1137 
G01 X-20.7521 Y-8.1000 
G01 X-21.8879 Y-8.1000 
G01 X-21.9210 Y-8.1137 
G01 X-21.9463 Y-8.1390 
G01 X-21.9600 Y-8.1721 
G01 X-21.9600 Y-8.4036 
G01 X-24.1988 Y-8.4036 
G01 X-24.1988 Y-7.7608 
G01 X-24.2125 Y-7.7278 
G01 X-24.2378 Y-7.7024 
G01 X-24.2708 Y-7.6887 
G01 X-26.5292 Y-7.6887 
G01 X-26.5622 Y-7.7024 
G01 X-26.5875 Y-7.7278 
G01 X-26.6012 Y-7.7608 
G01 X-26.6012 Y-10.0191 
G01 X-26.5875 Y-10.0522 
G01 X-26.5622 Y-10.0775 
G01 X-26.5292 Y-10.0912 
G01 X-24.2708 Y-10.0912 
G01 X-24.2378 Y-10.0775 
G01 X-24.2125 Y-10.0522 
G01 X-24.1988 Y-10.0191 
G01 X-24.1988 Y-9.3964 
G01 X-21.9600 Y-9.3964 
G01 X-21.9600 Y-9.6079 
G01 X-21.9463 Y-9.6410 
G01 X-21.9210 Y-9.6663 
G01 X-21.8879 Y-9.6800 
G01 X-20.7521 Y-9.6800 
G01 X-20.7190 Y-9.6663 
G00 Z1.0000 
G00 X-24.2378 Y-7.5375 
G01 Z-0.0800 F50.00 
G01 X-24.2125 Y-7.5122 F100.00 
G01 X-24.1988 Y-7.4791 
G01 X-24.1988 Y-6.7797 
G01 X-23.8944 Y-6.7818 
G01 X-23.7679 Y-6.7489 
G01 X-23.6542 Y-6.6843 
G01 X-23.5612 Y-6.5926 
G01 X-23.4950 Y-6.4798 
G01 X-23.4603 Y-6.3538 
G01 X-23.4594 Y-6.2231 
G01 X-23.4636 Y-6.2070 
G01 X-23.3173 Y-6.0607 
G01 X-23.2901 Y-6.0335 
G01 X-23.2654 Y-6.0088 
G01 X-23.2443 Y-5.9722 
G01 X-23.2268 Y-5.9419 
G01 X-23.2159 Y-5.9011 
G01 X-23.2068 Y-5.8674 
G01 X-23.2068 Y-5.8251 
G01 X-23.2068 Y-5.7901 
G01 X-23.2854 Y-2.6656 
G01 X-23.2864 Y-2.6272 
G01 X-23.2872 Y-2.5941 
G01 X-23.2892 Y-2.5831 
G01 X-23.2997 Y-2.5518 
G01 X-23.3091 Y-2.5201 
G01 X-23.3138 Y-2.5099 
G01 X-23.3321 Y-2.4824 
G01 X-23.3493 Y-2.4542 
G01 X-23.3813 Y-2.4238 
G01 X-23.4052 Y-2.4010 
G01 X-24.0492 Y-1.8349 
G01 X-24.0700 Y-1.8141 
G01 X-24.0851 Y-1.8033 
G01 X-24.1114 Y-1.7902 
G01 X-24.1368 Y-1.7755 
G01 X-24.1542 Y-1.7690 
G01 X-24.1830 Y-1.7632 
G01 X-24.2114 Y-1.7555 
G01 X-24.2299 Y-1.7537 
G01 X-24.2592 Y-1.7555 
G01 X-27.6863 Y-1.7555 
G01 X-27.7248 Y-1.7555 
G01 X-27.7586 Y-1.7555 
G01 X-27.8005 Y-1.7668 
G01 X-27.8332 Y-1.7755 
G01 X-27.8707 Y-1.7972 
G01 X-27.9000 Y-1.8141 
G01 X-27.9307 Y-1.8448 
G01 X-27.9546 Y-1.8687 
G01 X-27.9763 Y-1.9063 
G01 X-27.9932 Y-1.9356 
G01 X-31.5420 Y-8.5768 
G01 X-37.7817 Y-8.5768 
G01 X-37.7943 Y-8.5746 
G01 X-37.8201 Y-8.5768 
G01 X-37.8461 Y-8.5768 
G01 X-37.8584 Y-8.5801 
G01 X-37.8712 Y-8.5812 
G01 X-37.8956 Y-8.5901 
G01 X-37.9207 Y-8.5968 
G01 X-37.9317 Y-8.6032 
G01 X-37.9438 Y-8.6075 
G01 X-37.9650 Y-8.6224 
G01 X-37.9875 Y-8.6354 
G01 X-38.0070 Y-8.6517 
G01 X-38.0238 Y-8.6716 
G01 X-38.0421 Y-8.6900 
G01 X-38.0485 Y-8.7010 
G01 X-40.5437 Y-11.6678 
G01 X-40.5621 Y-11.6862 
G01 X-40.5685 Y-11.6973 
G01 X-40.5877 Y-11.7306 
G01 X-40.6007 Y-11.7531 
G01 X-40.6040 Y-11.7654 
G01 X-40.6094 Y-11.7770 
G01 X-40.6140 Y-11.8026 
G01 X-40.6207 Y-11.8276 
G01 X-40.6207 Y-11.8404 
G01 X-40.6229 Y-11.8530 
G01 X-40.6207 Y-11.8789 
G01 X-40.6207 Y-17.0892 
G01 X-40.6470 Y-17.1058 
G01 X-40.7359 Y-17.2016 
G01 X-40.7969 Y-17.3171 
G01 X-40.8260 Y-17.4446 
G01 X-40.8211 Y-17.5752 
G01 X-40.7826 Y-17.7001 
G01 X-40.7130 Y-17.8107 
G01 X-39.0573 Y-19.3466 
G01 X-39.0825 Y-19.4732 
G01 X-39.0825 Y-19.6668 
G01 X-39.0447 Y-19.8566 
G01 X-38.9707 Y-20.0354 
G01 X-38.8632 Y-20.1963 
G01 X-38.7263 Y-20.3332 
G01 X-38.5654 Y-20.4407 
G01 X-38.3866 Y-20.5147 
G01 X-38.1968 Y-20.5525 
G01 X-38.0032 Y-20.5525 
G01 X-37.8134 Y-20.5147 
G01 X-37.6346 Y-20.4407 
G01 X-37.4737 Y-20.3332 
G01 X-37.3368 Y-20.1963 
G01 X-37.2293 Y-20.0354 
G01 X-37.1553 Y-19.8566 
G01 X-37.1175 Y-19.6668 
G01 X-37.1175 Y-19.4732 
G01 X-37.1553 Y-19.2834 
G01 X-37.2293 Y-19.1046 
G01 X-37.3368 Y-18.9437 
G01 X-37.4737 Y-18.8068 
G01 X-37.6346 Y-18.6993 
G01 X-37.8134 Y-18.6253 
G01 X-38.0032 Y-18.5875 
G01 X-38.1968 Y-18.5875 
G01 X-38.3771 Y-18.6234 
G01 X-40.0343 Y-17.0861 
G01 X-40.0343 Y-11.9732 
G01 X-37.6710 Y-9.1632 
G01 X-31.4000 Y-9.1632 
G01 X-31.3614 Y-9.1632 
G01 X-31.3276 Y-9.1632 
G01 X-31.2857 Y-9.1520 
G01 X-31.2531 Y-9.1432 
G01 X-31.2155 Y-9.1215 
G01 X-31.1862 Y-9.1046 
G01 X-31.1556 Y-9.0740 
G01 X-31.1316 Y-9.0500 
G01 X-31.1100 Y-9.0125 
G01 X-31.0930 Y-8.9832 
G01 X-27.5443 Y-2.3419 
G01 X-24.3608 Y-2.3419 
G01 X-23.8693 Y-2.7753 
G01 X-23.7962 Y-5.7103 
G01 X-23.8777 Y-5.7918 
G01 X-24.1988 Y-5.7869 
G01 X-24.1988 Y-5.2208 
G01 X-24.2125 Y-5.1878 
G01 X-24.2378 Y-5.1624 
G01 X-24.2708 Y-5.1487 
G01 X-26.5292 Y-5.1487 
G01 X-26.5622 Y-5.1624 
G01 X-26.5875 Y-5.1878 
G01 X-26.6012 Y-5.2208 
G01 X-26.6012 Y-7.4791 
G01 X-26.5875 Y-7.5122 
G01 X-26.5622 Y-7.5375 
G01 X-26.5292 Y-7.5512 
G01 X-24.2708 Y-7.5512 
G01 X-24.2378 Y-7.5375 
G00 Z1.0000 
G00 X-24.2378 Y-4.9975 
G01 Z-0.0800 F50.00 
G01 X-24.2125 Y-4.9722 F100.00 
G01 X-24.1988 Y-4.9391 
G01 X-24.1988 Y-2.6808 
G01 X-24.2125 Y-2.6478 
G01 X-24.2378 Y-2.6225 
G01 X-24.2708 Y-2.6088 
G01 X-26.5292 Y-2.6088 
G01 X-26.5622 Y-2.6225 
G01 X-26.5875 Y-2.6478 
G01 X-26.6012 Y-2.6808 
G01 X-26.6012 Y-3.4036 
G01 X-27.4579 Y-3.4036 
G01 X-27.5841 Y-3.4374 
G01 X-27.6973 Y-3.5028 
G01 X-27.7897 Y-3.5952 
G01 X-27.8551 Y-3.7084 
G01 X-27.8889 Y-3.8346 
G01 X-27.8889 Y-3.9654 
G01 X-27.8551 Y-4.0916 
G01 X-27.7971 Y-4.1920 
G01 X-29.5485 Y-9.5193 
G01 X-37.3372 Y-9.5193 
G01 X-37.3478 Y-9.5173 
G01 X-37.3757 Y-9.5193 
G01 X-37.4036 Y-9.5193 
G01 X-37.4140 Y-9.5221 
G01 X-37.4248 Y-9.5229 
G01 X-37.4512 Y-9.5321 
G01 X-37.4782 Y-9.5393 
G01 X-37.4977 Y-9.5482 
G01 X-37.5208 Y-9.5639 
G01 X-37.5450 Y-9.5779 
G01 X-37.5616 Y-9.5916 
G01 X-37.5799 Y-9.6127 
G01 X-37.5996 Y-9.6325 
G01 X-39.5999 Y-11.9502 
G01 X-39.6196 Y-11.9700 
G01 X-39.6321 Y-11.9875 
G01 X-39.6442 Y-12.0126 
G01 X-39.6582 Y-12.0368 
G01 X-39.6610 Y-12.0473 
G01 X-39.6710 Y-12.0844 
G01 X-39.6782 Y-12.1114 
G01 X-39.6782 Y-12.1222 
G01 X-39.6802 Y-12.1328 
G01 X-39.6782 Y-12.1607 
G01 X-39.6782 Y-15.6211 
G01 X-39.6898 Y-15.6278 
G01 X-39.7822 Y-15.7202 
G01 X-39.8476 Y-15.8334 
G01 X-39.8814 Y-15.9596 
G01 X-39.8814 Y-16.0904 
G01 X-39.8476 Y-16.2166 
G01 X-39.7822 Y-16.3298 
G01 X-39.0570 Y-17.0550 
G01 X-39.0825 Y-17.1832 
G01 X-39.0825 Y-17.3768 
G01 X-39.0447 Y-17.5666 
G01 X-38.9707 Y-17.7454 
G01 X-38.8632 Y-17.9063 
G01 X-38.7263 Y-18.0432 
G01 X-38.5654 Y-18.1507 
G01 X-38.3866 Y-18.2247 
G01 X-38.1968 Y-18.2625 
G01 X-38.0032 Y-18.2625 
G01 X-37.8134 Y-18.2247 
G01 X-37.6346 Y-18.1507 
G01 X-37.4737 Y-18.0432 
G01 X-37.3368 Y-17.9063 
G01 X-37.2293 Y-17.7454 
G01 X-37.1553 Y-17.5666 
G01 X-37.1175 Y-17.3768 
G01 X-37.1175 Y-17.1832 
G01 X-37.1553 Y-16.9934 
G01 X-37.2293 Y-16.8146 
G01 X-37.3368 Y-16.6537 
G01 X-37.4737 Y-16.5168 
G01 X-37.6346 Y-16.4093 
G01 X-37.8134 Y-16.3353 
G01 X-38.0032 Y-16.2975 
G01 X-38.1968 Y-16.2975 
G01 X-38.3750 Y-16.3330 
G01 X-39.0802 Y-15.6278 
G01 X-39.0918 Y-15.6211 
G01 X-39.0918 Y-12.2591 
G01 X-37.2309 Y-10.1057 
G01 X-29.3444 Y-10.1057 
G01 X-29.3141 Y-10.1074 
G01 X-29.2976 Y-10.1057 
G01 X-29.2683 Y-10.0978 
G01 X-29.2385 Y-10.0916 
G01 X-29.2231 Y-10.0857 
G01 X-29.1967 Y-10.0705 
G01 X-29.1696 Y-10.0568 
G01 X-29.1562 Y-10.0471 
G01 X-29.1347 Y-10.0256 
G01 X-29.1120 Y-10.0053 
G01 X-29.1016 Y-9.9925 
G01 X-29.0864 Y-9.9662 
G01 X-29.0698 Y-9.9407 
G01 X-29.0630 Y-9.9257 
G01 X-29.0552 Y-9.8963 
G01 X-27.2471 Y-4.3964 
G01 X-26.6012 Y-4.3964 
G01 X-26.6012 Y-4.9391 
G01 X-26.5875 Y-4.9722 
G01 X-26.5622 Y-4.9975 
G01 X-26.5292 Y-5.0112 
G01 X-24.2708 Y-5.0112 
G01 X-24.2378 Y-4.9975 
G00 Z1.0000 
G00 X-32.9300 Y-8.2729 
G01 Z-0.0800 F50.00 
G01 X-32.9300 Y-0.6171 F100.00 
G01 X-32.9437 Y-0.5840 
G01 X-32.9690 Y-0.5587 
G01 X-33.0021 Y-0.5450 
G01 X-43.1979 Y-0.5450 
G01 X-43.2310 Y-0.5587 
G01 X-43.2563 Y-0.5840 
G01 X-43.2700 Y-0.6171 
G01 X-43.2700 Y-1.8150 
G01 X-44.4679 Y-1.8150 
G01 X-44.5010 Y-1.8287 
G01 X-44.5263 Y-1.8540 
G01 X-44.5400 Y-1.8871 
G01 X-44.5400 Y-53.3579 
G01 X-44.5263 Y-53.3910 
G01 X-44.5010 Y-53.4163 
G01 X-44.4679 Y-53.4300 
G01 X-25.6487 Y-53.4300 
G01 X-25.6487 Y-53.6754 
G01 X-25.6350 Y-53.7085 
G01 X-25.6097 Y-53.7338 
G01 X-25.5767 Y-53.7475 
G01 X-0.6171 Y-53.7475 
G01 X-0.5840 Y-53.7338 
G01 X-0.5587 Y-53.7085 
G01 X-0.5450 Y-53.6754 
G01 X-0.5450 Y-47.2896 
G01 X-0.5587 Y-47.2565 
G01 X-0.5840 Y-47.2312 
G01 X-0.6171 Y-47.2175 
G01 X-25.5767 Y-47.2175 
G01 X-25.6097 Y-47.2312 
G01 X-25.6350 Y-47.2565 
G01 X-25.6487 Y-47.2896 
G01 X-25.6487 Y-50.0750 
G01 X-36.3619 Y-50.0750 
G01 X-36.3585 Y-50.0494 
G01 X-36.3585 Y-49.8106 
G01 X-36.3897 Y-49.5739 
G01 X-36.4515 Y-49.3432 
G01 X-36.5428 Y-49.1226 
G01 X-36.6622 Y-48.9159 
G01 X-36.8076 Y-48.7264 
G01 X-36.9764 Y-48.5576 
G01 X-37.1659 Y-48.4122 
G01 X-37.3726 Y-48.2928 
G01 X-37.3750 Y-44.0431 
G01 X-37.3428 Y-43.9874 
G01 X-37.2515 Y-43.7668 
G01 X-37.1897 Y-43.5361 
G01 X-37.1585 Y-43.2994 
G01 X-37.1585 Y-43.0606 
G01 X-37.1897 Y-42.8239 
G01 X-37.2515 Y-42.5932 
G01 X-37.3428 Y-42.3726 
G01 X-37.3750 Y-42.3169 
G01 X-37.3750 Y-38.0681 
G01 X-37.1659 Y-37.9478 
G01 X-36.9764 Y-37.8024 
G01 X-36.8076 Y-37.6336 
G01 X-36.6622 Y-37.4441 
G01 X-36.5428 Y-37.2374 
G01 X-36.4515 Y-37.0168 
G01 X-36.3897 Y-36.7861 
G01 X-36.3585 Y-36.5494 
G01 X-36.3585 Y-36.3106 
G01 X-36.3897 Y-36.0739 
G01 X-36.4515 Y-35.8432 
G01 X-36.5428 Y-35.6226 
G01 X-36.6622 Y-35.4159 
G01 X-36.8076 Y-35.2264 
G01 X-36.9764 Y-35.0576 
G01 X-37.1659 Y-34.9122 
G01 X-37.3726 Y-34.7928 
G01 X-37.3750 Y-32.4750 
G01 X-32.3671 Y-32.4750 
G01 X-32.3340 Y-32.4613 
G01 X-32.3087 Y-32.4360 
G01 X-32.2950 Y-32.4029 
G01 X-32.2950 Y-24.1121 
G01 X-32.3087 Y-24.0790 
G01 X-32.3340 Y-24.0537 
G01 X-32.3671 Y-24.0400 
G01 X-41.1850 Y-24.0400 
G01 X-41.1850 Y-8.3450 
G01 X-33.0021 Y-8.3450 
G01 X-32.9690 Y-8.3313 
G01 X-32.9437 Y-8.3060 
G01 X-32.9300 Y-8.2729 
G00 Z1.0000 
G00 X-37.3368 Y-12.0737 
G01 Z-0.0800 F50.00 
G01 X-37.4737 Y-11.9368 F100.00 
G01 X-37.6346 Y-11.8293 
G01 X-37.8134 Y-11.7553 
G01 X-38.0032 Y-11.7175 
G01 X-38.1968 Y-11.7175 
G01 X-38.3866 Y-11.7553 
G01 X-38.5654 Y-11.8293 
G01 X-38.7263 Y-11.9368 
G01 X-38.8632 Y-12.0737 
G01 X-38.9707 Y-12.2346 
G01 X-39.0447 Y-12.4134 
G01 X-39.0825 Y-12.6032 
G01 X-39.0825 Y-12.7968 
G01 X-39.0447 Y-12.9866 
G01 X-38.9707 Y-13.1654 
G01 X-38.8632 Y-13.3263 
G01 X-38.7263 Y-13.4632 
G01 X-38.5654 Y-13.5707 
G01 X-38.3866 Y-13.6447 
G01 X-38.1968 Y-13.6825 
G01 X-38.0032 Y-13.6825 
G01 X-37.8134 Y-13.6447 
G01 X-37.6346 Y-13.5707 
G01 X-37.4737 Y-13.4632 
G01 X-37.3368 Y-13.3263 
G01 X-37.2293 Y-13.1654 
G01 X-37.1553 Y-12.9866 
G01 X-37.1175 Y-12.7968 
G01 X-37.1175 Y-12.6032 
G01 X-37.1553 Y-12.4134 
G01 X-37.2293 Y-12.2346 
G01 X-37.3368 Y-12.0737 
G00 Z1.0000 
G00 X-37.3368 Y-14.3637 
G01 Z-0.0800 F50.00 
G01 X-37.4737 Y-14.2268 F100.00 
G01 X-37.6346 Y-14.1193 
G01 X-37.8134 Y-14.0453 
G01 X-38.0032 Y-14.0075 
G01 X-38.1968 Y-14.0075 
G01 X-38.3866 Y-14.0453 
G01 X-38.5654 Y-14.1193 
G01 X-38.7263 Y-14.2268 
G01 X-38.8632 Y-14.3637 
G01 X-38.9707 Y-14.5246 
G01 X-39.0447 Y-14.7034 
G01 X-39.0825 Y-14.8932 
G01 X-39.0825 Y-15.0868 
G01 X-39.0447 Y-15.2766 
G01 X-38.9707 Y-15.4554 
G01 X-38.8632 Y-15.6163 
G01 X-38.7263 Y-15.7532 
G01 X-38.5654 Y-15.8607 
G01 X-38.3866 Y-15.9347 
G01 X-38.1968 Y-15.9725 
G01 X-38.0032 Y-15.9725 
G01 X-37.8134 Y-15.9347 
G01 X-37.6346 Y-15.8607 
G01 X-37.4737 Y-15.7532 
G01 X-37.3368 Y-15.6163 
G01 X-37.2293 Y-15.4554 
G01 X-37.1553 Y-15.2766 
G01 X-37.1175 Y-15.0868 
G01 X-37.1175 Y-14.8932 
G01 X-37.1553 Y-14.7034 
G01 X-37.2293 Y-14.5246 
G01 X-37.3368 Y-14.3637 
G00 Z1.0000 
G00 X-37.3368 Y-21.2337 
G01 Z-0.0800 F50.00 
G01 X-37.4737 Y-21.0968 F100.00 
G01 X-37.6346 Y-20.9893 
G01 X-37.8134 Y-20.9153 
G01 X-38.0032 Y-20.8775 
G01 X-38.1968 Y-20.8775 
G01 X-38.3866 Y-20.9153 
G01 X-38.5654 Y-20.9893 
G01 X-38.7263 Y-21.0968 
G01 X-38.8632 Y-21.2337 
G01 X-38.9707 Y-21.3946 
G01 X-39.0447 Y-21.5734 
G01 X-39.0825 Y-21.7632 
G01 X-39.0825 Y-21.9568 
G01 X-39.0447 Y-22.1466 
G01 X-38.9707 Y-22.3254 
G01 X-38.8632 Y-22.4863 
G01 X-38.7263 Y-22.6232 
G01 X-38.5654 Y-22.7307 
G01 X-38.3866 Y-22.8047 
G01 X-38.1968 Y-22.8425 
G01 X-38.0032 Y-22.8425 
G01 X-37.8134 Y-22.8047 
G01 X-37.6346 Y-22.7307 
G01 X-37.4737 Y-22.6232 
G01 X-37.3368 Y-22.4863 
G01 X-37.2293 Y-22.3254 
G01 X-37.1553 Y-22.1466 
G01 X-37.1175 Y-21.9568 
G01 X-37.1175 Y-21.7632 
G01 X-37.1553 Y-21.5734 
G01 X-37.2293 Y-21.3946 
G01 X-37.3368 Y-21.2337 
G00 Z1.0000 
G00 X-34.8632 Y-20.1963 
G01 Z-0.0800 F50.00 
G01 X-34.7263 Y-20.3332 F100.00 
G01 X-34.5654 Y-20.4407 
G01 X-34.3866 Y-20.5147 
G01 X-34.1968 Y-20.5525 
G01 X-34.0032 Y-20.5525 
G01 X-33.8134 Y-20.5147 
G01 X-33.6346 Y-20.4407 
G01 X-33.4737 Y-20.3332 
G01 X-33.3368 Y-20.1963 
G01 X-33.2293 Y-20.0354 
G01 X-33.1553 Y-19.8566 
G01 X-33.1175 Y-19.6668 
G01 X-33.1175 Y-19.4732 
G01 X-33.1553 Y-19.2834 
G01 X-33.2293 Y-19.1046 
G01 X-33.3368 Y-18.9437 
G01 X-33.4737 Y-18.8068 
G01 X-33.6346 Y-18.6993 
G01 X-33.8134 Y-18.6253 
G01 X-34.0032 Y-18.5875 
G01 X-34.1968 Y-18.5875 
G01 X-34.3866 Y-18.6253 
G01 X-34.5654 Y-18.6993 
G01 X-34.7263 Y-18.8068 
G01 X-34.8632 Y-18.9437 
G01 X-34.9707 Y-19.1046 
G01 X-35.0447 Y-19.2834 
G01 X-35.0825 Y-19.4732 
G01 X-35.0825 Y-19.6668 
G01 X-35.0447 Y-19.8566 
G01 X-34.9707 Y-20.0354 
G01 X-34.8632 Y-20.1963 
G00 Z1.0000 
G00 X-33.7060 Y-45.6437 
G01 Z-0.0800 F50.00 
G01 X-33.7313 Y-45.6690 F100.00 
G01 X-33.7450 Y-45.7021 
G01 X-33.7450 Y-47.6429 
G01 X-33.7313 Y-47.6760 
G01 X-33.7060 Y-47.7013 
G01 X-33.6729 Y-47.7150 
G01 X-31.7321 Y-47.7150 
G01 X-31.6990 Y-47.7013 
G01 X-31.6737 Y-47.6760 
G01 X-31.6600 Y-47.6429 
G01 X-31.6600 Y-45.7021 
G01 X-31.6737 Y-45.6690 
G01 X-31.6990 Y-45.6437 
G01 X-31.7321 Y-45.6300 
G01 X-33.6729 Y-45.6300 
G01 X-33.7060 Y-45.6437 
G00 Z1.0000 
G00 Z5.0000 
M05
M02
