(.../EAGLE-7.2.0/ulp/pcb-gcode/pcb-gcode.ulp)
(Copyright 2005 - 2012 by John Johnson)
(See readme.txt for licensing terms.)
(This file generated from the board:)
(.../EAGLE-7.2.0/projects/xc6lx9/lx9io.brd)
(Current profile is .../pcb-gcode/profiles/generic.pp  )
(This file generated 2020/03/27 22:07:47)
(Settings from pcb-machine.h)
(spindle on time = 2.0000)
(  Tool Size)
(0.1800 )
(spindle speed = 1000.0000)
(tool change at 0.0000 0.0000 5.0000 )
(feed rate xy = F100.00 )
(feed rate z  = F50.00 )
(Z Axis Settings)
(  High     Up        Down     Drill)
(5.0000 	1.0000 	-0.0800 	-1.8000 )
(Settings from pcb-defaults.h)
(isolate min = 0.0000)
(isolate max = 0.1500)
(isolate step = 0.1500)
(Generated top outlines, top drill, )
(Unit of measure: mm)
(Metric Mode)
G21
(Absolute Coordinates)
G90
S1000
G00 Z5.0000 
G00 X0.0000 Y0.0000 
M03
G04 P2.000000
G00 Z1.0000 
G00 X-0.0900 Y-0.0179 
G01 Z-0.0800 F50.00 
G01 X-0.0763 Y-0.0510 F100.00 
G01 X-0.0510 Y-0.0763 
G01 X-0.0179 Y-0.0900 
G01 X7.4400 Y-0.0900 
G01 X7.6158 Y-0.2005 
G01 X7.8820 Y-0.3286 
G01 X8.1608 Y-0.4262 
G01 X8.4488 Y-0.4919 
G01 X8.7423 Y-0.5250 
G01 X9.0377 Y-0.5250 
G01 X9.3312 Y-0.4919 
G01 X9.6192 Y-0.4262 
G01 X9.8980 Y-0.3286 
G01 X10.1642 Y-0.2005 
G01 X10.3400 Y-0.0900 
G01 X47.6429 Y-0.0900 
G01 X47.6760 Y-0.0763 
G01 X47.7013 Y-0.0510 
G01 X47.7150 Y-0.0179 
G01 X47.7150 Y3.8279 
G01 X47.7013 Y3.8610 
G01 X47.6760 Y3.8863 
G01 X47.6429 Y3.9000 
G01 X30.6229 Y3.9000 
G01 X30.5328 Y10.4800 
G01 X30.9179 Y10.4800 
G01 X30.9510 Y10.4937 
G01 X30.9763 Y10.5190 
G01 X30.9900 Y10.5521 
G01 X30.9900 Y11.9879 
G01 X30.9763 Y12.0210 
G01 X30.9510 Y12.0463 
G01 X30.9179 Y12.0600 
G01 X30.5111 Y12.0600 
G01 X30.5033 Y12.6331 
G01 X31.2986 Y13.3148 
G01 X34.1245 Y13.3148 
G01 X34.4157 Y13.0964 
G01 X34.3509 Y11.8301 
G01 X34.3782 Y11.7023 
G01 X34.4100 Y11.6401 
G01 X34.4100 Y11.1521 
G01 X34.4237 Y11.1190 
G01 X34.4490 Y11.0937 
G01 X34.4821 Y11.0800 
G01 X35.2179 Y11.0800 
G01 X35.2510 Y11.0937 
G01 X35.2763 Y11.1190 
G01 X35.2900 Y11.1521 
G01 X35.2900 Y11.6362 
G01 X35.3022 Y11.6550 
G01 X35.3424 Y11.7794 
G01 X35.4199 Y13.2926 
G01 X35.4256 Y13.3405 
G01 X35.4232 Y13.3576 
G01 X35.4241 Y13.3749 
G01 X35.4140 Y13.4221 
G01 X35.4072 Y13.4699 
G01 X35.4004 Y13.4858 
G01 X35.3968 Y13.5027 
G01 X35.3748 Y13.5457 
G01 X35.3558 Y13.5901 
G01 X35.3451 Y13.6037 
G01 X35.3373 Y13.6191 
G01 X35.3049 Y13.6549 
G01 X35.2751 Y13.6929 
G01 X35.2613 Y13.7033 
G01 X35.2497 Y13.7161 
G01 X35.2092 Y13.7424 
G01 X34.6161 Y14.1872 
G01 X34.5948 Y14.2085 
G01 X34.5640 Y14.2262 
G01 X34.5356 Y14.2476 
G01 X34.5077 Y14.2588 
G01 X34.4816 Y14.2738 
G01 X34.4472 Y14.2830 
G01 X34.4143 Y14.2963 
G01 X34.3844 Y14.2999 
G01 X34.3554 Y14.3076 
G01 X34.3198 Y14.3076 
G01 X34.2845 Y14.3119 
G01 X34.2547 Y14.3076 
G01 X31.1341 Y14.3076 
G01 X31.0879 Y14.3112 
G01 X31.0689 Y14.3076 
G01 X31.0496 Y14.3076 
G01 X31.0049 Y14.2957 
G01 X30.9594 Y14.2872 
G01 X30.9420 Y14.2788 
G01 X30.9234 Y14.2738 
G01 X30.8833 Y14.2507 
G01 X30.8416 Y14.2307 
G01 X30.8269 Y14.2181 
G01 X30.8102 Y14.2085 
G01 X30.7775 Y14.1757 
G01 X29.7131 Y13.2634 
G01 X29.6935 Y13.2518 
G01 X29.6636 Y13.2210 
G01 X29.6311 Y13.1931 
G01 X29.6182 Y13.1744 
G01 X29.6024 Y13.1581 
G01 X29.5815 Y13.1206 
G01 X29.5572 Y13.0853 
G01 X29.5497 Y13.0638 
G01 X29.5386 Y13.0440 
G01 X29.5281 Y13.0024 
G01 X29.5138 Y12.9620 
G01 X29.5121 Y12.9393 
G01 X29.5065 Y12.9173 
G01 X29.5071 Y12.8744 
G01 X29.5038 Y12.8317 
G01 X29.5080 Y12.8093 
G01 X29.5182 Y12.0600 
G01 X29.2821 Y12.0600 
G01 X29.2490 Y12.0463 
G01 X29.2237 Y12.0210 
G01 X29.2100 Y11.9879 
G01 X29.2100 Y10.5521 
G01 X29.2237 Y10.5190 
G01 X29.2490 Y10.4937 
G01 X29.2821 Y10.4800 
G01 X29.5399 Y10.4800 
G01 X29.6300 Y3.9000 
G01 X27.9221 Y3.9000 
G01 X27.8890 Y3.8863 
G01 X27.8637 Y3.8610 
G01 X27.8500 Y3.8279 
G01 X27.8500 Y1.9950 
G01 X12.1550 Y1.9950 
G01 X12.1550 Y5.0979 
G01 X12.1413 Y5.1310 
G01 X12.1160 Y5.1563 
G01 X12.0829 Y5.1700 
G01 X2.6300 Y5.1700 
G01 X2.6300 Y21.0936 
G01 X7.4144 Y21.0936 
G01 X7.8475 Y20.6605 
G01 X7.8475 Y19.1115 
G01 X7.8612 Y19.0784 
G01 X7.8865 Y19.0531 
G01 X7.9196 Y19.0394 
G01 X8.3936 Y19.0394 
G01 X8.3936 Y18.9019 
G01 X7.9196 Y18.9019 
G01 X7.8865 Y18.8882 
G01 X7.8612 Y18.8629 
G01 X7.8475 Y18.8298 
G01 X7.8475 Y16.8096 
G01 X7.8612 Y16.7765 
G01 X7.8865 Y16.7512 
G01 X7.9196 Y16.7375 
G01 X8.3936 Y16.7375 
G01 X8.3936 Y16.6000 
G01 X7.9196 Y16.6000 
G01 X7.8865 Y16.5863 
G01 X7.8612 Y16.5610 
G01 X7.8475 Y16.5279 
G01 X7.8475 Y14.5077 
G01 X7.8612 Y14.4746 
G01 X7.8865 Y14.4493 
G01 X7.9196 Y14.4356 
G01 X8.3936 Y14.4356 
G01 X8.3936 Y14.2981 
G01 X7.9196 Y14.2981 
G01 X7.8865 Y14.2844 
G01 X7.8612 Y14.2591 
G01 X7.8475 Y14.2260 
G01 X7.8475 Y12.2058 
G01 X7.8612 Y12.1728 
G01 X7.8865 Y12.1474 
G01 X7.9196 Y12.1337 
G01 X8.3936 Y12.1337 
G01 X8.3936 Y11.9962 
G01 X7.9196 Y11.9962 
G01 X7.8865 Y11.9825 
G01 X7.8612 Y11.9572 
G01 X7.8475 Y11.9241 
G01 X7.8475 Y9.9040 
G01 X7.8612 Y9.8709 
G01 X7.8865 Y9.8456 
G01 X7.9196 Y9.8319 
G01 X9.2891 Y9.8319 
G01 X9.7282 Y9.3928 
G01 X9.8414 Y9.3274 
G01 X9.9676 Y9.2936 
G01 X10.3875 Y9.2936 
G01 X10.3875 Y8.7927 
G01 X10.4012 Y8.7596 
G01 X10.4265 Y8.7343 
G01 X10.4596 Y8.7206 
G01 X12.4004 Y8.7206 
G01 X12.4335 Y8.7343 
G01 X12.4588 Y8.7596 
G01 X12.4725 Y8.7927 
G01 X12.4725 Y10.8129 
G01 X12.4588 Y10.8460 
G01 X12.4335 Y10.8713 
G01 X12.4004 Y10.8850 
G01 X10.4596 Y10.8850 
G01 X10.4265 Y10.8713 
G01 X10.4012 Y10.8460 
G01 X10.3875 Y10.8129 
G01 X10.3875 Y10.2864 
G01 X10.2386 Y10.2864 
G01 X9.9325 Y10.5925 
G01 X9.9325 Y11.9241 
G01 X9.9188 Y11.9572 
G01 X9.8935 Y11.9825 
G01 X9.8604 Y11.9962 
G01 X9.3864 Y11.9962 
G01 X9.3864 Y12.1337 
G01 X9.8604 Y12.1337 
G01 X9.8935 Y12.1474 
G01 X9.9188 Y12.1728 
G01 X9.9325 Y12.2058 
G01 X9.9325 Y14.2260 
G01 X9.9188 Y14.2591 
G01 X9.8935 Y14.2844 
G01 X9.8604 Y14.2981 
G01 X9.3864 Y14.2981 
G01 X9.3864 Y14.4356 
G01 X9.8604 Y14.4356 
G01 X9.8935 Y14.4493 
G01 X9.9188 Y14.4746 
G01 X9.9325 Y14.5077 
G01 X9.9325 Y16.5279 
G01 X9.9188 Y16.5610 
G01 X9.8935 Y16.5863 
G01 X9.8604 Y16.6000 
G01 X9.3864 Y16.6000 
G01 X9.3864 Y16.7375 
G01 X9.8604 Y16.7375 
G01 X9.8935 Y16.7512 
G01 X9.9188 Y16.7765 
G01 X9.9325 Y16.8096 
G01 X9.9325 Y18.8298 
G01 X9.9188 Y18.8629 
G01 X9.8935 Y18.8882 
G01 X9.8604 Y18.9019 
G01 X9.3864 Y18.9019 
G01 X9.3864 Y19.0394 
G01 X9.8604 Y19.0394 
G01 X9.8935 Y19.0531 
G01 X9.9188 Y19.0784 
G01 X9.9325 Y19.1115 
G01 X9.9325 Y21.1317 
G01 X9.9188 Y21.1647 
G01 X9.8935 Y21.1900 
G01 X9.8604 Y21.2037 
G01 X8.7083 Y21.2037 
G01 X8.0172 Y21.8948 
G01 X7.9248 Y21.9872 
G01 X7.8116 Y22.0526 
G01 X7.6854 Y22.0864 
G01 X2.7456 Y22.0864 
G01 X2.6300 Y22.2020 
G01 X2.6300 Y22.9288 
G01 X13.4323 Y22.9288 
G01 X13.4654 Y22.9425 
G01 X13.4907 Y22.9678 
G01 X13.5044 Y23.0008 
G01 X13.5044 Y29.2608 
G01 X17.4108 Y31.9653 
G01 X17.4498 Y31.9878 
G01 X17.4644 Y32.0023 
G01 X17.4813 Y32.0141 
G01 X17.5104 Y32.0484 
G01 X17.5422 Y32.0802 
G01 X17.5525 Y32.0980 
G01 X17.5658 Y32.1137 
G01 X17.5851 Y32.1544 
G01 X17.6076 Y32.1934 
G01 X17.6129 Y32.2133 
G01 X17.6217 Y32.2319 
G01 X17.6298 Y32.2762 
G01 X17.6414 Y32.3196 
G01 X17.6414 Y32.3402 
G01 X17.6451 Y32.3605 
G01 X17.6414 Y32.4054 
G01 X17.6414 Y38.5294 
G01 X17.9856 Y38.8736 
G01 X19.3569 Y38.8736 
G01 X19.3569 Y38.4790 
G01 X19.3706 Y38.4459 
G01 X19.3959 Y38.4206 
G01 X19.4290 Y38.4069 
G01 X19.8627 Y38.4069 
G01 X19.9040 Y38.3656 
G01 X20.7360 Y38.3656 
G01 X20.7773 Y38.4069 
G01 X21.2110 Y38.4069 
G01 X21.2441 Y38.4206 
G01 X21.2694 Y38.4459 
G01 X21.2831 Y38.4790 
G01 X21.2831 Y38.9127 
G01 X21.3244 Y38.9540 
G01 X21.3244 Y39.7860 
G01 X21.2831 Y39.8273 
G01 X21.2831 Y40.2610 
G01 X21.2694 Y40.2941 
G01 X21.2441 Y40.3194 
G01 X21.2110 Y40.3331 
G01 X20.7773 Y40.3331 
G01 X20.7360 Y40.3744 
G01 X19.9040 Y40.3744 
G01 X19.8627 Y40.3331 
G01 X19.4290 Y40.3331 
G01 X19.3959 Y40.3194 
G01 X19.3706 Y40.2941 
G01 X19.3569 Y40.2610 
G01 X19.3569 Y39.8664 
G01 X17.7146 Y39.8664 
G01 X17.5884 Y39.8326 
G01 X17.4752 Y39.7672 
G01 X16.8402 Y39.1322 
G01 X16.7478 Y39.0398 
G01 X16.6824 Y38.9266 
G01 X16.6486 Y38.8004 
G01 X16.6486 Y32.6451 
G01 X13.4219 Y30.4112 
G01 X8.0275 Y30.4112 
G01 X8.0275 Y30.8713 
G01 X8.0603 Y30.9939 
G01 X8.0915 Y31.2306 
G01 X8.0915 Y31.4694 
G01 X8.0603 Y31.7061 
G01 X8.0275 Y31.8287 
G01 X8.0275 Y44.1536 
G01 X8.7736 Y44.1536 
G01 X8.7736 Y42.4762 
G01 X8.3958 Y42.4762 
G01 X8.3628 Y42.4625 
G01 X8.3375 Y42.4372 
G01 X8.3238 Y42.4042 
G01 X8.3238 Y40.6221 
G01 X8.3375 Y40.5890 
G01 X8.3628 Y40.5637 
G01 X8.3958 Y40.5500 
G01 X10.1779 Y40.5500 
G01 X10.2110 Y40.5637 
G01 X10.2363 Y40.5890 
G01 X10.2500 Y40.6221 
G01 X10.2500 Y42.4042 
G01 X10.2363 Y42.4372 
G01 X10.2110 Y42.4625 
G01 X10.1779 Y42.4762 
G01 X9.7664 Y42.4762 
G01 X9.7664 Y44.1536 
G01 X29.0311 Y44.1536 
G01 X29.0311 Y43.5000 
G01 X28.7596 Y43.5000 
G01 X28.7265 Y43.4863 
G01 X28.7012 Y43.4610 
G01 X28.6875 Y43.4279 
G01 X28.6875 Y42.0921 
G01 X28.7012 Y42.0590 
G01 X28.7265 Y42.0337 
G01 X28.7596 Y42.0200 
G01 X30.2954 Y42.0200 
G01 X30.3285 Y42.0337 
G01 X30.3538 Y42.0590 
G01 X30.3675 Y42.0921 
G01 X30.3675 Y43.4279 
G01 X30.3538 Y43.4610 
G01 X30.3285 Y43.4863 
G01 X30.2954 Y43.5000 
G01 X30.0239 Y43.5000 
G01 X30.0239 Y44.1536 
G01 X32.2061 Y44.1536 
G01 X32.2061 Y43.5000 
G01 X31.9346 Y43.5000 
G01 X31.9015 Y43.4863 
G01 X31.8762 Y43.4610 
G01 X31.8625 Y43.4279 
G01 X31.8625 Y42.0921 
G01 X31.8762 Y42.0590 
G01 X31.9015 Y42.0337 
G01 X31.9346 Y42.0200 
G01 X33.4704 Y42.0200 
G01 X33.5035 Y42.0337 
G01 X33.5288 Y42.0590 
G01 X33.5425 Y42.0921 
G01 X33.5425 Y43.4279 
G01 X33.5288 Y43.4610 
G01 X33.5035 Y43.4863 
G01 X33.4704 Y43.5000 
G01 X33.1989 Y43.5000 
G01 X33.1989 Y44.1536 
G01 X49.1352 Y44.1536 
G01 X49.1352 Y43.7732 
G01 X49.0089 Y43.7732 
G01 X48.9758 Y43.7595 
G01 X48.9505 Y43.7342 
G01 X48.9368 Y43.7011 
G01 X48.9368 Y42.6589 
G01 X48.9505 Y42.6258 
G01 X48.9758 Y42.6005 
G01 X49.0089 Y42.5868 
G01 X50.0511 Y42.5868 
G01 X50.0842 Y42.6005 
G01 X50.1095 Y42.6258 
G01 X50.1232 Y42.6589 
G01 X50.1232 Y43.7011 
G01 X50.1095 Y43.7342 
G01 X50.0842 Y43.7595 
G01 X50.0511 Y43.7732 
G01 X49.9248 Y43.7732 
G01 X49.9248 Y44.3428 
G01 X49.9926 Y44.4584 
G01 X50.0264 Y44.5846 
G01 X50.0264 Y44.7154 
G01 X49.9926 Y44.8416 
G01 X49.9272 Y44.9548 
G01 X49.8348 Y45.0472 
G01 X49.7216 Y45.1126 
G01 X49.6200 Y45.1398 
G01 X49.6200 Y45.7379 
G01 X49.6063 Y45.7710 
G01 X49.5810 Y45.7963 
G01 X49.5479 Y45.8100 
G01 X7.8190 Y45.8100 
G01 X7.7878 Y45.8641 
G01 X7.6424 Y46.0536 
G01 X7.4736 Y46.2224 
G01 X7.2841 Y46.3678 
G01 X7.0774 Y46.4872 
G01 X6.8568 Y46.5785 
G01 X6.6261 Y46.6403 
G01 X6.3894 Y46.6715 
G01 X6.1506 Y46.6715 
G01 X5.9139 Y46.6403 
G01 X5.6832 Y46.5785 
G01 X5.4626 Y46.4872 
G01 X5.2559 Y46.3678 
G01 X5.0664 Y46.2224 
G01 X4.8976 Y46.0536 
G01 X4.7522 Y45.8641 
G01 X4.7210 Y45.8100 
G01 X-0.0179 Y45.8100 
G01 X-0.0510 Y45.7963 
G01 X-0.0763 Y45.7710 
G01 X-0.0900 Y45.7379 
G01 X-0.0900 Y-0.0179 
G00 Z1.0000 
G00 X3.6102 Y7.5607 
G01 Z-0.0800 F50.00 
G01 X3.6208 Y7.5533 F100.00 
G01 X3.6523 Y7.5312 
G01 X5.2083 Y6.4420 
G01 X5.2398 Y6.4200 
G01 X5.2610 Y6.4052 
G01 X5.2731 Y6.4007 
G01 X5.2843 Y6.3943 
G01 X5.3093 Y6.3876 
G01 X5.3335 Y6.3788 
G01 X5.3464 Y6.3776 
G01 X5.3589 Y6.3743 
G01 X5.3847 Y6.3743 
G01 X5.4104 Y6.3721 
G01 X5.4232 Y6.3743 
G01 X11.9436 Y6.3743 
G01 X14.7425 Y3.5754 
G01 X14.8093 Y3.5368 
G01 X14.8839 Y3.5168 
G01 X19.3156 Y3.5168 
G01 X19.3156 Y3.3940 
G01 X19.3569 Y3.3527 
G01 X19.3569 Y2.9190 
G01 X19.3706 Y2.8859 
G01 X19.3959 Y2.8606 
G01 X19.4290 Y2.8469 
G01 X19.8627 Y2.8469 
G01 X19.9040 Y2.8056 
G01 X20.7360 Y2.8056 
G01 X20.7773 Y2.8469 
G01 X21.2110 Y2.8469 
G01 X21.2441 Y2.8606 
G01 X21.2694 Y2.8859 
G01 X21.2831 Y2.9190 
G01 X21.2831 Y3.3527 
G01 X21.3244 Y3.3940 
G01 X21.3244 Y4.2260 
G01 X21.2831 Y4.2673 
G01 X21.2831 Y4.7010 
G01 X21.2694 Y4.7341 
G01 X21.2441 Y4.7594 
G01 X21.2110 Y4.7731 
G01 X20.7773 Y4.7731 
G01 X20.7360 Y4.8144 
G01 X19.9040 Y4.8144 
G01 X19.8627 Y4.7731 
G01 X19.4290 Y4.7731 
G01 X19.3959 Y4.7594 
G01 X19.3706 Y4.7341 
G01 X19.3569 Y4.7010 
G01 X19.3569 Y4.2673 
G01 X19.3156 Y4.2260 
G01 X19.3156 Y4.1032 
G01 X15.0439 Y4.1032 
G01 X12.2996 Y6.8475 
G01 X12.2450 Y6.9021 
G01 X12.1782 Y6.9407 
G01 X12.1036 Y6.9607 
G01 X5.4899 Y6.9607 
G01 X4.1032 Y7.9314 
G01 X4.1032 Y11.9762 
G01 X5.1014 Y13.4736 
G01 X5.3075 Y13.4736 
G01 X5.3075 Y13.3171 
G01 X5.3212 Y13.2840 
G01 X5.3465 Y13.2587 
G01 X5.3796 Y13.2450 
G01 X7.3204 Y13.2450 
G01 X7.3535 Y13.2587 
G01 X7.3788 Y13.2840 
G01 X7.3925 Y13.3171 
G01 X7.3925 Y15.3373 
G01 X7.3788 Y15.3704 
G01 X7.3535 Y15.3957 
G01 X7.3204 Y15.4094 
G01 X5.3796 Y15.4094 
G01 X5.3465 Y15.3957 
G01 X5.3212 Y15.3704 
G01 X5.3075 Y15.3373 
G01 X5.3075 Y14.4664 
G01 X5.0146 Y14.4664 
G01 X4.8884 Y14.4326 
G01 X4.7752 Y14.3672 
G01 X4.6828 Y14.2748 
G01 X4.6174 Y14.1616 
G01 X4.5836 Y14.0354 
G01 X4.5836 Y13.9046 
G01 X4.6124 Y13.7972 
G01 X3.5821 Y12.2518 
G01 X3.5608 Y12.2198 
G01 X3.5446 Y12.1955 
G01 X3.5368 Y12.1782 
G01 X3.5292 Y12.1500 
G01 X3.5199 Y12.1224 
G01 X3.5168 Y12.1036 
G01 X3.5168 Y12.0744 
G01 X3.5149 Y12.0453 
G01 X3.5168 Y7.7915 
G01 X3.5146 Y7.7658 
G01 X3.5168 Y7.7531 
G01 X3.5168 Y7.7401 
G01 X3.5235 Y7.7152 
G01 X3.5280 Y7.6898 
G01 X3.5334 Y7.6781 
G01 X3.5368 Y7.6656 
G01 X3.5497 Y7.6432 
G01 X3.5606 Y7.6198 
G01 X3.5754 Y7.5987 
G01 X3.5937 Y7.5804 
G01 X3.6102 Y7.5607 
G00 Z1.0000 
G00 X4.4090 Y8.0325 
G01 Z-0.0800 F50.00 
G01 X4.4170 Y8.0272 F100.00 
G01 X4.4490 Y8.0058 
G01 X5.8457 Y7.0747 
G01 X5.8777 Y7.0533 
G01 X5.9020 Y7.0371 
G01 X5.9193 Y7.0293 
G01 X5.9475 Y7.0217 
G01 X5.9751 Y7.0124 
G01 X5.9939 Y7.0093 
G01 X6.0231 Y7.0093 
G01 X6.0522 Y7.0074 
G01 X12.2610 Y7.0093 
G01 X14.4250 Y4.8454 
G01 X14.4918 Y4.8068 
G01 X14.5664 Y4.7868 
G01 X17.9761 Y4.7868 
G01 X17.9968 Y4.7660 
G01 X18.0637 Y4.7274 
G01 X18.1383 Y4.7074 
G01 X18.2155 Y4.7074 
G01 X18.2900 Y4.7274 
G01 X18.3569 Y4.7660 
G01 X18.4115 Y4.8206 
G01 X18.4213 Y4.8376 
G01 X21.3555 Y4.8376 
G01 X21.8934 Y4.2638 
G01 X21.8556 Y4.2260 
G01 X21.8556 Y3.3940 
G01 X21.8969 Y3.3527 
G01 X21.8969 Y2.9190 
G01 X21.9106 Y2.8859 
G01 X21.9359 Y2.8606 
G01 X21.9690 Y2.8469 
G01 X22.4027 Y2.8469 
G01 X22.4440 Y2.8056 
G01 X23.2760 Y2.8056 
G01 X23.3173 Y2.8469 
G01 X23.7510 Y2.8469 
G01 X23.7841 Y2.8606 
G01 X23.8094 Y2.8859 
G01 X23.8231 Y2.9190 
G01 X23.8231 Y3.3527 
G01 X23.8644 Y3.3940 
G01 X23.8644 Y4.2260 
G01 X23.8231 Y4.2673 
G01 X23.8231 Y4.7010 
G01 X23.8094 Y4.7341 
G01 X23.7841 Y4.7594 
G01 X23.7510 Y4.7731 
G01 X23.3173 Y4.7731 
G01 X23.2760 Y4.8144 
G01 X22.4595 Y4.8144 
G01 X21.9218 Y5.3879 
G01 X21.8335 Y5.4428 
G01 X21.7341 Y5.4729 
G01 X21.6302 Y5.4763 
G01 X21.5289 Y5.4526 
G01 X21.4373 Y5.4036 
G01 X21.3614 Y5.3325 
G01 X21.3552 Y5.3224 
G01 X18.3434 Y5.3224 
G01 X18.2900 Y5.3532 
G01 X18.2155 Y5.3732 
G01 X14.7264 Y5.3732 
G01 X12.6171 Y7.4825 
G01 X12.5625 Y7.5371 
G01 X12.4957 Y7.5757 
G01 X12.4211 Y7.5957 
G01 X6.1213 Y7.5957 
G01 X4.8969 Y8.4119 
G01 X4.8969 Y10.8936 
G01 X5.1862 Y11.5686 
G01 X5.3075 Y11.5686 
G01 X5.3075 Y11.0946 
G01 X5.3212 Y11.0615 
G01 X5.3465 Y11.0362 
G01 X5.3796 Y11.0225 
G01 X7.3204 Y11.0225 
G01 X7.3535 Y11.0362 
G01 X7.3788 Y11.0615 
G01 X7.3925 Y11.0946 
G01 X7.3925 Y13.1148 
G01 X7.3788 Y13.1479 
G01 X7.3535 Y13.1732 
G01 X7.3204 Y13.1869 
G01 X5.3796 Y13.1869 
G01 X5.3465 Y13.1732 
G01 X5.3212 Y13.1479 
G01 X5.3075 Y13.1148 
G01 X5.3075 Y12.5614 
G01 X5.0146 Y12.5614 
G01 X4.8884 Y12.5276 
G01 X4.7752 Y12.4622 
G01 X4.6828 Y12.3698 
G01 X4.6174 Y12.2566 
G01 X4.5836 Y12.1304 
G01 X4.5836 Y11.9996 
G01 X4.6174 Y11.8734 
G01 X4.6527 Y11.8123 
G01 X4.3411 Y11.0853 
G01 X4.3305 Y11.0669 
G01 X4.3260 Y11.0499 
G01 X4.3190 Y11.0338 
G01 X4.3160 Y11.0128 
G01 X4.3106 Y10.9924 
G01 X4.3106 Y10.9748 
G01 X4.3080 Y10.9574 
G01 X4.3106 Y10.9363 
G01 X4.3106 Y8.2644 
G01 X4.3087 Y8.2353 
G01 X4.3106 Y8.2164 
G01 X4.3181 Y8.1882 
G01 X4.3238 Y8.1596 
G01 X4.3305 Y8.1418 
G01 X4.3451 Y8.1166 
G01 X4.3580 Y8.0904 
G01 X4.3691 Y8.0750 
G01 X4.3898 Y8.0543 
G01 X4.4090 Y8.0325 
G00 Z1.0000 
G00 X5.3212 Y8.7596 
G01 Z-0.0800 F50.00 
G01 X5.3465 Y8.7343 F100.00 
G01 X5.3796 Y8.7206 
G01 X7.3204 Y8.7206 
G01 X7.3535 Y8.7343 
G01 X7.3788 Y8.7596 
G01 X7.3925 Y8.7927 
G01 X7.3925 Y10.8129 
G01 X7.3788 Y10.8460 
G01 X7.3535 Y10.8713 
G01 X7.3204 Y10.8850 
G01 X5.3796 Y10.8850 
G01 X5.3465 Y10.8713 
G01 X5.3212 Y10.8460 
G01 X5.3075 Y10.8129 
G01 X5.3075 Y8.7927 
G01 X5.3212 Y8.7596 
G00 Z1.0000 
G00 X5.3212 Y15.5859 
G01 Z-0.0800 F50.00 
G01 X5.3465 Y15.5606 F100.00 
G01 X5.3796 Y15.5469 
G01 X7.3204 Y15.5469 
G01 X7.3535 Y15.5606 
G01 X7.3788 Y15.5859 
G01 X7.3925 Y15.6190 
G01 X7.3925 Y17.6392 
G01 X7.3788 Y17.6722 
G01 X7.3535 Y17.6975 
G01 X7.3204 Y17.7112 
G01 X5.3796 Y17.7112 
G01 X5.3465 Y17.6975 
G01 X5.3212 Y17.6722 
G01 X5.3075 Y17.6392 
G01 X5.3075 Y15.6190 
G01 X5.3212 Y15.5859 
G00 Z1.0000 
G00 X5.3212 Y17.8878 
G01 Z-0.0800 F50.00 
G01 X5.3465 Y17.8624 F100.00 
G01 X5.3796 Y17.8487 
G01 X7.3204 Y17.8487 
G01 X7.3535 Y17.8624 
G01 X7.3788 Y17.8878 
G01 X7.3925 Y17.9208 
G01 X7.3925 Y19.9410 
G01 X7.3788 Y19.9741 
G01 X7.3535 Y19.9994 
G01 X7.3204 Y20.0131 
G01 X5.3796 Y20.0131 
G01 X5.3465 Y19.9994 
G01 X5.3212 Y19.9741 
G01 X5.3075 Y19.9410 
G01 X5.3075 Y17.9208 
G01 X5.3212 Y17.8878 
G00 Z1.0000 
G00 X10.4012 Y17.8878 
G01 Z-0.0800 F50.00 
G01 X10.4265 Y17.8624 F100.00 
G01 X10.4596 Y17.8487 
G01 X12.4004 Y17.8487 
G01 X12.4335 Y17.8624 
G01 X12.4588 Y17.8878 
G01 X12.4725 Y17.9208 
G01 X12.4725 Y19.9410 
G01 X12.4588 Y19.9741 
G01 X12.4335 Y19.9994 
G01 X12.4004 Y20.0131 
G01 X11.9264 Y20.0131 
G01 X11.9264 Y20.6319 
G01 X14.8200 Y21.0768 
G01 X14.8200 Y20.7721 
G01 X14.8337 Y20.7390 
G01 X14.8590 Y20.7137 
G01 X14.8921 Y20.7000 
G01 X16.2279 Y20.7000 
G01 X16.2610 Y20.7137 
G01 X16.2863 Y20.7390 
G01 X16.3000 Y20.7721 
G01 X16.3000 Y22.4079 
G01 X16.2863 Y22.4410 
G01 X16.2610 Y22.4663 
G01 X16.2279 Y22.4800 
G01 X15.9548 Y22.4800 
G01 X15.9548 Y23.2400 
G01 X16.2279 Y23.2400 
G01 X16.2610 Y23.2537 
G01 X16.2863 Y23.2790 
G01 X16.3000 Y23.3121 
G01 X16.3000 Y24.9479 
G01 X16.2863 Y24.9810 
G01 X16.2610 Y25.0063 
G01 X16.2279 Y25.0200 
G01 X15.9548 Y25.0200 
G01 X15.9548 Y25.7800 
G01 X16.2279 Y25.7800 
G01 X16.2610 Y25.7937 
G01 X16.2863 Y25.8190 
G01 X16.3000 Y25.8521 
G01 X16.3000 Y27.4879 
G01 X16.2863 Y27.5210 
G01 X16.2610 Y27.5463 
G01 X16.2279 Y27.5600 
G01 X14.8921 Y27.5600 
G01 X14.8590 Y27.5463 
G01 X14.8337 Y27.5210 
G01 X14.8200 Y27.4879 
G01 X14.8200 Y25.8521 
G01 X14.8337 Y25.8190 
G01 X14.8590 Y25.7937 
G01 X14.8921 Y25.7800 
G01 X15.1652 Y25.7800 
G01 X15.1652 Y25.0200 
G01 X14.8921 Y25.0200 
G01 X14.8590 Y25.0063 
G01 X14.8337 Y24.9810 
G01 X14.8200 Y24.9479 
G01 X14.8200 Y23.3121 
G01 X14.8337 Y23.2790 
G01 X14.8590 Y23.2537 
G01 X14.8921 Y23.2400 
G01 X15.1652 Y23.2400 
G01 X15.1652 Y22.4800 
G01 X14.8921 Y22.4800 
G01 X14.8590 Y22.4663 
G01 X14.8337 Y22.4410 
G01 X14.8200 Y22.4079 
G01 X14.8200 Y21.8757 
G01 X11.6677 Y21.3910 
G01 X11.6216 Y21.4176 
G01 X11.4954 Y21.4514 
G01 X11.3646 Y21.4514 
G01 X11.2384 Y21.4176 
G01 X11.1252 Y21.3522 
G01 X11.0328 Y21.2598 
G01 X10.9674 Y21.1466 
G01 X10.9336 Y21.0204 
G01 X10.9336 Y20.0131 
G01 X10.4596 Y20.0131 
G01 X10.4265 Y19.9994 
G01 X10.4012 Y19.9741 
G01 X10.3875 Y19.9410 
G01 X10.3875 Y17.9208 
G01 X10.4012 Y17.8878 
G00 Z1.0000 
G00 X10.4265 Y17.6975 
G01 Z-0.0800 F50.00 
G01 X10.4012 Y17.6722 F100.00 
G01 X10.3875 Y17.6392 
G01 X10.3875 Y15.6190 
G01 X10.4012 Y15.5859 
G01 X10.4265 Y15.5606 
G01 X10.4596 Y15.5469 
G01 X12.4004 Y15.5469 
G01 X12.4335 Y15.5606 
G01 X12.4588 Y15.5859 
G01 X12.4725 Y15.6190 
G01 X12.4725 Y16.1516 
G01 X13.2624 Y16.1516 
G01 X13.3886 Y16.1854 
G01 X13.5018 Y16.2508 
G01 X13.5942 Y16.3432 
G01 X13.7347 Y16.4837 
G01 X13.8001 Y16.5969 
G01 X13.8339 Y16.7231 
G01 X13.8339 Y16.7397 
G01 X14.2557 Y17.1874 
G01 X15.1652 Y18.0969 
G01 X15.1652 Y15.4950 
G01 X14.8921 Y15.4950 
G01 X14.8590 Y15.4813 
G01 X14.8337 Y15.4560 
G01 X14.8200 Y15.4229 
G01 X14.8200 Y13.7871 
G01 X14.8337 Y13.7540 
G01 X14.8590 Y13.7287 
G01 X14.8921 Y13.7150 
G01 X15.1652 Y13.7150 
G01 X15.1652 Y12.9550 
G01 X14.8921 Y12.9550 
G01 X14.8590 Y12.9413 
G01 X14.8337 Y12.9160 
G01 X14.8200 Y12.8829 
G01 X14.8200 Y11.2471 
G01 X14.8337 Y11.2140 
G01 X14.8590 Y11.1887 
G01 X14.8921 Y11.1750 
G01 X16.2279 Y11.1750 
G01 X16.2610 Y11.1887 
G01 X16.2863 Y11.2140 
G01 X16.3000 Y11.2471 
G01 X16.3000 Y12.8829 
G01 X16.2863 Y12.9160 
G01 X16.2610 Y12.9413 
G01 X16.2279 Y12.9550 
G01 X15.9548 Y12.9550 
G01 X15.9548 Y13.7150 
G01 X16.2279 Y13.7150 
G01 X16.2610 Y13.7287 
G01 X16.2863 Y13.7540 
G01 X16.3000 Y13.7871 
G01 X16.3000 Y15.4229 
G01 X16.2863 Y15.4560 
G01 X16.2610 Y15.4813 
G01 X16.2279 Y15.4950 
G01 X15.9548 Y15.4950 
G01 X15.9548 Y18.1600 
G01 X16.2279 Y18.1600 
G01 X16.2610 Y18.1737 
G01 X16.2863 Y18.1990 
G01 X16.3000 Y18.2321 
G01 X16.3000 Y19.8679 
G01 X16.2863 Y19.9010 
G01 X16.2610 Y19.9263 
G01 X16.2279 Y19.9400 
G01 X14.8921 Y19.9400 
G01 X14.8590 Y19.9263 
G01 X14.8337 Y19.9010 
G01 X14.8200 Y19.8679 
G01 X14.8200 Y18.8683 
G01 X13.7259 Y17.7742 
G01 X13.6892 Y17.7375 
G01 X13.6566 Y17.7049 
G01 X13.2596 Y17.2815 
G01 X13.1459 Y17.2511 
G01 X13.0327 Y17.1857 
G01 X12.9914 Y17.1444 
G01 X12.4725 Y17.1444 
G01 X12.4725 Y17.6392 
G01 X12.4588 Y17.6722 
G01 X12.4335 Y17.6975 
G01 X12.4004 Y17.7112 
G01 X10.4596 Y17.7112 
G01 X10.4265 Y17.6975 
G00 Z1.0000 
G00 X10.4265 Y15.3957 
G01 Z-0.0800 F50.00 
G01 X10.4012 Y15.3704 F100.00 
G01 X10.3875 Y15.3373 
G01 X10.3875 Y13.3171 
G01 X10.4012 Y13.2840 
G01 X10.4265 Y13.2587 
G01 X10.4596 Y13.2450 
G01 X12.4004 Y13.2450 
G01 X12.4335 Y13.2587 
G01 X12.4588 Y13.2840 
G01 X12.4725 Y13.3171 
G01 X12.4725 Y13.8524 
G01 X12.9402 Y13.8184 
G01 X12.9402 Y10.1719 
G01 X12.9378 Y10.1318 
G01 X12.9402 Y10.1200 
G01 X12.9402 Y10.1080 
G01 X12.9506 Y10.0693 
G01 X12.9586 Y10.0299 
G01 X12.9640 Y10.0192 
G01 X12.9671 Y10.0076 
G01 X12.9872 Y9.9729 
G01 X13.0051 Y9.9369 
G01 X13.0191 Y9.9176 
G01 X13.0475 Y9.8892 
G01 X13.0741 Y9.8592 
G01 X13.0841 Y9.8526 
G01 X13.1274 Y9.8240 
G01 X13.1608 Y9.8019 
G01 X13.1722 Y9.7981 
G01 X13.1826 Y9.7921 
G01 X13.2214 Y9.7817 
G01 X14.8200 Y9.2488 
G01 X14.8200 Y8.7071 
G01 X14.8337 Y8.6740 
G01 X14.8590 Y8.6487 
G01 X14.8921 Y8.6350 
G01 X14.9468 Y8.6350 
G01 X14.9468 Y8.5790 
G01 X14.9450 Y8.5495 
G01 X14.9468 Y8.5314 
G01 X14.9545 Y8.5028 
G01 X14.9603 Y8.4738 
G01 X14.9668 Y8.4568 
G01 X14.9816 Y8.4312 
G01 X14.9948 Y8.4047 
G01 X15.0054 Y8.3900 
G01 X15.0263 Y8.3691 
G01 X15.0459 Y8.3469 
G01 X15.0600 Y8.3354 
G01 X15.0856 Y8.3206 
G01 X15.1102 Y8.3043 
G01 X15.1268 Y8.2968 
G01 X15.1554 Y8.2891 
G01 X15.1652 Y7.8750 
G01 X14.8921 Y7.8750 
G01 X14.8590 Y7.8613 
G01 X14.8337 Y7.8360 
G01 X14.8200 Y7.8029 
G01 X14.8200 Y6.1671 
G01 X14.8337 Y6.1340 
G01 X14.8590 Y6.1087 
G01 X14.8921 Y6.0950 
G01 X16.2279 Y6.0950 
G01 X16.2610 Y6.1087 
G01 X16.2863 Y6.1340 
G01 X16.3000 Y6.1671 
G01 X16.3000 Y7.8029 
G01 X16.2863 Y7.8360 
G01 X16.2610 Y7.8613 
G01 X16.2279 Y7.8750 
G01 X15.9548 Y7.8750 
G01 X15.9548 Y8.6350 
G01 X16.2279 Y8.6350 
G01 X16.2610 Y8.6487 
G01 X16.2863 Y8.6740 
G01 X16.3000 Y8.7071 
G01 X16.3000 Y10.3429 
G01 X16.2863 Y10.3760 
G01 X16.2610 Y10.4013 
G01 X16.2279 Y10.4150 
G01 X14.8921 Y10.4150 
G01 X14.8590 Y10.4013 
G01 X14.8337 Y10.3760 
G01 X14.8200 Y10.3429 
G01 X14.8200 Y10.0811 
G01 X13.7298 Y10.4446 
G01 X13.7298 Y13.9852 
G01 X13.7825 Y14.0629 
G01 X13.8254 Y14.1864 
G01 X13.8348 Y14.3168 
G01 X13.8102 Y14.4451 
G01 X13.7532 Y14.5628 
G01 X13.6677 Y14.6616 
G01 X13.5596 Y14.7350 
G01 X13.4361 Y14.7779 
G01 X12.4725 Y14.8478 
G01 X12.4725 Y15.3373 
G01 X12.4588 Y15.3704 
G01 X12.4335 Y15.3957 
G01 X12.4004 Y15.4094 
G01 X10.4596 Y15.4094 
G01 X10.4265 Y15.3957 
G00 Z1.0000 
G00 X10.4265 Y13.0938 
G01 Z-0.0800 F50.00 
G01 X10.4012 Y13.0685 F100.00 
G01 X10.3875 Y13.0354 
G01 X10.3875 Y11.0152 
G01 X10.4012 Y10.9821 
G01 X10.4265 Y10.9568 
G01 X10.4596 Y10.9431 
G01 X12.4004 Y10.9431 
G01 X12.4335 Y10.9568 
G01 X12.4588 Y10.9821 
G01 X12.4725 Y11.0152 
G01 X12.4725 Y13.0354 
G01 X12.4588 Y13.0685 
G01 X12.4335 Y13.0938 
G01 X12.4004 Y13.1075 
G01 X10.4596 Y13.1075 
G01 X10.4265 Y13.0938 
G00 Z1.0000 
G00 X16.7590 Y12.9413 
G01 Z-0.0800 F50.00 
G01 X16.7337 Y12.9160 F100.00 
G01 X16.7200 Y12.8829 
G01 X16.7200 Y11.2471 
G01 X16.7337 Y11.2140 
G01 X16.7590 Y11.1887 
G01 X16.7921 Y11.1750 
G01 X18.1279 Y11.1750 
G01 X18.1610 Y11.1887 
G01 X18.1863 Y11.2140 
G01 X18.2000 Y11.2471 
G01 X18.2000 Y11.3922 
G01 X19.3156 Y11.1445 
G01 X19.3156 Y11.0140 
G01 X19.3569 Y10.9727 
G01 X19.3569 Y10.5390 
G01 X19.3706 Y10.5059 
G01 X19.3959 Y10.4806 
G01 X19.4290 Y10.4669 
G01 X19.8627 Y10.4669 
G01 X19.9040 Y10.4256 
G01 X20.7360 Y10.4256 
G01 X20.7773 Y10.4669 
G01 X21.2110 Y10.4669 
G01 X21.2441 Y10.4806 
G01 X21.2694 Y10.5059 
G01 X21.2831 Y10.5390 
G01 X21.2831 Y10.9727 
G01 X21.3244 Y11.0140 
G01 X21.3244 Y11.8460 
G01 X21.2831 Y11.8873 
G01 X21.2831 Y12.3210 
G01 X21.2694 Y12.3541 
G01 X21.2441 Y12.3794 
G01 X21.2110 Y12.3931 
G01 X20.7773 Y12.3931 
G01 X20.7360 Y12.4344 
G01 X19.9040 Y12.4344 
G01 X19.8627 Y12.3931 
G01 X19.4290 Y12.3931 
G01 X19.3959 Y12.3794 
G01 X19.3706 Y12.3541 
G01 X19.3569 Y12.3210 
G01 X19.3569 Y12.1523 
G01 X18.2000 Y12.4092 
G01 X18.2000 Y12.8829 
G01 X18.1863 Y12.9160 
G01 X18.1610 Y12.9413 
G01 X18.1279 Y12.9550 
G01 X16.7921 Y12.9550 
G01 X16.7590 Y12.9413 
G00 Z1.0000 
G00 X16.7590 Y13.7287 
G01 Z-0.0800 F50.00 
G01 X16.7921 Y13.7150 F100.00 
G01 X18.1279 Y13.7150 
G01 X18.1610 Y13.7287 
G01 X18.1863 Y13.7540 
G01 X18.2000 Y13.7871 
G01 X18.2000 Y13.9322 
G01 X19.3156 Y13.6845 
G01 X19.3156 Y13.5540 
G01 X19.3569 Y13.5127 
G01 X19.3569 Y13.0790 
G01 X19.3706 Y13.0459 
G01 X19.3959 Y13.0206 
G01 X19.4290 Y13.0069 
G01 X19.8627 Y13.0069 
G01 X19.9040 Y12.9656 
G01 X20.7360 Y12.9656 
G01 X20.7773 Y13.0069 
G01 X21.2110 Y13.0069 
G01 X21.2441 Y13.0206 
G01 X21.2694 Y13.0459 
G01 X21.2831 Y13.0790 
G01 X21.2831 Y13.5127 
G01 X21.3244 Y13.5540 
G01 X21.3244 Y14.3860 
G01 X21.2831 Y14.4273 
G01 X21.2831 Y14.8610 
G01 X21.2694 Y14.8941 
G01 X21.2441 Y14.9194 
G01 X21.2110 Y14.9331 
G01 X20.7773 Y14.9331 
G01 X20.7360 Y14.9744 
G01 X19.9040 Y14.9744 
G01 X19.8627 Y14.9331 
G01 X19.4290 Y14.9331 
G01 X19.3959 Y14.9194 
G01 X19.3706 Y14.8941 
G01 X19.3569 Y14.8610 
G01 X19.3569 Y14.6923 
G01 X18.2000 Y14.9492 
G01 X18.2000 Y15.4229 
G01 X18.1863 Y15.4560 
G01 X18.1610 Y15.4813 
G01 X18.1279 Y15.4950 
G01 X16.7921 Y15.4950 
G01 X16.7590 Y15.4813 
G01 X16.7337 Y15.4560 
G01 X16.7200 Y15.4229 
G01 X16.7200 Y13.7871 
G01 X16.7337 Y13.7540 
G01 X16.7590 Y13.7287 
G00 Z1.0000 
G00 X16.7590 Y10.4013 
G01 Z-0.0800 F50.00 
G01 X16.7337 Y10.3760 F100.00 
G01 X16.7200 Y10.3429 
G01 X16.7200 Y8.7071 
G01 X16.7337 Y8.6740 
G01 X16.7590 Y8.6487 
G01 X16.7921 Y8.6350 
G01 X18.1279 Y8.6350 
G01 X18.1610 Y8.6487 
G01 X18.1863 Y8.6740 
G01 X18.2000 Y8.7071 
G01 X18.2000 Y8.8522 
G01 X19.3156 Y8.6045 
G01 X19.3156 Y8.4740 
G01 X19.3569 Y8.4327 
G01 X19.3569 Y7.9990 
G01 X19.3706 Y7.9659 
G01 X19.3959 Y7.9406 
G01 X19.4290 Y7.9269 
G01 X19.8627 Y7.9269 
G01 X19.9040 Y7.8856 
G01 X20.7360 Y7.8856 
G01 X20.7773 Y7.9269 
G01 X21.2110 Y7.9269 
G01 X21.2441 Y7.9406 
G01 X21.2694 Y7.9659 
G01 X21.2831 Y7.9990 
G01 X21.2831 Y8.4327 
G01 X21.3244 Y8.4740 
G01 X21.3244 Y9.3060 
G01 X21.2831 Y9.3473 
G01 X21.2831 Y9.7810 
G01 X21.2694 Y9.8141 
G01 X21.2441 Y9.8394 
G01 X21.2110 Y9.8531 
G01 X20.7773 Y9.8531 
G01 X20.7360 Y9.8944 
G01 X19.9040 Y9.8944 
G01 X19.8627 Y9.8531 
G01 X19.4290 Y9.8531 
G01 X19.3959 Y9.8394 
G01 X19.3706 Y9.8141 
G01 X19.3569 Y9.7810 
G01 X19.3569 Y9.6123 
G01 X18.2000 Y9.8692 
G01 X18.2000 Y10.3429 
G01 X18.1863 Y10.3760 
G01 X18.1610 Y10.4013 
G01 X18.1279 Y10.4150 
G01 X16.7921 Y10.4150 
G01 X16.7590 Y10.4013 
G00 Z1.0000 
G00 X16.7590 Y7.8613 
G01 Z-0.0800 F50.00 
G01 X16.7337 Y7.8360 F100.00 
G01 X16.7200 Y7.8029 
G01 X16.7200 Y6.1671 
G01 X16.7337 Y6.1340 
G01 X16.7590 Y6.1087 
G01 X16.7921 Y6.0950 
G01 X18.1279 Y6.0950 
G01 X18.1610 Y6.1087 
G01 X18.1863 Y6.1340 
G01 X18.2000 Y6.1671 
G01 X18.2000 Y6.3122 
G01 X19.3156 Y6.0645 
G01 X19.3156 Y5.9340 
G01 X19.3569 Y5.8927 
G01 X19.3569 Y5.4590 
G01 X19.3706 Y5.4259 
G01 X19.3959 Y5.4006 
G01 X19.4290 Y5.3869 
G01 X19.8627 Y5.3869 
G01 X19.9040 Y5.3456 
G01 X20.7360 Y5.3456 
G01 X20.7773 Y5.3869 
G01 X21.2110 Y5.3869 
G01 X21.2441 Y5.4006 
G01 X21.2694 Y5.4259 
G01 X21.2831 Y5.4590 
G01 X21.2831 Y5.8927 
G01 X21.3244 Y5.9340 
G01 X21.3244 Y6.7660 
G01 X21.2831 Y6.8073 
G01 X21.2831 Y7.2410 
G01 X21.2694 Y7.2741 
G01 X21.2441 Y7.2994 
G01 X21.2110 Y7.3131 
G01 X20.7773 Y7.3131 
G01 X20.7360 Y7.3544 
G01 X19.9040 Y7.3544 
G01 X19.8627 Y7.3131 
G01 X19.4290 Y7.3131 
G01 X19.3959 Y7.2994 
G01 X19.3706 Y7.2741 
G01 X19.3569 Y7.2410 
G01 X19.3569 Y7.0723 
G01 X18.2000 Y7.3292 
G01 X18.2000 Y7.8029 
G01 X18.1863 Y7.8360 
G01 X18.1610 Y7.8613 
G01 X18.1279 Y7.8750 
G01 X16.7921 Y7.8750 
G01 X16.7590 Y7.8613 
G00 Z1.0000 
G00 X21.9106 Y7.9659 
G01 Z-0.0800 F50.00 
G01 X21.9359 Y7.9406 F100.00 
G01 X21.9690 Y7.9269 
G01 X22.4027 Y7.9269 
G01 X22.4440 Y7.8856 
G01 X23.2760 Y7.8856 
G01 X23.3173 Y7.9269 
G01 X23.7510 Y7.9269 
G01 X23.7841 Y7.9406 
G01 X23.8094 Y7.9659 
G01 X23.8231 Y7.9990 
G01 X23.8231 Y8.4327 
G01 X23.8644 Y8.4740 
G01 X23.8644 Y8.4952 
G01 X24.9757 Y8.4952 
G01 X25.0761 Y8.5221 
G01 X25.1662 Y8.5741 
G01 X25.2397 Y8.6476 
G01 X25.2916 Y8.7376 
G01 X25.3064 Y8.7927 
G01 X27.4598 Y10.2283 
G01 X27.4850 Y10.2429 
G01 X27.4998 Y10.2550 
G01 X27.5190 Y10.2768 
G01 X27.5396 Y10.2975 
G01 X27.5507 Y10.3129 
G01 X27.5636 Y10.3391 
G01 X27.5782 Y10.3643 
G01 X27.5849 Y10.3821 
G01 X27.5907 Y10.4107 
G01 X27.5982 Y10.4389 
G01 X27.6001 Y10.4578 
G01 X27.5982 Y10.4869 
G01 X27.5982 Y13.6738 
G01 X35.7299 Y20.4444 
G01 X39.2545 Y20.4464 
G01 X39.2545 Y20.4221 
G01 X39.2682 Y20.3890 
G01 X39.2935 Y20.3637 
G01 X39.3266 Y20.3500 
G01 X40.6574 Y20.3500 
G01 X40.6905 Y20.3637 
G01 X40.7158 Y20.3890 
G01 X40.7295 Y20.4221 
G01 X40.7295 Y21.0579 
G01 X40.7158 Y21.0910 
G01 X40.6905 Y21.1163 
G01 X40.6574 Y21.1300 
G01 X39.3266 Y21.1300 
G01 X39.2935 Y21.1163 
G01 X39.2682 Y21.0910 
G01 X39.2545 Y21.0579 
G01 X39.2545 Y21.0328 
G01 X35.6370 Y21.0307 
G01 X35.6120 Y21.0330 
G01 X35.5986 Y21.0307 
G01 X35.5850 Y21.0307 
G01 X35.5607 Y21.0242 
G01 X35.5359 Y21.0199 
G01 X35.5236 Y21.0142 
G01 X35.5104 Y21.0106 
G01 X35.4887 Y20.9981 
G01 X35.4658 Y20.9875 
G01 X35.4554 Y20.9788 
G01 X35.4436 Y20.9720 
G01 X35.4258 Y20.9542 
G01 X27.1367 Y14.0526 
G01 X27.1250 Y14.0459 
G01 X27.1071 Y14.0280 
G01 X27.0877 Y14.0119 
G01 X27.0799 Y14.0008 
G01 X27.0578 Y13.9694 
G01 X27.0432 Y13.9488 
G01 X27.0385 Y13.9361 
G01 X27.0318 Y13.9244 
G01 X27.0252 Y13.9000 
G01 X27.0165 Y13.8764 
G01 X27.0153 Y13.8629 
G01 X27.0118 Y13.8498 
G01 X27.0118 Y13.8246 
G01 X27.0095 Y13.7995 
G01 X27.0118 Y13.7862 
G01 X27.0118 Y10.6344 
G01 X24.9840 Y9.2826 
G01 X23.8644 Y9.2848 
G01 X23.8644 Y9.3060 
G01 X23.8231 Y9.3473 
G01 X23.8231 Y9.7810 
G01 X23.8094 Y9.8141 
G01 X23.7841 Y9.8394 
G01 X23.7510 Y9.8531 
G01 X23.3173 Y9.8531 
G01 X23.2760 Y9.8944 
G01 X22.4440 Y9.8944 
G01 X22.4027 Y9.8531 
G01 X21.9690 Y9.8531 
G01 X21.9359 Y9.8394 
G01 X21.9106 Y9.8141 
G01 X21.8969 Y9.7810 
G01 X21.8969 Y9.3473 
G01 X21.8556 Y9.3060 
G01 X21.8556 Y8.4740 
G01 X21.8969 Y8.4327 
G01 X21.8969 Y7.9990 
G01 X21.9106 Y7.9659 
G00 Z1.0000 
G00 X21.9359 Y7.2994 
G01 Z-0.0800 F50.00 
G01 X21.9106 Y7.2741 F100.00 
G01 X21.8969 Y7.2410 
G01 X21.8969 Y6.8073 
G01 X21.8556 Y6.7660 
G01 X21.8556 Y5.9340 
G01 X21.8969 Y5.8927 
G01 X21.8969 Y5.4590 
G01 X21.9106 Y5.4259 
G01 X21.9359 Y5.4006 
G01 X21.9690 Y5.3869 
G01 X22.4027 Y5.3869 
G01 X22.4440 Y5.3456 
G01 X23.2760 Y5.3456 
G01 X23.3173 Y5.3869 
G01 X23.7510 Y5.3869 
G01 X23.7841 Y5.4006 
G01 X23.8094 Y5.4259 
G01 X23.8231 Y5.4590 
G01 X23.8231 Y5.8927 
G01 X23.8644 Y5.9340 
G01 X23.8644 Y5.9552 
G01 X25.2932 Y5.9552 
G01 X25.3936 Y5.9821 
G01 X25.4837 Y6.0341 
G01 X25.5572 Y6.1076 
G01 X25.6091 Y6.1976 
G01 X25.6360 Y6.2980 
G01 X25.6360 Y6.3201 
G01 X28.4340 Y8.9709 
G01 X28.4621 Y8.9974 
G01 X28.4872 Y9.0212 
G01 X28.5094 Y9.0575 
G01 X28.5276 Y9.0870 
G01 X28.5397 Y9.1278 
G01 X28.5495 Y9.1610 
G01 X28.5507 Y9.2036 
G01 X28.5516 Y9.2382 
G01 X28.5507 Y13.0414 
G01 X36.1928 Y19.5933 
G01 X39.2545 Y19.6364 
G01 X39.2545 Y19.6221 
G01 X39.2682 Y19.5890 
G01 X39.2935 Y19.5637 
G01 X39.3266 Y19.5500 
G01 X40.6574 Y19.5500 
G01 X40.6905 Y19.5637 
G01 X40.7158 Y19.5890 
G01 X40.7295 Y19.6221 
G01 X40.7295 Y20.2579 
G01 X40.7158 Y20.2910 
G01 X40.6905 Y20.3163 
G01 X40.6574 Y20.3300 
G01 X39.3266 Y20.3300 
G01 X39.2935 Y20.3163 
G01 X39.2682 Y20.2910 
G01 X39.2545 Y20.2579 
G01 X39.2545 Y20.2229 
G01 X36.0917 Y20.1784 
G01 X36.0665 Y20.1803 
G01 X36.0532 Y20.1778 
G01 X36.0398 Y20.1776 
G01 X36.0154 Y20.1707 
G01 X35.9906 Y20.1661 
G01 X35.9784 Y20.1603 
G01 X35.9655 Y20.1566 
G01 X35.9438 Y20.1436 
G01 X35.9210 Y20.1327 
G01 X35.9108 Y20.1240 
G01 X35.8992 Y20.1171 
G01 X35.8816 Y20.0989 
G01 X28.0873 Y13.4166 
G01 X28.0581 Y13.3915 
G01 X28.0374 Y13.3737 
G01 X28.0229 Y13.3563 
G01 X28.0092 Y13.3326 
G01 X27.9937 Y13.3100 
G01 X27.9900 Y13.2993 
G01 X27.9772 Y13.2630 
G01 X27.9681 Y13.2372 
G01 X27.9672 Y13.2258 
G01 X27.9643 Y13.2149 
G01 X27.9643 Y13.1875 
G01 X27.9622 Y13.1602 
G01 X27.9643 Y13.1490 
G01 X27.9643 Y9.3336 
G01 X25.2317 Y6.7448 
G01 X23.8644 Y6.7448 
G01 X23.8644 Y6.7660 
G01 X23.8231 Y6.8073 
G01 X23.8231 Y7.2410 
G01 X23.8094 Y7.2741 
G01 X23.7841 Y7.2994 
G01 X23.7510 Y7.3131 
G01 X23.3173 Y7.3131 
G01 X23.2760 Y7.3544 
G01 X22.4440 Y7.3544 
G01 X22.4027 Y7.3131 
G01 X21.9690 Y7.3131 
G01 X21.9359 Y7.2994 
G00 Z1.0000 
G00 X21.9359 Y10.4806 
G01 Z-0.0800 F50.00 
G01 X21.9690 Y10.4669 F100.00 
G01 X22.4027 Y10.4669 
G01 X22.4440 Y10.4256 
G01 X23.2760 Y10.4256 
G01 X23.3173 Y10.4669 
G01 X23.7510 Y10.4669 
G01 X23.7841 Y10.4806 
G01 X23.8094 Y10.5059 
G01 X23.8231 Y10.5390 
G01 X23.8231 Y10.9727 
G01 X23.8644 Y11.0140 
G01 X23.8644 Y11.0352 
G01 X24.8170 Y11.0352 
G01 X24.9174 Y11.0621 
G01 X25.0074 Y11.1141 
G01 X25.0809 Y11.1876 
G01 X25.1329 Y11.2776 
G01 X25.1536 Y11.3550 
G01 X26.1861 Y12.1294 
G01 X26.2169 Y12.1525 
G01 X26.2418 Y12.1711 
G01 X26.2524 Y12.1820 
G01 X26.2703 Y12.2074 
G01 X26.2895 Y12.2318 
G01 X26.2968 Y12.2451 
G01 X26.3076 Y12.2742 
G01 X26.3198 Y12.3028 
G01 X26.3235 Y12.3175 
G01 X26.3263 Y12.3484 
G01 X26.3307 Y12.3792 
G01 X26.4746 Y13.9800 
G01 X35.3115 Y21.2382 
G01 X39.2545 Y21.2455 
G01 X39.2545 Y21.2221 
G01 X39.2682 Y21.1890 
G01 X39.2935 Y21.1637 
G01 X39.3266 Y21.1500 
G01 X40.6574 Y21.1500 
G01 X40.6905 Y21.1637 
G01 X40.7158 Y21.1890 
G01 X40.7295 Y21.2221 
G01 X40.7295 Y21.8579 
G01 X40.7158 Y21.8910 
G01 X40.6905 Y21.9163 
G01 X40.6574 Y21.9300 
G01 X39.3266 Y21.9300 
G01 X39.2935 Y21.9163 
G01 X39.2682 Y21.8910 
G01 X39.2545 Y21.8579 
G01 X39.2545 Y21.8318 
G01 X35.2203 Y21.8245 
G01 X35.1964 Y21.8268 
G01 X35.1819 Y21.8244 
G01 X35.1671 Y21.8244 
G01 X35.1440 Y21.8181 
G01 X35.1203 Y21.8142 
G01 X35.1068 Y21.8081 
G01 X35.0926 Y21.8043 
G01 X35.0718 Y21.7922 
G01 X35.0500 Y21.7823 
G01 X35.0386 Y21.7729 
G01 X35.0258 Y21.7655 
G01 X35.0089 Y21.7485 
G01 X26.0367 Y14.3791 
G01 X26.0069 Y14.3547 
G01 X25.9778 Y14.3308 
G01 X25.9549 Y14.2988 
G01 X25.9329 Y14.2681 
G01 X25.9190 Y14.2311 
G01 X25.9057 Y14.1958 
G01 X25.9019 Y14.1565 
G01 X25.8982 Y14.1189 
G01 X25.7548 Y12.5389 
G01 X24.8027 Y11.8248 
G01 X23.8644 Y11.8248 
G01 X23.8644 Y11.8460 
G01 X23.8231 Y11.8873 
G01 X23.8231 Y12.3210 
G01 X23.8094 Y12.3541 
G01 X23.7841 Y12.3794 
G01 X23.7510 Y12.3931 
G01 X23.3173 Y12.3931 
G01 X23.2760 Y12.4344 
G01 X22.4440 Y12.4344 
G01 X22.4027 Y12.3931 
G01 X21.9690 Y12.3931 
G01 X21.9359 Y12.3794 
G01 X21.9106 Y12.3541 
G01 X21.8969 Y12.3210 
G01 X21.8969 Y11.8873 
G01 X21.8556 Y11.8460 
G01 X21.8556 Y11.0140 
G01 X21.8969 Y10.9727 
G01 X21.8969 Y10.5390 
G01 X21.9106 Y10.5059 
G01 X21.9359 Y10.4806 
G00 Z1.0000 
G00 X21.9359 Y13.0206 
G01 Z-0.0800 F50.00 
G01 X21.9690 Y13.0069 F100.00 
G01 X22.4027 Y13.0069 
G01 X22.4440 Y12.9656 
G01 X23.2760 Y12.9656 
G01 X23.3173 Y13.0069 
G01 X23.7510 Y13.0069 
G01 X23.7841 Y13.0206 
G01 X23.8094 Y13.0459 
G01 X23.8231 Y13.0790 
G01 X23.8231 Y13.5127 
G01 X23.8644 Y13.5540 
G01 X23.8644 Y13.5752 
G01 X24.6582 Y13.5752 
G01 X24.7586 Y13.6021 
G01 X24.8487 Y13.6541 
G01 X24.9222 Y13.7276 
G01 X24.9741 Y13.8176 
G01 X25.0010 Y13.9180 
G01 X25.0010 Y13.9684 
G01 X26.3926 Y15.4992 
G01 X34.9240 Y21.9916 
G01 X39.2545 Y22.0388 
G01 X39.2545 Y22.0221 
G01 X39.2682 Y21.9890 
G01 X39.2935 Y21.9637 
G01 X39.3266 Y21.9500 
G01 X40.6574 Y21.9500 
G01 X40.6905 Y21.9637 
G01 X40.7158 Y21.9890 
G01 X40.7295 Y22.0221 
G01 X40.7295 Y22.6579 
G01 X40.7158 Y22.6910 
G01 X40.6905 Y22.7163 
G01 X40.6574 Y22.7300 
G01 X39.3266 Y22.7300 
G01 X39.2935 Y22.7163 
G01 X39.2682 Y22.6910 
G01 X39.2545 Y22.6579 
G01 X39.2545 Y22.6252 
G01 X34.8420 Y22.5772 
G01 X34.8249 Y22.5795 
G01 X34.8035 Y22.5767 
G01 X34.7820 Y22.5765 
G01 X34.7654 Y22.5719 
G01 X34.7483 Y22.5697 
G01 X34.7284 Y22.5615 
G01 X34.7076 Y22.5557 
G01 X34.6928 Y22.5470 
G01 X34.6769 Y22.5404 
G01 X34.6598 Y22.5274 
G01 X34.6412 Y22.5164 
G01 X34.6292 Y22.5041 
G01 X26.0254 Y15.9566 
G01 X26.0028 Y15.9420 
G01 X25.9855 Y15.9262 
G01 X25.9690 Y15.9049 
G01 X24.5689 Y14.3648 
G01 X23.8644 Y14.3648 
G01 X23.8644 Y14.3860 
G01 X23.8231 Y14.4273 
G01 X23.8231 Y14.8610 
G01 X23.8094 Y14.8941 
G01 X23.7841 Y14.9194 
G01 X23.7510 Y14.9331 
G01 X23.3173 Y14.9331 
G01 X23.2760 Y14.9744 
G01 X22.4440 Y14.9744 
G01 X22.4027 Y14.9331 
G01 X21.9690 Y14.9331 
G01 X21.9359 Y14.9194 
G01 X21.9106 Y14.8941 
G01 X21.8969 Y14.8610 
G01 X21.8969 Y14.4273 
G01 X21.8556 Y14.3860 
G01 X21.8556 Y13.5540 
G01 X21.8969 Y13.5127 
G01 X21.8969 Y13.0790 
G01 X21.9106 Y13.0459 
G01 X21.9359 Y13.0206 
G00 Z1.0000 
G00 X21.9359 Y15.5606 
G01 Z-0.0800 F50.00 
G01 X21.9690 Y15.5469 F100.00 
G01 X22.4027 Y15.5469 
G01 X22.4440 Y15.5056 
G01 X23.2760 Y15.5056 
G01 X23.3173 Y15.5469 
G01 X23.7510 Y15.5469 
G01 X23.7841 Y15.5606 
G01 X23.8094 Y15.5859 
G01 X23.8231 Y15.6190 
G01 X23.8231 Y16.0527 
G01 X23.8644 Y16.0940 
G01 X23.8644 Y16.9260 
G01 X23.8231 Y16.9673 
G01 X23.8231 Y17.4010 
G01 X23.8094 Y17.4341 
G01 X23.7841 Y17.4594 
G01 X23.7510 Y17.4731 
G01 X23.3173 Y17.4731 
G01 X23.2760 Y17.5144 
G01 X22.4440 Y17.5144 
G01 X22.4027 Y17.4731 
G01 X21.9690 Y17.4731 
G01 X21.9359 Y17.4594 
G01 X21.9106 Y17.4341 
G01 X21.8969 Y17.4010 
G01 X21.8969 Y16.9673 
G01 X21.8556 Y16.9260 
G01 X21.8556 Y16.0940 
G01 X21.8969 Y16.0527 
G01 X21.8969 Y15.6190 
G01 X21.9106 Y15.5859 
G01 X21.9359 Y15.5606 
G00 Z1.0000 
G00 X21.2441 Y15.5606 
G01 Z-0.0800 F50.00 
G01 X21.2694 Y15.5859 F100.00 
G01 X21.2831 Y15.6190 
G01 X21.2831 Y16.0527 
G01 X21.3244 Y16.0940 
G01 X21.3244 Y16.9260 
G01 X21.2831 Y16.9673 
G01 X21.2831 Y17.4010 
G01 X21.2694 Y17.4341 
G01 X21.2441 Y17.4594 
G01 X21.2110 Y17.4731 
G01 X20.7773 Y17.4731 
G01 X20.7360 Y17.5144 
G01 X19.9040 Y17.5144 
G01 X19.8627 Y17.4731 
G01 X19.4290 Y17.4731 
G01 X19.3959 Y17.4594 
G01 X19.3706 Y17.4341 
G01 X19.3569 Y17.4010 
G01 X19.3569 Y16.9673 
G01 X19.3156 Y16.9260 
G01 X19.3156 Y16.0940 
G01 X19.3569 Y16.0527 
G01 X19.3569 Y15.6190 
G01 X19.3706 Y15.5859 
G01 X19.3959 Y15.5606 
G01 X19.4290 Y15.5469 
G01 X19.8627 Y15.5469 
G01 X19.9040 Y15.5056 
G01 X20.7360 Y15.5056 
G01 X20.7773 Y15.5469 
G01 X21.2110 Y15.5469 
G01 X21.2441 Y15.5606 
G00 Z1.0000 
G00 X21.2441 Y18.1006 
G01 Z-0.0800 F50.00 
G01 X21.2694 Y18.1259 F100.00 
G01 X21.2831 Y18.1590 
G01 X21.2831 Y18.5927 
G01 X21.3244 Y18.6340 
G01 X21.3244 Y19.4660 
G01 X21.2831 Y19.5073 
G01 X21.2831 Y19.9410 
G01 X21.2694 Y19.9741 
G01 X21.2441 Y19.9994 
G01 X21.2110 Y20.0131 
G01 X20.7773 Y20.0131 
G01 X20.7360 Y20.0544 
G01 X19.9040 Y20.0544 
G01 X19.8627 Y20.0131 
G01 X19.4290 Y20.0131 
G01 X19.3959 Y19.9994 
G01 X19.3706 Y19.9741 
G01 X19.3569 Y19.9410 
G01 X19.3569 Y19.5464 
G01 X18.2000 Y19.5464 
G01 X18.2000 Y19.8679 
G01 X18.1863 Y19.9010 
G01 X18.1610 Y19.9263 
G01 X18.1279 Y19.9400 
G01 X16.7921 Y19.9400 
G01 X16.7590 Y19.9263 
G01 X16.7337 Y19.9010 
G01 X16.7200 Y19.8679 
G01 X16.7200 Y18.2321 
G01 X16.7337 Y18.1990 
G01 X16.7590 Y18.1737 
G01 X16.7921 Y18.1600 
G01 X18.1279 Y18.1600 
G01 X18.1610 Y18.1737 
G01 X18.1863 Y18.1990 
G01 X18.2000 Y18.2321 
G01 X18.2000 Y18.5536 
G01 X19.3569 Y18.5536 
G01 X19.3569 Y18.1590 
G01 X19.3706 Y18.1259 
G01 X19.3959 Y18.1006 
G01 X19.4290 Y18.0869 
G01 X19.8627 Y18.0869 
G01 X19.9040 Y18.0456 
G01 X20.7360 Y18.0456 
G01 X20.7773 Y18.0869 
G01 X21.2110 Y18.0869 
G01 X21.2441 Y18.1006 
G00 Z1.0000 
G00 X21.9106 Y18.1259 
G01 Z-0.0800 F50.00 
G01 X21.9359 Y18.1006 F100.00 
G01 X21.9690 Y18.0869 
G01 X22.4027 Y18.0869 
G01 X22.4440 Y18.0456 
G01 X23.2760 Y18.0456 
G01 X23.3173 Y18.0869 
G01 X23.7510 Y18.0869 
G01 X23.7841 Y18.1006 
G01 X23.8094 Y18.1259 
G01 X23.8231 Y18.1590 
G01 X23.8231 Y18.5927 
G01 X23.8644 Y18.6340 
G01 X23.8644 Y18.6552 
G01 X25.4520 Y18.6552 
G01 X25.5524 Y18.6821 
G01 X25.6424 Y18.7341 
G01 X25.7159 Y18.8076 
G01 X25.7632 Y18.8896 
G01 X34.6627 Y22.8073 
G01 X39.2545 Y22.8413 
G01 X39.2545 Y22.8221 
G01 X39.2682 Y22.7890 
G01 X39.2935 Y22.7637 
G01 X39.3266 Y22.7500 
G01 X40.6574 Y22.7500 
G01 X40.6905 Y22.7637 
G01 X40.7158 Y22.7890 
G01 X40.7295 Y22.8221 
G01 X40.7295 Y23.4579 
G01 X40.7158 Y23.4910 
G01 X40.6905 Y23.5163 
G01 X40.6574 Y23.5300 
G01 X39.3266 Y23.5300 
G01 X39.2935 Y23.5163 
G01 X39.2682 Y23.4910 
G01 X39.2545 Y23.4579 
G01 X39.2545 Y23.4277 
G01 X34.6149 Y23.3933 
G01 X34.5935 Y23.3957 
G01 X34.5765 Y23.3930 
G01 X34.5592 Y23.3929 
G01 X34.5385 Y23.3872 
G01 X34.5172 Y23.3839 
G01 X34.5014 Y23.3770 
G01 X34.4848 Y23.3724 
G01 X34.4662 Y23.3615 
G01 X25.5248 Y19.4253 
G01 X25.4520 Y19.4448 
G01 X23.8644 Y19.4448 
G01 X23.8644 Y19.4660 
G01 X23.8231 Y19.5073 
G01 X23.8231 Y19.9410 
G01 X23.8094 Y19.9741 
G01 X23.7841 Y19.9994 
G01 X23.7510 Y20.0131 
G01 X23.3173 Y20.0131 
G01 X23.2760 Y20.0544 
G01 X22.4440 Y20.0544 
G01 X22.4027 Y20.0131 
G01 X21.9690 Y20.0131 
G01 X21.9359 Y19.9994 
G01 X21.9106 Y19.9741 
G01 X21.8969 Y19.9410 
G01 X21.8969 Y19.5073 
G01 X21.8556 Y19.4660 
G01 X21.8556 Y18.6340 
G01 X21.8969 Y18.5927 
G01 X21.8969 Y18.1590 
G01 X21.9106 Y18.1259 
G00 Z1.0000 
G00 X21.9106 Y20.6659 
G01 Z-0.0800 F50.00 
G01 X21.9359 Y20.6406 F100.00 
G01 X21.9690 Y20.6269 
G01 X22.4027 Y20.6269 
G01 X22.4440 Y20.5856 
G01 X23.2760 Y20.5856 
G01 X23.3173 Y20.6269 
G01 X23.7510 Y20.6269 
G01 X23.7841 Y20.6406 
G01 X23.8094 Y20.6659 
G01 X23.8231 Y20.6990 
G01 X23.8231 Y21.1327 
G01 X23.8644 Y21.1740 
G01 X23.8644 Y21.1952 
G01 X25.2139 Y21.1952 
G01 X25.3143 Y21.2221 
G01 X25.4043 Y21.2741 
G01 X25.4778 Y21.3476 
G01 X25.4910 Y21.3705 
G01 X34.4258 Y23.6195 
G01 X39.2545 Y23.6432 
G01 X39.2545 Y23.6221 
G01 X39.2682 Y23.5890 
G01 X39.2935 Y23.5637 
G01 X39.3266 Y23.5500 
G01 X40.6574 Y23.5500 
G01 X40.6905 Y23.5637 
G01 X40.7158 Y23.5890 
G01 X40.7295 Y23.6221 
G01 X40.7295 Y24.2579 
G01 X40.7158 Y24.2910 
G01 X40.6905 Y24.3163 
G01 X40.6574 Y24.3300 
G01 X39.3266 Y24.3300 
G01 X39.2935 Y24.3163 
G01 X39.2682 Y24.2910 
G01 X39.2545 Y24.2579 
G01 X39.2545 Y24.2296 
G01 X34.3903 Y24.2057 
G01 X34.3546 Y24.2063 
G01 X34.3143 Y24.1961 
G01 X25.3471 Y21.9390 
G01 X25.3143 Y21.9579 
G01 X25.2139 Y21.9848 
G01 X23.8644 Y21.9848 
G01 X23.8644 Y22.0060 
G01 X23.8231 Y22.0473 
G01 X23.8231 Y22.4810 
G01 X23.8094 Y22.5141 
G01 X23.7841 Y22.5394 
G01 X23.7510 Y22.5531 
G01 X23.3173 Y22.5531 
G01 X23.2760 Y22.5944 
G01 X22.4440 Y22.5944 
G01 X22.4027 Y22.5531 
G01 X21.9690 Y22.5531 
G01 X21.9359 Y22.5394 
G01 X21.9106 Y22.5141 
G01 X21.8969 Y22.4810 
G01 X21.8969 Y22.0473 
G01 X21.8556 Y22.0060 
G01 X21.8556 Y21.1740 
G01 X21.8969 Y21.1327 
G01 X21.8969 Y20.6990 
G01 X21.9106 Y20.6659 
G00 Z1.0000 
G00 X21.2694 Y20.6659 
G01 Z-0.0800 F50.00 
G01 X21.2831 Y20.6990 F100.00 
G01 X21.2831 Y21.1327 
G01 X21.3244 Y21.1740 
G01 X21.3244 Y22.0060 
G01 X21.2831 Y22.0473 
G01 X21.2831 Y22.4810 
G01 X21.2694 Y22.5141 
G01 X21.2441 Y22.5394 
G01 X21.2110 Y22.5531 
G01 X20.7773 Y22.5531 
G01 X20.7360 Y22.5944 
G01 X19.9040 Y22.5944 
G01 X19.8627 Y22.5531 
G01 X19.4290 Y22.5531 
G01 X19.3959 Y22.5394 
G01 X19.3706 Y22.5141 
G01 X19.3569 Y22.4810 
G01 X19.3569 Y22.0864 
G01 X18.2000 Y22.0864 
G01 X18.2000 Y22.4079 
G01 X18.1863 Y22.4410 
G01 X18.1610 Y22.4663 
G01 X18.1279 Y22.4800 
G01 X16.7921 Y22.4800 
G01 X16.7590 Y22.4663 
G01 X16.7337 Y22.4410 
G01 X16.7200 Y22.4079 
G01 X16.7200 Y20.7721 
G01 X16.7337 Y20.7390 
G01 X16.7590 Y20.7137 
G01 X16.7921 Y20.7000 
G01 X18.1279 Y20.7000 
G01 X18.1610 Y20.7137 
G01 X18.1863 Y20.7390 
G01 X18.2000 Y20.7721 
G01 X18.2000 Y21.0936 
G01 X19.3569 Y21.0936 
G01 X19.3569 Y20.6990 
G01 X19.3706 Y20.6659 
G01 X19.3959 Y20.6406 
G01 X19.4290 Y20.6269 
G01 X19.8627 Y20.6269 
G01 X19.9040 Y20.5856 
G01 X20.7360 Y20.5856 
G01 X20.7773 Y20.6269 
G01 X21.2110 Y20.6269 
G01 X21.2441 Y20.6406 
G01 X21.2694 Y20.6659 
G00 Z1.0000 
G00 X21.2441 Y23.1806 
G01 Z-0.0800 F50.00 
G01 X21.2694 Y23.2059 F100.00 
G01 X21.2831 Y23.2390 
G01 X21.2831 Y23.6727 
G01 X21.3244 Y23.7140 
G01 X21.3244 Y24.5460 
G01 X21.2831 Y24.5873 
G01 X21.2831 Y25.0210 
G01 X21.2694 Y25.0541 
G01 X21.2441 Y25.0794 
G01 X21.2110 Y25.0931 
G01 X20.7773 Y25.0931 
G01 X20.7360 Y25.1344 
G01 X19.9040 Y25.1344 
G01 X19.8627 Y25.0931 
G01 X19.4290 Y25.0931 
G01 X19.3959 Y25.0794 
G01 X19.3706 Y25.0541 
G01 X19.3569 Y25.0210 
G01 X19.3569 Y24.6264 
G01 X18.2000 Y24.6264 
G01 X18.2000 Y24.9479 
G01 X18.1863 Y24.9810 
G01 X18.1610 Y25.0063 
G01 X18.1279 Y25.0200 
G01 X16.7921 Y25.0200 
G01 X16.7590 Y25.0063 
G01 X16.7337 Y24.9810 
G01 X16.7200 Y24.9479 
G01 X16.7200 Y23.3121 
G01 X16.7337 Y23.2790 
G01 X16.7590 Y23.2537 
G01 X16.7921 Y23.2400 
G01 X18.1279 Y23.2400 
G01 X18.1610 Y23.2537 
G01 X18.1863 Y23.2790 
G01 X18.2000 Y23.3121 
G01 X18.2000 Y23.6336 
G01 X19.3569 Y23.6336 
G01 X19.3569 Y23.2390 
G01 X19.3706 Y23.2059 
G01 X19.3959 Y23.1806 
G01 X19.4290 Y23.1669 
G01 X19.8627 Y23.1669 
G01 X19.9040 Y23.1256 
G01 X20.7360 Y23.1256 
G01 X20.7773 Y23.1669 
G01 X21.2110 Y23.1669 
G01 X21.2441 Y23.1806 
G00 Z1.0000 
G00 X21.9106 Y23.2059 
G01 Z-0.0800 F50.00 
G01 X21.9359 Y23.1806 F100.00 
G01 X21.9690 Y23.1669 
G01 X22.4027 Y23.1669 
G01 X22.4440 Y23.1256 
G01 X23.2760 Y23.1256 
G01 X23.3173 Y23.1669 
G01 X23.7510 Y23.1669 
G01 X23.7841 Y23.1806 
G01 X23.8094 Y23.2059 
G01 X23.8231 Y23.2390 
G01 X23.8231 Y23.6727 
G01 X23.8644 Y23.7140 
G01 X23.8644 Y23.7352 
G01 X25.3726 Y23.7352 
G01 X25.4730 Y23.7621 
G01 X25.5630 Y23.8141 
G01 X25.6007 Y23.8517 
G01 X33.9080 Y24.3068 
G01 X37.5937 Y24.3068 
G01 X37.6259 Y24.3054 
G01 X37.6386 Y24.3068 
G01 X37.6698 Y24.3152 
G01 X38.5263 Y24.5055 
G01 X39.2545 Y24.4762 
G01 X39.2545 Y24.4221 
G01 X39.2682 Y24.3890 
G01 X39.2935 Y24.3637 
G01 X39.3266 Y24.3500 
G01 X40.6574 Y24.3500 
G01 X40.6905 Y24.3637 
G01 X40.7158 Y24.3890 
G01 X40.7295 Y24.4221 
G01 X40.7295 Y25.0579 
G01 X40.7158 Y25.0910 
G01 X40.6905 Y25.1163 
G01 X40.6574 Y25.1300 
G01 X39.3266 Y25.1300 
G01 X39.2935 Y25.1163 
G01 X39.2682 Y25.0910 
G01 X39.2566 Y25.0630 
G01 X38.5115 Y25.0930 
G01 X38.4741 Y25.0946 
G01 X38.4352 Y25.0860 
G01 X37.5678 Y24.8932 
G01 X33.9305 Y24.8932 
G01 X33.8920 Y24.8932 
G01 X33.8614 Y24.8932 
G01 X25.5716 Y24.4374 
G01 X25.4730 Y24.4979 
G01 X25.3726 Y24.5248 
G01 X23.8644 Y24.5248 
G01 X23.8644 Y24.5460 
G01 X23.8231 Y24.5873 
G01 X23.8231 Y25.0210 
G01 X23.8094 Y25.0541 
G01 X23.7841 Y25.0794 
G01 X23.7510 Y25.0931 
G01 X23.3173 Y25.0931 
G01 X23.2760 Y25.1344 
G01 X22.4440 Y25.1344 
G01 X22.4027 Y25.0931 
G01 X21.9690 Y25.0931 
G01 X21.9359 Y25.0794 
G01 X21.9106 Y25.0541 
G01 X21.8969 Y25.0210 
G01 X21.8969 Y24.5873 
G01 X21.8556 Y24.5460 
G01 X21.8556 Y23.7140 
G01 X21.8969 Y23.6727 
G01 X21.8969 Y23.2390 
G01 X21.9106 Y23.2059 
G00 Z1.0000 
G00 X21.9106 Y25.7459 
G01 Z-0.0800 F50.00 
G01 X21.9359 Y25.7206 F100.00 
G01 X21.9690 Y25.7069 
G01 X22.4027 Y25.7069 
G01 X22.4440 Y25.6656 
G01 X23.2760 Y25.6656 
G01 X23.3173 Y25.7069 
G01 X23.7510 Y25.7069 
G01 X23.7841 Y25.7206 
G01 X23.8094 Y25.7459 
G01 X23.8231 Y25.7790 
G01 X23.8231 Y26.2127 
G01 X23.8644 Y26.2540 
G01 X23.8644 Y26.2752 
G01 X25.6107 Y26.2752 
G01 X25.7111 Y26.3021 
G01 X25.7849 Y26.3447 
G01 X32.4712 Y25.4701 
G01 X33.9274 Y25.1159 
G01 X33.9614 Y25.1068 
G01 X34.0034 Y25.1068 
G01 X37.9906 Y25.1068 
G01 X38.0196 Y25.1049 
G01 X38.0386 Y25.1068 
G01 X38.0668 Y25.1144 
G01 X38.5329 Y25.2076 
G01 X39.2545 Y25.2269 
G01 X39.2682 Y25.1890 
G01 X39.2935 Y25.1637 
G01 X39.3266 Y25.1500 
G01 X40.6574 Y25.1500 
G01 X40.6905 Y25.1637 
G01 X40.7158 Y25.1890 
G01 X40.7295 Y25.2221 
G01 X40.7295 Y25.8579 
G01 X40.7158 Y25.8910 
G01 X40.6905 Y25.9163 
G01 X40.6574 Y25.9300 
G01 X39.3266 Y25.9300 
G01 X39.2935 Y25.9163 
G01 X39.2682 Y25.8910 
G01 X39.2545 Y25.8579 
G01 X39.2545 Y25.8135 
G01 X38.5055 Y25.7934 
G01 X38.4803 Y25.7951 
G01 X38.4671 Y25.7924 
G01 X38.4536 Y25.7921 
G01 X38.4294 Y25.7849 
G01 X37.9710 Y25.6932 
G01 X34.0351 Y25.6932 
G01 X32.6162 Y26.0383 
G01 X32.6013 Y26.0445 
G01 X32.5788 Y26.0474 
G01 X32.5568 Y26.0528 
G01 X32.5407 Y26.0524 
G01 X25.8609 Y26.9262 
G01 X25.8012 Y26.9859 
G01 X25.7111 Y27.0379 
G01 X25.6107 Y27.0648 
G01 X23.8644 Y27.0648 
G01 X23.8644 Y27.0860 
G01 X23.8231 Y27.1273 
G01 X23.8231 Y27.5610 
G01 X23.8094 Y27.5941 
G01 X23.7841 Y27.6194 
G01 X23.7510 Y27.6331 
G01 X23.3173 Y27.6331 
G01 X23.2760 Y27.6744 
G01 X22.4440 Y27.6744 
G01 X22.4027 Y27.6331 
G01 X21.9690 Y27.6331 
G01 X21.9359 Y27.6194 
G01 X21.9106 Y27.5941 
G01 X21.8969 Y27.5610 
G01 X21.8969 Y27.1273 
G01 X21.8556 Y27.0860 
G01 X21.8556 Y26.2540 
G01 X21.8969 Y26.2127 
G01 X21.8969 Y25.7790 
G01 X21.9106 Y25.7459 
G00 Z1.0000 
G00 X21.2694 Y25.7459 
G01 Z-0.0800 F50.00 
G01 X21.2831 Y25.7790 F100.00 
G01 X21.2831 Y26.2127 
G01 X21.3244 Y26.2540 
G01 X21.3244 Y27.0860 
G01 X21.2831 Y27.1273 
G01 X21.2831 Y27.5610 
G01 X21.2694 Y27.5941 
G01 X21.2441 Y27.6194 
G01 X21.2110 Y27.6331 
G01 X20.7773 Y27.6331 
G01 X20.7360 Y27.6744 
G01 X19.9040 Y27.6744 
G01 X19.8627 Y27.6331 
G01 X19.4290 Y27.6331 
G01 X19.3959 Y27.6194 
G01 X19.3706 Y27.5941 
G01 X19.3569 Y27.5610 
G01 X19.3569 Y27.1664 
G01 X18.2000 Y27.1664 
G01 X18.2000 Y27.4879 
G01 X18.1863 Y27.5210 
G01 X18.1610 Y27.5463 
G01 X18.1279 Y27.5600 
G01 X16.7921 Y27.5600 
G01 X16.7590 Y27.5463 
G01 X16.7337 Y27.5210 
G01 X16.7200 Y27.4879 
G01 X16.7200 Y25.8521 
G01 X16.7337 Y25.8190 
G01 X16.7590 Y25.7937 
G01 X16.7921 Y25.7800 
G01 X18.1279 Y25.7800 
G01 X18.1610 Y25.7937 
G01 X18.1863 Y25.8190 
G01 X18.2000 Y25.8521 
G01 X18.2000 Y26.1736 
G01 X19.3569 Y26.1736 
G01 X19.3569 Y25.7790 
G01 X19.3706 Y25.7459 
G01 X19.3959 Y25.7206 
G01 X19.4290 Y25.7069 
G01 X19.8627 Y25.7069 
G01 X19.9040 Y25.6656 
G01 X20.7360 Y25.6656 
G01 X20.7773 Y25.7069 
G01 X21.2110 Y25.7069 
G01 X21.2441 Y25.7206 
G01 X21.2694 Y25.7459 
G00 Z1.0000 
G00 X21.3476 Y27.6241 
G01 Z-0.0800 F50.00 
G01 X21.4376 Y27.5721 F100.00 
G01 X21.5380 Y27.5452 
G01 X21.6420 Y27.5452 
G01 X21.7424 Y27.5721 
G01 X21.8324 Y27.6241 
G01 X21.9059 Y27.6976 
G01 X25.7075 Y27.6976 
G01 X25.7787 Y27.6608 
G01 X34.1921 Y25.9084 
G01 X34.2214 Y25.9005 
G01 X34.2380 Y25.8988 
G01 X34.2683 Y25.9005 
G01 X37.6143 Y25.9005 
G01 X37.6434 Y25.8987 
G01 X37.6624 Y25.9005 
G01 X37.6905 Y25.9081 
G01 X38.4454 Y26.0591 
G01 X39.2545 Y26.0526 
G01 X39.2545 Y26.0221 
G01 X39.2682 Y25.9890 
G01 X39.2935 Y25.9637 
G01 X39.3266 Y25.9500 
G01 X40.6574 Y25.9500 
G01 X40.6905 Y25.9637 
G01 X40.7158 Y25.9890 
G01 X40.7295 Y26.0221 
G01 X40.7295 Y26.6579 
G01 X40.7158 Y26.6910 
G01 X40.6905 Y26.7163 
G01 X40.6574 Y26.7300 
G01 X39.3266 Y26.7300 
G01 X39.2935 Y26.7163 
G01 X39.2682 Y26.6910 
G01 X39.2545 Y26.6579 
G01 X39.2545 Y26.6391 
G01 X38.4281 Y26.6456 
G01 X38.3978 Y26.6476 
G01 X38.3812 Y26.6460 
G01 X38.3519 Y26.6384 
G01 X37.5947 Y26.4869 
G01 X34.2902 Y26.4869 
G01 X25.8982 Y28.2349 
G01 X25.8212 Y28.2306 
G01 X25.7478 Y28.2064 
G01 X25.7112 Y28.1824 
G01 X21.9059 Y28.1824 
G01 X21.3094 Y28.7789 
G01 X21.3244 Y28.7940 
G01 X21.3244 Y29.6260 
G01 X21.2831 Y29.6673 
G01 X21.2831 Y30.1010 
G01 X21.2694 Y30.1341 
G01 X21.2441 Y30.1594 
G01 X21.2110 Y30.1731 
G01 X20.7773 Y30.1731 
G01 X20.7360 Y30.2144 
G01 X19.9040 Y30.2144 
G01 X19.8627 Y30.1731 
G01 X19.4290 Y30.1731 
G01 X19.3959 Y30.1594 
G01 X19.3706 Y30.1341 
G01 X19.3569 Y30.1010 
G01 X19.3569 Y29.6673 
G01 X19.3156 Y29.6260 
G01 X19.3156 Y28.7940 
G01 X19.3569 Y28.7527 
G01 X19.3569 Y28.3190 
G01 X19.3706 Y28.2859 
G01 X19.3959 Y28.2606 
G01 X19.4290 Y28.2469 
G01 X19.8627 Y28.2469 
G01 X19.9040 Y28.2056 
G01 X20.7360 Y28.2056 
G01 X20.7510 Y28.2206 
G01 X21.3476 Y27.6241 
G00 Z1.0000 
G00 X21.9106 Y28.2859 
G01 Z-0.0800 F50.00 
G01 X21.9359 Y28.2606 F100.00 
G01 X21.9690 Y28.2469 
G01 X22.4027 Y28.2469 
G01 X22.4440 Y28.2056 
G01 X23.2760 Y28.2056 
G01 X23.3173 Y28.2469 
G01 X23.7510 Y28.2469 
G01 X23.7841 Y28.2606 
G01 X23.8094 Y28.2859 
G01 X23.8231 Y28.3190 
G01 X23.8231 Y28.7527 
G01 X23.8644 Y28.7940 
G01 X23.8644 Y28.8182 
G01 X25.8207 Y28.8241 
G01 X25.9210 Y28.8513 
G01 X25.9489 Y28.8676 
G01 X34.3610 Y26.6454 
G01 X34.3976 Y26.6355 
G01 X34.4368 Y26.6355 
G01 X37.4365 Y26.6355 
G01 X37.4750 Y26.6355 
G01 X37.5036 Y26.6355 
G01 X37.5235 Y26.6389 
G01 X37.5505 Y26.6481 
G01 X37.5782 Y26.6555 
G01 X38.1483 Y26.8529 
G01 X39.2545 Y26.8492 
G01 X39.2545 Y26.8221 
G01 X39.2682 Y26.7890 
G01 X39.2935 Y26.7637 
G01 X39.3266 Y26.7500 
G01 X40.6574 Y26.7500 
G01 X40.6905 Y26.7637 
G01 X40.7158 Y26.7890 
G01 X40.7295 Y26.8221 
G01 X40.7295 Y27.4579 
G01 X40.7158 Y27.4910 
G01 X40.6905 Y27.5163 
G01 X40.6574 Y27.5300 
G01 X39.3266 Y27.5300 
G01 X39.2935 Y27.5163 
G01 X39.2682 Y27.4910 
G01 X39.2545 Y27.4579 
G01 X39.2545 Y27.4356 
G01 X38.1290 Y27.4394 
G01 X38.1185 Y27.4414 
G01 X38.0905 Y27.4395 
G01 X38.0624 Y27.4396 
G01 X38.0521 Y27.4369 
G01 X38.0415 Y27.4361 
G01 X38.0149 Y27.4270 
G01 X37.9877 Y27.4198 
G01 X37.4162 Y27.2219 
G01 X34.4743 Y27.2219 
G01 X26.0987 Y29.4345 
G01 X26.0827 Y29.4621 
G01 X26.0090 Y29.5354 
G01 X25.9188 Y29.5871 
G01 X25.8183 Y29.6137 
G01 X23.8644 Y29.6078 
G01 X23.8644 Y29.6260 
G01 X23.8231 Y29.6673 
G01 X23.8231 Y30.1010 
G01 X23.8094 Y30.1341 
G01 X23.7841 Y30.1594 
G01 X23.7510 Y30.1731 
G01 X23.3173 Y30.1731 
G01 X23.2760 Y30.2144 
G01 X22.4440 Y30.2144 
G01 X22.4027 Y30.1731 
G01 X21.9690 Y30.1731 
G01 X21.9359 Y30.1594 
G01 X21.9106 Y30.1341 
G01 X21.8969 Y30.1010 
G01 X21.8969 Y29.6673 
G01 X21.8556 Y29.6260 
G01 X21.8556 Y28.7940 
G01 X21.8969 Y28.7527 
G01 X21.8969 Y28.3190 
G01 X21.9106 Y28.2859 
G00 Z1.0000 
G00 X21.8867 Y30.2354 
G01 Z-0.0800 F50.00 
G01 X21.8880 Y30.2376 F100.00 
G01 X25.7106 Y30.2376 
G01 X25.7287 Y30.2237 
G01 X25.8001 Y30.1942 
G01 X35.6429 Y28.9118 
G01 X35.6614 Y28.9068 
G01 X35.6810 Y28.9068 
G01 X35.7004 Y28.9043 
G01 X35.7194 Y28.9068 
G01 X37.8972 Y28.9068 
G01 X38.2995 Y28.5849 
G01 X38.3107 Y28.5728 
G01 X38.3296 Y28.5609 
G01 X38.3470 Y28.5469 
G01 X38.3621 Y28.5403 
G01 X38.3759 Y28.5315 
G01 X38.3972 Y28.5249 
G01 X38.4177 Y28.5160 
G01 X38.4340 Y28.5135 
G01 X38.4496 Y28.5086 
G01 X38.4720 Y28.5077 
G01 X38.4940 Y28.5043 
G01 X38.5104 Y28.5061 
G01 X39.2545 Y28.4762 
G01 X39.2545 Y28.4221 
G01 X39.2682 Y28.3890 
G01 X39.2935 Y28.3637 
G01 X39.3266 Y28.3500 
G01 X40.6574 Y28.3500 
G01 X40.6905 Y28.3637 
G01 X40.7158 Y28.3890 
G01 X40.7295 Y28.4221 
G01 X40.7295 Y29.0579 
G01 X40.7158 Y29.0910 
G01 X40.6905 Y29.1163 
G01 X40.6574 Y29.1300 
G01 X39.3266 Y29.1300 
G01 X39.2935 Y29.1163 
G01 X39.2682 Y29.0910 
G01 X39.2566 Y29.0630 
G01 X38.6080 Y29.0891 
G01 X38.1958 Y29.4188 
G01 X38.1800 Y29.4346 
G01 X38.1658 Y29.4428 
G01 X38.1530 Y29.4531 
G01 X38.1325 Y29.4620 
G01 X38.1132 Y29.4732 
G01 X38.0973 Y29.4775 
G01 X38.0823 Y29.4840 
G01 X38.0602 Y29.4874 
G01 X38.0386 Y29.4932 
G01 X38.0222 Y29.4932 
G01 X38.0060 Y29.4957 
G01 X37.9838 Y29.4932 
G01 X35.7190 Y29.4932 
G01 X25.8759 Y30.7757 
G01 X25.7993 Y30.7655 
G01 X25.7280 Y30.7359 
G01 X25.7105 Y30.7224 
G01 X21.8879 Y30.7224 
G01 X21.3045 Y31.3140 
G01 X21.3244 Y31.3340 
G01 X21.3244 Y32.1660 
G01 X21.2831 Y32.2073 
G01 X21.2831 Y32.6410 
G01 X21.2694 Y32.6741 
G01 X21.2441 Y32.6994 
G01 X21.2110 Y32.7131 
G01 X20.7773 Y32.7131 
G01 X20.7360 Y32.7544 
G01 X19.9040 Y32.7544 
G01 X19.8627 Y32.7131 
G01 X19.4290 Y32.7131 
G01 X19.3959 Y32.6994 
G01 X19.3706 Y32.6741 
G01 X19.3569 Y32.6410 
G01 X19.3569 Y32.2073 
G01 X19.3156 Y32.1660 
G01 X19.3156 Y31.3340 
G01 X19.3569 Y31.2927 
G01 X19.3569 Y30.8590 
G01 X19.3706 Y30.8259 
G01 X19.3959 Y30.8006 
G01 X19.4290 Y30.7869 
G01 X19.8627 Y30.7869 
G01 X19.9040 Y30.7456 
G01 X20.7360 Y30.7456 
G01 X20.7461 Y30.7557 
G01 X21.3279 Y30.1658 
G01 X21.4176 Y30.1132 
G01 X21.5178 Y30.0856 
G01 X21.6217 Y30.0848 
G01 X21.7223 Y30.1111 
G01 X21.8127 Y30.1624 
G01 X21.8867 Y30.2354 
G00 Z1.0000 
G00 X21.9106 Y30.8259 
G01 Z-0.0800 F50.00 
G01 X21.9359 Y30.8006 F100.00 
G01 X21.9690 Y30.7869 
G01 X22.4027 Y30.7869 
G01 X22.4440 Y30.7456 
G01 X23.2760 Y30.7456 
G01 X23.3173 Y30.7869 
G01 X23.7510 Y30.7869 
G01 X23.7841 Y30.8006 
G01 X23.8094 Y30.8259 
G01 X23.8231 Y30.8590 
G01 X23.8231 Y31.2927 
G01 X23.8644 Y31.3340 
G01 X23.8644 Y31.3552 
G01 X25.8488 Y31.3552 
G01 X25.9493 Y31.3821 
G01 X26.0094 Y31.4169 
G01 X33.0222 Y30.2351 
G01 X34.3832 Y29.8289 
G01 X34.4201 Y29.8179 
G01 X34.4531 Y29.8080 
G01 X34.4958 Y29.8068 
G01 X34.5303 Y29.8058 
G01 X37.6976 Y29.8068 
G01 X37.7337 Y29.8062 
G01 X37.7736 Y29.8162 
G01 X38.5400 Y30.0078 
G01 X39.2545 Y30.0269 
G01 X39.2682 Y29.9890 
G01 X39.2935 Y29.9637 
G01 X39.3266 Y29.9500 
G01 X40.6574 Y29.9500 
G01 X40.6905 Y29.9637 
G01 X40.7158 Y29.9890 
G01 X40.7295 Y30.0221 
G01 X40.7295 Y30.6579 
G01 X40.7158 Y30.6910 
G01 X40.6905 Y30.7163 
G01 X40.6574 Y30.7300 
G01 X39.3266 Y30.7300 
G01 X39.2935 Y30.7163 
G01 X39.2682 Y30.6910 
G01 X39.2545 Y30.6579 
G01 X39.2545 Y30.6135 
G01 X38.4985 Y30.5933 
G01 X38.4663 Y30.5938 
G01 X38.4536 Y30.5921 
G01 X38.4227 Y30.5829 
G01 X37.6639 Y30.3932 
G01 X34.5428 Y30.3932 
G01 X33.1921 Y30.7964 
G01 X33.1755 Y30.8040 
G01 X33.1553 Y30.8074 
G01 X33.1356 Y30.8132 
G01 X33.1174 Y30.8138 
G01 X26.1108 Y31.9944 
G01 X26.0393 Y32.0659 
G01 X25.9493 Y32.1179 
G01 X25.8488 Y32.1448 
G01 X23.8644 Y32.1448 
G01 X23.8644 Y32.1660 
G01 X23.8231 Y32.2073 
G01 X23.8231 Y32.6410 
G01 X23.8094 Y32.6741 
G01 X23.7841 Y32.6994 
G01 X23.7510 Y32.7131 
G01 X23.3173 Y32.7131 
G01 X23.2760 Y32.7544 
G01 X22.4440 Y32.7544 
G01 X22.4027 Y32.7131 
G01 X21.9690 Y32.7131 
G01 X21.9359 Y32.6994 
G01 X21.9106 Y32.6741 
G01 X21.8969 Y32.6410 
G01 X21.8969 Y32.2073 
G01 X21.8556 Y32.1660 
G01 X21.8556 Y31.3340 
G01 X21.8969 Y31.2927 
G01 X21.8969 Y30.8590 
G01 X21.9106 Y30.8259 
G00 Z1.0000 
G00 X21.8324 Y32.7041 
G01 Z-0.0800 F50.00 
G01 X21.9059 Y32.7776 F100.00 
G01 X25.5481 Y32.7776 
G01 X25.6169 Y32.7419 
G01 X33.5096 Y31.0073 
G01 X34.7364 Y30.6355 
G01 X34.7733 Y30.6243 
G01 X34.8056 Y30.6145 
G01 X34.8490 Y30.6131 
G01 X34.8828 Y30.6120 
G01 X37.5841 Y30.6131 
G01 X37.6226 Y30.6131 
G01 X37.6536 Y30.6131 
G01 X37.6687 Y30.6154 
G01 X37.6982 Y30.6250 
G01 X37.7282 Y30.6330 
G01 X38.3072 Y30.8225 
G01 X39.2545 Y30.8361 
G01 X39.2545 Y30.8221 
G01 X39.2682 Y30.7890 
G01 X39.2935 Y30.7637 
G01 X39.3266 Y30.7500 
G01 X40.6574 Y30.7500 
G01 X40.6905 Y30.7637 
G01 X40.7158 Y30.7890 
G01 X40.7295 Y30.8221 
G01 X40.7295 Y31.4579 
G01 X40.7158 Y31.4910 
G01 X40.6905 Y31.5163 
G01 X40.6574 Y31.5300 
G01 X39.3266 Y31.5300 
G01 X39.2935 Y31.5163 
G01 X39.2682 Y31.4910 
G01 X39.2545 Y31.4579 
G01 X39.2545 Y31.4226 
G01 X38.2876 Y31.4086 
G01 X38.2490 Y31.4081 
G01 X38.2159 Y31.4076 
G01 X38.2050 Y31.4058 
G01 X38.1735 Y31.3956 
G01 X38.1416 Y31.3866 
G01 X37.5686 Y31.1994 
G01 X34.8972 Y31.1994 
G01 X33.6947 Y31.5640 
G01 X33.6844 Y31.5693 
G01 X33.6578 Y31.5752 
G01 X33.6319 Y31.5830 
G01 X33.6203 Y31.5834 
G01 X25.7427 Y33.3146 
G01 X25.6656 Y33.3111 
G01 X25.5920 Y33.2878 
G01 X25.5523 Y33.2624 
G01 X21.9059 Y33.2624 
G01 X21.3094 Y33.8589 
G01 X21.3244 Y33.8740 
G01 X21.3244 Y34.7060 
G01 X21.2831 Y34.7473 
G01 X21.2831 Y35.1810 
G01 X21.2694 Y35.2141 
G01 X21.2441 Y35.2394 
G01 X21.2110 Y35.2531 
G01 X20.7773 Y35.2531 
G01 X20.7360 Y35.2944 
G01 X19.9040 Y35.2944 
G01 X19.8627 Y35.2531 
G01 X19.4290 Y35.2531 
G01 X19.3959 Y35.2394 
G01 X19.3706 Y35.2141 
G01 X19.3569 Y35.1810 
G01 X19.3569 Y34.7473 
G01 X19.3156 Y34.7060 
G01 X19.3156 Y33.8740 
G01 X19.3569 Y33.8327 
G01 X19.3569 Y33.3990 
G01 X19.3706 Y33.3659 
G01 X19.3959 Y33.3406 
G01 X19.4290 Y33.3269 
G01 X19.8627 Y33.3269 
G01 X19.9040 Y33.2856 
G01 X20.7360 Y33.2856 
G01 X20.7510 Y33.3006 
G01 X21.3476 Y32.7041 
G01 X21.4376 Y32.6521 
G01 X21.5380 Y32.6252 
G01 X21.6420 Y32.6252 
G01 X21.7424 Y32.6521 
G01 X21.8324 Y32.7041 
G00 Z1.0000 
G00 X21.9106 Y33.3659 
G01 Z-0.0800 F50.00 
G01 X21.9359 Y33.3406 F100.00 
G01 X21.9690 Y33.3269 
G01 X22.4027 Y33.3269 
G01 X22.4440 Y33.2856 
G01 X23.2760 Y33.2856 
G01 X23.3173 Y33.3269 
G01 X23.7510 Y33.3269 
G01 X23.7841 Y33.3406 
G01 X23.8094 Y33.3659 
G01 X23.8231 Y33.3990 
G01 X23.8231 Y33.8327 
G01 X23.8644 Y33.8740 
G01 X23.8644 Y33.8952 
G01 X25.7695 Y33.8952 
G01 X25.8699 Y33.9221 
G01 X25.9428 Y33.9642 
G01 X33.8424 Y32.9119 
G01 X33.8614 Y32.9068 
G01 X33.8806 Y32.9068 
G01 X33.8995 Y32.9043 
G01 X33.9190 Y32.9068 
G01 X37.5443 Y32.9068 
G01 X38.6058 Y32.4883 
G01 X38.6191 Y32.4804 
G01 X38.6417 Y32.4741 
G01 X38.6634 Y32.4656 
G01 X38.6786 Y32.4638 
G01 X38.6935 Y32.4597 
G01 X38.7169 Y32.4595 
G01 X38.7401 Y32.4568 
G01 X38.7553 Y32.4591 
G01 X39.2545 Y32.4541 
G01 X39.2545 Y32.4221 
G01 X39.2682 Y32.3890 
G01 X39.2935 Y32.3637 
G01 X39.3266 Y32.3500 
G01 X40.6574 Y32.3500 
G01 X40.6905 Y32.3637 
G01 X40.7158 Y32.3890 
G01 X40.7295 Y32.4221 
G01 X40.7295 Y33.0579 
G01 X40.7158 Y33.0910 
G01 X40.6905 Y33.1163 
G01 X40.6574 Y33.1300 
G01 X39.3266 Y33.1300 
G01 X39.2935 Y33.1163 
G01 X39.2682 Y33.0910 
G01 X39.2545 Y33.0579 
G01 X39.2545 Y33.0405 
G01 X38.7921 Y33.0451 
G01 X37.7278 Y33.4648 
G01 X37.7132 Y33.4732 
G01 X37.6920 Y33.4789 
G01 X37.6716 Y33.4869 
G01 X37.6549 Y33.4888 
G01 X37.6386 Y33.4932 
G01 X37.6167 Y33.4932 
G01 X37.5949 Y33.4957 
G01 X37.5782 Y33.4932 
G01 X33.9194 Y33.4932 
G01 X26.0204 Y34.5454 
G01 X25.9599 Y34.6059 
G01 X25.8699 Y34.6579 
G01 X25.7695 Y34.6848 
G01 X23.8644 Y34.6848 
G01 X23.8644 Y34.7060 
G01 X23.8231 Y34.7473 
G01 X23.8231 Y35.1810 
G01 X23.8094 Y35.2141 
G01 X23.7841 Y35.2394 
G01 X23.7510 Y35.2531 
G01 X23.3173 Y35.2531 
G01 X23.2760 Y35.2944 
G01 X22.4440 Y35.2944 
G01 X22.4027 Y35.2531 
G01 X21.9690 Y35.2531 
G01 X21.9359 Y35.2394 
G01 X21.9106 Y35.2141 
G01 X21.8969 Y35.1810 
G01 X21.8969 Y34.7473 
G01 X21.8556 Y34.7060 
G01 X21.8556 Y33.8740 
G01 X21.8969 Y33.8327 
G01 X21.8969 Y33.3990 
G01 X21.9106 Y33.3659 
G00 Z1.0000 
G00 X21.8186 Y35.3075 
G01 Z-0.0800 F50.00 
G01 X21.8248 Y35.3176 F100.00 
G01 X25.8668 Y35.3176 
G01 X25.9404 Y35.2798 
G01 X34.1112 Y33.6692 
G01 X34.1389 Y33.6618 
G01 X34.1587 Y33.6599 
G01 X34.1874 Y33.6618 
G01 X37.6933 Y33.6618 
G01 X38.6037 Y33.2340 
G01 X38.6314 Y33.2193 
G01 X38.6452 Y33.2145 
G01 X38.6761 Y33.2089 
G01 X38.7066 Y33.2019 
G01 X38.7212 Y33.2008 
G01 X38.7525 Y33.2035 
G01 X39.2550 Y33.2210 
G01 X39.2682 Y33.1890 
G01 X39.2935 Y33.1637 
G01 X39.3266 Y33.1500 
G01 X40.6574 Y33.1500 
G01 X40.6905 Y33.1637 
G01 X40.7158 Y33.1890 
G01 X40.7295 Y33.2221 
G01 X40.7295 Y33.8579 
G01 X40.7158 Y33.8910 
G01 X40.6905 Y33.9163 
G01 X40.6574 Y33.9300 
G01 X39.3266 Y33.9300 
G01 X39.2935 Y33.9163 
G01 X39.2682 Y33.8910 
G01 X39.2545 Y33.8579 
G01 X39.2545 Y33.8077 
G01 X38.7956 Y33.7917 
G01 X37.8946 Y34.2151 
G01 X37.8719 Y34.2282 
G01 X37.8598 Y34.2315 
G01 X37.8485 Y34.2368 
G01 X37.8227 Y34.2414 
G01 X37.7974 Y34.2482 
G01 X37.7848 Y34.2482 
G01 X37.7725 Y34.2504 
G01 X37.7464 Y34.2482 
G01 X34.2061 Y34.2482 
G01 X26.0538 Y35.8551 
G01 X25.9768 Y35.8499 
G01 X25.9037 Y35.8250 
G01 X25.8700 Y35.8024 
G01 X21.8245 Y35.8024 
G01 X21.2866 Y36.3762 
G01 X21.3244 Y36.4140 
G01 X21.3244 Y37.2460 
G01 X21.2831 Y37.2873 
G01 X21.2831 Y37.7210 
G01 X21.2694 Y37.7541 
G01 X21.2441 Y37.7794 
G01 X21.2110 Y37.7931 
G01 X20.7773 Y37.7931 
G01 X20.7360 Y37.8344 
G01 X19.9040 Y37.8344 
G01 X19.8627 Y37.7931 
G01 X19.4290 Y37.7931 
G01 X19.3959 Y37.7794 
G01 X19.3706 Y37.7541 
G01 X19.3569 Y37.7210 
G01 X19.3569 Y37.2873 
G01 X19.3156 Y37.2460 
G01 X19.3156 Y36.4140 
G01 X19.3569 Y36.3727 
G01 X19.3569 Y35.9390 
G01 X19.3706 Y35.9059 
G01 X19.3959 Y35.8806 
G01 X19.4290 Y35.8669 
G01 X19.8627 Y35.8669 
G01 X19.9040 Y35.8256 
G01 X20.7205 Y35.8256 
G01 X21.2582 Y35.2521 
G01 X21.3465 Y35.1972 
G01 X21.4459 Y35.1671 
G01 X21.5498 Y35.1637 
G01 X21.6511 Y35.1874 
G01 X21.7427 Y35.2364 
G01 X21.8186 Y35.3075 
G00 Z1.0000 
G00 X21.9106 Y35.9059 
G01 Z-0.0800 F50.00 
G01 X21.9359 Y35.8806 F100.00 
G01 X21.9690 Y35.8669 
G01 X22.4027 Y35.8669 
G01 X22.4440 Y35.8256 
G01 X23.2760 Y35.8256 
G01 X23.3173 Y35.8669 
G01 X23.7510 Y35.8669 
G01 X23.7841 Y35.8806 
G01 X23.8094 Y35.9059 
G01 X23.8231 Y35.9390 
G01 X23.8231 Y36.3727 
G01 X23.8644 Y36.4140 
G01 X23.8644 Y36.4352 
G01 X25.9282 Y36.4352 
G01 X26.0286 Y36.4621 
G01 X26.0976 Y36.5019 
G01 X37.2448 Y34.8964 
G01 X37.2629 Y34.8912 
G01 X37.2829 Y34.8909 
G01 X37.3027 Y34.8880 
G01 X37.3213 Y34.8903 
G01 X39.2545 Y34.8588 
G01 X39.2545 Y34.8221 
G01 X39.2682 Y34.7890 
G01 X39.2935 Y34.7637 
G01 X39.3266 Y34.7500 
G01 X40.6574 Y34.7500 
G01 X40.6905 Y34.7637 
G01 X40.7158 Y34.7890 
G01 X40.7295 Y34.8221 
G01 X40.7295 Y35.4579 
G01 X40.7158 Y35.4910 
G01 X40.6905 Y35.5163 
G01 X40.6574 Y35.5300 
G01 X39.3266 Y35.5300 
G01 X39.2935 Y35.5163 
G01 X39.2682 Y35.4910 
G01 X39.2545 Y35.4579 
G01 X39.2545 Y35.4452 
G01 X37.3296 Y35.4766 
G01 X26.1825 Y37.0821 
G01 X26.1187 Y37.1459 
G01 X26.0286 Y37.1979 
G01 X25.9282 Y37.2248 
G01 X23.8644 Y37.2248 
G01 X23.8644 Y37.2460 
G01 X23.8231 Y37.2873 
G01 X23.8231 Y37.7210 
G01 X23.8094 Y37.7541 
G01 X23.7841 Y37.7794 
G01 X23.7510 Y37.7931 
G01 X23.3173 Y37.7931 
G01 X23.2760 Y37.8344 
G01 X22.4440 Y37.8344 
G01 X22.4027 Y37.7931 
G01 X21.9690 Y37.7931 
G01 X21.9359 Y37.7794 
G01 X21.9106 Y37.7541 
G01 X21.8969 Y37.7210 
G01 X21.8969 Y37.2873 
G01 X21.8556 Y37.2460 
G01 X21.8556 Y36.4140 
G01 X21.8969 Y36.3727 
G01 X21.8969 Y35.9390 
G01 X21.9106 Y35.9059 
G00 Z1.0000 
G00 X21.9106 Y38.4459 
G01 Z-0.0800 F50.00 
G01 X21.9359 Y38.4206 F100.00 
G01 X21.9690 Y38.4069 
G01 X22.4027 Y38.4069 
G01 X22.4440 Y38.3656 
G01 X23.2760 Y38.3656 
G01 X23.3173 Y38.4069 
G01 X23.7510 Y38.4069 
G01 X23.7841 Y38.4206 
G01 X23.8094 Y38.4459 
G01 X23.8231 Y38.4790 
G01 X23.8231 Y38.8736 
G01 X36.4352 Y38.8736 
G01 X36.4352 Y38.6932 
G01 X35.3564 Y38.6932 
G01 X35.3233 Y38.6795 
G01 X35.2980 Y38.6542 
G01 X35.2843 Y38.6211 
G01 X35.2843 Y37.5789 
G01 X35.2980 Y37.5458 
G01 X35.3233 Y37.5205 
G01 X35.3564 Y37.5068 
G01 X37.3511 Y37.5068 
G01 X37.3842 Y37.5205 
G01 X37.4095 Y37.5458 
G01 X37.4232 Y37.5789 
G01 X37.4232 Y38.6211 
G01 X37.4095 Y38.6542 
G01 X37.3842 Y38.6795 
G01 X37.3511 Y38.6932 
G01 X37.2248 Y38.6932 
G01 X37.2248 Y38.8736 
G01 X37.7908 Y38.8736 
G01 X37.7061 Y37.4915 
G01 X37.7025 Y37.4419 
G01 X37.7126 Y37.3887 
G01 X37.7220 Y37.3398 
G01 X37.7456 Y37.2910 
G01 X37.7673 Y37.2462 
G01 X37.8028 Y37.2052 
G01 X38.4128 Y36.4990 
G01 X38.4210 Y36.4851 
G01 X38.4467 Y36.4598 
G01 X38.4702 Y36.4326 
G01 X38.4836 Y36.4235 
G01 X38.4951 Y36.4122 
G01 X38.5264 Y36.3944 
G01 X38.5562 Y36.3742 
G01 X38.5715 Y36.3689 
G01 X38.5855 Y36.3609 
G01 X38.6204 Y36.3519 
G01 X38.6544 Y36.3400 
G01 X38.6705 Y36.3389 
G01 X38.6862 Y36.3348 
G01 X38.7222 Y36.3351 
G01 X38.7581 Y36.3325 
G01 X38.7740 Y36.3355 
G01 X40.0471 Y36.3456 
G01 X40.0629 Y36.3500 
G01 X40.6574 Y36.3500 
G01 X40.6905 Y36.3637 
G01 X40.7158 Y36.3890 
G01 X40.7295 Y36.4221 
G01 X40.7295 Y37.0579 
G01 X40.7158 Y37.0910 
G01 X40.6905 Y37.1163 
G01 X40.6574 Y37.1300 
G01 X40.0609 Y37.1300 
G01 X40.0408 Y37.1352 
G01 X39.3871 Y37.1300 
G01 X39.3266 Y37.1300 
G01 X38.9144 Y37.1262 
G01 X38.5039 Y37.6014 
G01 X38.5656 Y38.6068 
G01 X39.2545 Y38.2651 
G01 X39.2545 Y38.0221 
G01 X39.2682 Y37.9890 
G01 X39.2935 Y37.9637 
G01 X39.3266 Y37.9500 
G01 X39.9288 Y37.9500 
G01 X39.9651 Y37.9427 
G01 X40.0688 Y37.9493 
G01 X40.6574 Y37.9500 
G01 X40.6905 Y37.9637 
G01 X40.7158 Y37.9890 
G01 X40.7295 Y38.0221 
G01 X40.7295 Y38.6579 
G01 X40.7158 Y38.6910 
G01 X40.6905 Y38.7163 
G01 X40.6574 Y38.7300 
G01 X40.0942 Y38.7300 
G01 X38.6551 Y39.4437 
G01 X38.6453 Y39.4685 
G01 X38.5155 Y39.6431 
G01 X38.4972 Y39.6748 
G01 X38.4767 Y39.6953 
G01 X38.4594 Y39.7186 
G01 X38.4307 Y39.7413 
G01 X38.4048 Y39.7672 
G01 X38.3797 Y39.7817 
G01 X38.3569 Y39.7997 
G01 X38.3233 Y39.8143 
G01 X38.2916 Y39.8326 
G01 X38.2636 Y39.8401 
G01 X38.2370 Y39.8516 
G01 X38.2007 Y39.8569 
G01 X38.1654 Y39.8664 
G01 X38.1363 Y39.8664 
G01 X38.1076 Y39.8706 
G01 X38.0713 Y39.8664 
G01 X33.1989 Y39.8664 
G01 X33.1989 Y40.3200 
G01 X33.4704 Y40.3200 
G01 X33.5035 Y40.3337 
G01 X33.5288 Y40.3590 
G01 X33.5425 Y40.3921 
G01 X33.5425 Y41.7279 
G01 X33.5288 Y41.7610 
G01 X33.5035 Y41.7863 
G01 X33.4704 Y41.8000 
G01 X31.9346 Y41.8000 
G01 X31.9015 Y41.7863 
G01 X31.8762 Y41.7610 
G01 X31.8625 Y41.7279 
G01 X31.8625 Y40.3921 
G01 X31.8762 Y40.3590 
G01 X31.9015 Y40.3337 
G01 X31.9346 Y40.3200 
G01 X32.2061 Y40.3200 
G01 X32.2061 Y39.8664 
G01 X30.0239 Y39.8664 
G01 X30.0239 Y40.3200 
G01 X30.2954 Y40.3200 
G01 X30.3285 Y40.3337 
G01 X30.3538 Y40.3590 
G01 X30.3675 Y40.3921 
G01 X30.3675 Y41.7279 
G01 X30.3538 Y41.7610 
G01 X30.3285 Y41.7863 
G01 X30.2954 Y41.8000 
G01 X28.7596 Y41.8000 
G01 X28.7265 Y41.7863 
G01 X28.7012 Y41.7610 
G01 X28.6875 Y41.7279 
G01 X28.6875 Y40.3921 
G01 X28.7012 Y40.3590 
G01 X28.7265 Y40.3337 
G01 X28.7596 Y40.3200 
G01 X29.0311 Y40.3200 
G01 X29.0311 Y39.8664 
G01 X25.8964 Y39.8664 
G01 X25.8964 Y42.4910 
G01 X25.8988 Y42.5020 
G01 X25.8964 Y42.5562 
G01 X25.8964 Y42.6104 
G01 X25.8935 Y42.6213 
G01 X25.8930 Y42.6326 
G01 X25.8766 Y42.6842 
G01 X25.8626 Y42.7366 
G01 X25.8535 Y42.7572 
G01 X25.8243 Y42.8029 
G01 X25.7972 Y42.8498 
G01 X25.1893 Y43.7966 
G01 X25.1622 Y43.8435 
G01 X25.1481 Y43.8611 
G01 X25.1081 Y43.8977 
G01 X25.0698 Y43.9360 
G01 X25.0516 Y43.9493 
G01 X25.0035 Y43.9742 
G01 X24.9566 Y44.0013 
G01 X24.9456 Y44.0043 
G01 X24.9356 Y44.0095 
G01 X24.8827 Y44.0211 
G01 X24.8304 Y44.0351 
G01 X24.8190 Y44.0351 
G01 X24.8080 Y44.0376 
G01 X24.7539 Y44.0351 
G01 X16.1438 Y44.0351 
G01 X16.1370 Y44.0517 
G01 X16.1117 Y44.0770 
G01 X16.0786 Y44.0907 
G01 X15.0364 Y44.0907 
G01 X15.0033 Y44.0770 
G01 X14.9780 Y44.0517 
G01 X14.9643 Y44.0186 
G01 X14.9643 Y42.9764 
G01 X14.9780 Y42.9433 
G01 X15.0033 Y42.9180 
G01 X15.0364 Y42.9043 
G01 X16.0786 Y42.9043 
G01 X16.1117 Y42.9180 
G01 X16.1370 Y42.9433 
G01 X16.1507 Y42.9764 
G01 X16.1507 Y43.0423 
G01 X24.4931 Y43.0423 
G01 X24.9036 Y42.3999 
G01 X24.9036 Y39.8664 
G01 X23.8231 Y39.8664 
G01 X23.8231 Y40.2610 
G01 X23.8094 Y40.2941 
G01 X23.7841 Y40.3194 
G01 X23.7510 Y40.3331 
G01 X23.3173 Y40.3331 
G01 X23.2760 Y40.3744 
G01 X22.4440 Y40.3744 
G01 X22.4027 Y40.3331 
G01 X21.9690 Y40.3331 
G01 X21.9359 Y40.3194 
G01 X21.9106 Y40.2941 
G01 X21.8969 Y40.2610 
G01 X21.8969 Y39.8273 
G01 X21.8556 Y39.7860 
G01 X21.8556 Y38.9540 
G01 X21.8969 Y38.9127 
G01 X21.8969 Y38.4790 
G01 X21.9106 Y38.4459 
G00 Z1.0000 
G00 X21.8324 Y40.3241 
G01 Z-0.0800 F50.00 
G01 X22.4289 Y40.9206 F100.00 
G01 X22.4440 Y40.9056 
G01 X23.2760 Y40.9056 
G01 X23.3173 Y40.9469 
G01 X23.7510 Y40.9469 
G01 X23.7841 Y40.9606 
G01 X23.8094 Y40.9859 
G01 X23.8231 Y41.0190 
G01 X23.8231 Y41.4527 
G01 X23.8644 Y41.4940 
G01 X23.8644 Y42.3260 
G01 X23.8231 Y42.3673 
G01 X23.8231 Y42.8010 
G01 X23.8094 Y42.8341 
G01 X23.7841 Y42.8594 
G01 X23.7510 Y42.8731 
G01 X23.3173 Y42.8731 
G01 X23.2760 Y42.9144 
G01 X22.4440 Y42.9144 
G01 X22.4027 Y42.8731 
G01 X21.9690 Y42.8731 
G01 X21.9359 Y42.8594 
G01 X21.9106 Y42.8341 
G01 X21.8969 Y42.8010 
G01 X21.8969 Y42.3673 
G01 X21.8556 Y42.3260 
G01 X21.8556 Y41.4940 
G01 X21.8706 Y41.4789 
G01 X21.2741 Y40.8824 
G01 X18.2641 Y40.8824 
G01 X18.2107 Y40.9132 
G01 X18.1361 Y40.9332 
G01 X14.8839 Y40.9332 
G01 X14.8093 Y40.9132 
G01 X14.7425 Y40.8746 
G01 X14.6879 Y40.8200 
G01 X13.5311 Y39.6632 
G01 X10.2500 Y39.6632 
G01 X10.2500 Y40.2610 
G01 X10.2363 Y40.2941 
G01 X10.2110 Y40.3194 
G01 X10.1779 Y40.3331 
G01 X8.3958 Y40.3331 
G01 X8.3628 Y40.3194 
G01 X8.3375 Y40.2941 
G01 X8.3238 Y40.2610 
G01 X8.3238 Y38.4790 
G01 X8.3375 Y38.4459 
G01 X8.3628 Y38.4206 
G01 X8.3958 Y38.4069 
G01 X10.1779 Y38.4069 
G01 X10.2110 Y38.4206 
G01 X10.2363 Y38.4459 
G01 X10.2500 Y38.4790 
G01 X10.2500 Y39.0768 
G01 X13.6911 Y39.0768 
G01 X13.7657 Y39.0968 
G01 X13.8325 Y39.1354 
G01 X13.8871 Y39.1900 
G01 X15.0439 Y40.3468 
G01 X18.1361 Y40.3468 
G01 X18.2107 Y40.3668 
G01 X18.2641 Y40.3976 
G01 X21.2741 Y40.3976 
G01 X21.3476 Y40.3241 
G01 X21.4376 Y40.2721 
G01 X21.5380 Y40.2452 
G01 X21.6420 Y40.2452 
G01 X21.7424 Y40.2721 
G01 X21.8324 Y40.3241 
G00 Z1.0000 
G00 X21.2441 Y40.9606 
G01 Z-0.0800 F50.00 
G01 X21.2694 Y40.9859 F100.00 
G01 X21.2831 Y41.0190 
G01 X21.2831 Y41.4527 
G01 X21.3244 Y41.4940 
G01 X21.3244 Y42.3260 
G01 X21.2831 Y42.3673 
G01 X21.2831 Y42.8010 
G01 X21.2694 Y42.8341 
G01 X21.2441 Y42.8594 
G01 X21.2110 Y42.8731 
G01 X20.7773 Y42.8731 
G01 X20.7360 Y42.9144 
G01 X19.9040 Y42.9144 
G01 X19.8627 Y42.8731 
G01 X19.4290 Y42.8731 
G01 X19.3959 Y42.8594 
G01 X19.3706 Y42.8341 
G01 X19.3569 Y42.8010 
G01 X19.3569 Y42.3673 
G01 X19.3156 Y42.3260 
G01 X19.3156 Y42.2032 
G01 X14.5664 Y42.2032 
G01 X14.4918 Y42.1832 
G01 X14.4250 Y42.1446 
G01 X13.8485 Y41.5682 
G01 X12.7106 Y41.5682 
G01 X12.7106 Y42.4042 
G01 X12.6969 Y42.4372 
G01 X12.6716 Y42.4625 
G01 X12.6385 Y42.4762 
G01 X10.8565 Y42.4762 
G01 X10.8234 Y42.4625 
G01 X10.7981 Y42.4372 
G01 X10.7844 Y42.4042 
G01 X10.7844 Y40.6221 
G01 X10.7981 Y40.5890 
G01 X10.8234 Y40.5637 
G01 X10.8565 Y40.5500 
G01 X12.6385 Y40.5500 
G01 X12.6716 Y40.5637 
G01 X12.6969 Y40.5890 
G01 X12.7106 Y40.6221 
G01 X12.7106 Y40.9818 
G01 X14.0086 Y40.9818 
G01 X14.0832 Y41.0018 
G01 X14.1500 Y41.0404 
G01 X14.2046 Y41.0950 
G01 X14.7264 Y41.6168 
G01 X19.3156 Y41.6168 
G01 X19.3156 Y41.4940 
G01 X19.3569 Y41.4527 
G01 X19.3569 Y41.0190 
G01 X19.3706 Y40.9859 
G01 X19.3959 Y40.9606 
G01 X19.4290 Y40.9469 
G01 X19.8627 Y40.9469 
G01 X19.9040 Y40.9056 
G01 X20.7360 Y40.9056 
G01 X20.7773 Y40.9469 
G01 X21.2110 Y40.9469 
G01 X21.2441 Y40.9606 
G00 Z1.0000 
G00 X16.1370 Y33.8917 
G01 Z-0.0800 F50.00 
G01 X16.1117 Y33.9170 F100.00 
G01 X16.0786 Y33.9307 
G01 X15.0364 Y33.9307 
G01 X15.0033 Y33.9170 
G01 X14.9780 Y33.8917 
G01 X14.9643 Y33.8586 
G01 X14.9643 Y33.7515 
G01 X14.9352 Y33.7347 
G01 X14.3994 Y33.1989 
G01 X10.8948 Y33.1989 
G01 X10.2500 Y34.1442 
G01 X10.2500 Y35.5779 
G01 X10.2363 Y35.6110 
G01 X10.2110 Y35.6363 
G01 X10.1779 Y35.6500 
G01 X8.3958 Y35.6500 
G01 X8.3628 Y35.6363 
G01 X8.3375 Y35.6110 
G01 X8.3238 Y35.5779 
G01 X8.3238 Y33.7958 
G01 X8.3375 Y33.7628 
G01 X8.3628 Y33.7375 
G01 X8.3958 Y33.7238 
G01 X9.3350 Y33.7238 
G01 X10.2119 Y32.4382 
G01 X10.2353 Y32.3977 
G01 X10.2486 Y32.3844 
G01 X10.2592 Y32.3688 
G01 X10.2947 Y32.3383 
G01 X10.3277 Y32.3053 
G01 X10.3440 Y32.2959 
G01 X10.3583 Y32.2836 
G01 X10.4004 Y32.2633 
G01 X10.4409 Y32.2399 
G01 X10.4591 Y32.2351 
G01 X10.4761 Y32.2269 
G01 X10.5220 Y32.2182 
G01 X10.5671 Y32.2061 
G01 X10.5860 Y32.2061 
G01 X10.6045 Y32.2026 
G01 X10.6511 Y32.2061 
G01 X14.6704 Y32.2061 
G01 X14.7966 Y32.2399 
G01 X14.9098 Y32.3053 
G01 X15.3488 Y32.7443 
G01 X16.0786 Y32.7443 
G01 X16.1117 Y32.7580 
G01 X16.1370 Y32.7833 
G01 X16.1507 Y32.8164 
G01 X16.1507 Y33.8586 
G01 X16.1370 Y33.8917 
G00 Z1.0000 
G00 X12.7106 Y33.7958 
G01 Z-0.0800 F50.00 
G01 X12.7106 Y35.5779 F100.00 
G01 X12.6969 Y35.6110 
G01 X12.6716 Y35.6363 
G01 X12.6385 Y35.6500 
G01 X10.8565 Y35.6500 
G01 X10.8234 Y35.6363 
G01 X10.7981 Y35.6110 
G01 X10.7844 Y35.5779 
G01 X10.7844 Y33.7958 
G01 X10.7981 Y33.7628 
G01 X10.8234 Y33.7375 
G01 X10.8565 Y33.7238 
G01 X12.6385 Y33.7238 
G01 X12.6716 Y33.7375 
G01 X12.6969 Y33.7628 
G01 X12.7106 Y33.7958 
G00 Z1.0000 
G00 X10.2110 Y35.8012 
G01 Z-0.0800 F50.00 
G01 X10.2363 Y35.8265 F100.00 
G01 X10.2500 Y35.8596 
G01 X10.2500 Y37.6416 
G01 X10.2363 Y37.6747 
G01 X10.2110 Y37.7000 
G01 X10.1779 Y37.7137 
G01 X8.3958 Y37.7137 
G01 X8.3628 Y37.7000 
G01 X8.3375 Y37.6747 
G01 X8.3238 Y37.6416 
G01 X8.3238 Y35.8596 
G01 X8.3375 Y35.8265 
G01 X8.3628 Y35.8012 
G01 X8.3958 Y35.7875 
G01 X10.1779 Y35.7875 
G01 X10.2110 Y35.8012 
G00 Z1.0000 
G00 X36.2758 Y32.6470 
G01 Z-0.0800 F50.00 
G01 X36.2505 Y32.6217 F100.00 
G01 X36.2368 Y32.5886 
G01 X36.2368 Y31.5464 
G01 X36.2505 Y31.5133 
G01 X36.2758 Y31.4880 
G01 X36.3089 Y31.4743 
G01 X37.3511 Y31.4743 
G01 X37.3842 Y31.4880 
G01 X37.4095 Y31.5133 
G01 X37.4232 Y31.5464 
G01 X37.4232 Y31.7105 
G01 X37.8957 Y31.6609 
G01 X37.9100 Y31.6570 
G01 X37.9339 Y31.6569 
G01 X37.9578 Y31.6544 
G01 X37.9724 Y31.6567 
G01 X39.2545 Y31.6504 
G01 X39.2545 Y31.6221 
G01 X39.2682 Y31.5890 
G01 X39.2935 Y31.5637 
G01 X39.3266 Y31.5500 
G01 X40.6574 Y31.5500 
G01 X40.6905 Y31.5637 
G01 X40.7158 Y31.5890 
G01 X40.7295 Y31.6221 
G01 X40.7295 Y32.2579 
G01 X40.7158 Y32.2910 
G01 X40.6905 Y32.3163 
G01 X40.6574 Y32.3300 
G01 X39.3266 Y32.3300 
G01 X39.2935 Y32.3163 
G01 X39.2682 Y32.2910 
G01 X39.2545 Y32.2579 
G01 X39.2545 Y32.2368 
G01 X37.9661 Y32.2431 
G01 X37.4232 Y32.3001 
G01 X37.4232 Y32.5886 
G01 X37.4095 Y32.6217 
G01 X37.3842 Y32.6470 
G01 X37.3511 Y32.6607 
G01 X36.3089 Y32.6607 
G01 X36.2758 Y32.6470 
G00 Z1.0000 
G00 X36.2758 Y28.7195 
G01 Z-0.0800 F50.00 
G01 X36.2505 Y28.6942 F100.00 
G01 X36.2368 Y28.6611 
G01 X36.2368 Y27.6189 
G01 X36.2505 Y27.5858 
G01 X36.2758 Y27.5605 
G01 X36.3089 Y27.5468 
G01 X37.3153 Y27.5468 
G01 X37.3364 Y27.5392 
G01 X37.3535 Y27.5297 
G01 X37.3851 Y27.5218 
G01 X37.4158 Y27.5108 
G01 X37.4353 Y27.5092 
G01 X37.4544 Y27.5044 
G01 X37.4869 Y27.5049 
G01 X37.5194 Y27.5023 
G01 X37.5387 Y27.5058 
G01 X40.0503 Y27.5461 
G01 X40.0640 Y27.5500 
G01 X40.6574 Y27.5500 
G01 X40.6905 Y27.5637 
G01 X40.7158 Y27.5890 
G01 X40.7295 Y27.6221 
G01 X40.7295 Y28.2579 
G01 X40.7158 Y28.2910 
G01 X40.6905 Y28.3163 
G01 X40.6574 Y28.3300 
G01 X40.0599 Y28.3300 
G01 X40.0376 Y28.3356 
G01 X39.6897 Y28.3300 
G01 X39.3266 Y28.3300 
G01 X39.3120 Y28.3239 
G01 X37.5655 Y28.2959 
G01 X37.4232 Y28.3469 
G01 X37.4232 Y28.6611 
G01 X37.4095 Y28.6942 
G01 X37.3842 Y28.7195 
G01 X37.3511 Y28.7332 
G01 X36.3089 Y28.7332 
G01 X36.2758 Y28.7195 
G00 Z1.0000 
G00 X39.2682 Y29.1890 
G01 Z-0.0800 F50.00 
G01 X39.2935 Y29.1637 F100.00 
G01 X39.3266 Y29.1500 
G01 X39.9208 Y29.1500 
G01 X39.9362 Y29.1457 
G01 X41.2211 Y29.1332 
G01 X41.2731 Y29.1327 
G01 X41.3231 Y29.1322 
G01 X41.3752 Y29.1456 
G01 X41.4238 Y29.1581 
G01 X41.4707 Y29.1846 
G01 X41.5143 Y29.2092 
G01 X41.5528 Y29.2470 
G01 X41.5885 Y29.2820 
G01 X41.6159 Y29.3283 
G01 X41.6414 Y29.3715 
G01 X41.6558 Y29.4233 
G01 X41.6693 Y29.4717 
G01 X41.6698 Y29.5256 
G01 X41.6703 Y29.5756 
G01 X41.6698 Y33.9430 
G01 X49.7702 Y33.8974 
G01 X49.7702 Y31.9517 
G01 X49.7698 Y31.9011 
G01 X49.7702 Y27.9717 
G01 X49.7702 Y27.9199 
G01 X49.7702 Y17.7952 
G01 X49.7674 Y17.7585 
G01 X49.7702 Y17.7434 
G01 X49.7702 Y17.7280 
G01 X49.7797 Y17.6925 
G01 X49.7865 Y17.6564 
G01 X49.7931 Y17.6425 
G01 X49.7971 Y17.6276 
G01 X49.8155 Y17.5958 
G01 X49.8314 Y17.5626 
G01 X49.8414 Y17.5509 
G01 X49.8491 Y17.5376 
G01 X49.8751 Y17.5116 
G01 X49.8990 Y17.4837 
G01 X49.9117 Y17.4750 
G01 X49.9226 Y17.4641 
G01 X49.9544 Y17.4457 
G01 X50.2254 Y17.2601 
G01 X50.2681 Y17.2308 
G01 X50.3023 Y17.2074 
G01 X50.3124 Y17.2038 
G01 X50.3612 Y17.1866 
G01 X50.4003 Y17.1729 
G01 X50.4110 Y17.1720 
G01 X50.4213 Y17.1690 
G01 X50.4627 Y17.1681 
G01 X50.5039 Y17.1649 
G01 X50.5145 Y17.1669 
G01 X50.7555 Y17.1612 
G01 X50.7826 Y17.1500 
G01 X51.2375 Y17.1500 
G01 X51.4908 Y17.1441 
G01 X51.5150 Y17.1500 
G01 X52.1134 Y17.1500 
G01 X52.1465 Y17.1637 
G01 X52.1718 Y17.1890 
G01 X52.1855 Y17.2221 
G01 X52.1855 Y17.8579 
G01 X52.1718 Y17.8910 
G01 X52.1465 Y17.9163 
G01 X52.1134 Y17.9300 
G01 X51.5210 Y17.9300 
G01 X51.5092 Y17.9335 
G01 X50.8001 Y17.9500 
G01 X52.1134 Y17.9500 
G01 X52.1465 Y17.9637 
G01 X52.1718 Y17.9890 
G01 X52.1809 Y18.0110 
G01 X53.0523 Y17.9689 
G01 X60.9364 Y9.9272 
G01 X61.0029 Y9.8879 
G01 X61.0772 Y9.8672 
G01 X61.1544 Y9.8664 
G01 X61.2292 Y9.8857 
G01 X61.2858 Y9.9176 
G01 X64.5352 Y9.9176 
G01 X64.5414 Y9.9075 
G01 X64.6173 Y9.8364 
G01 X64.7089 Y9.7874 
G01 X64.8102 Y9.7637 
G01 X64.9141 Y9.7671 
G01 X65.0135 Y9.7972 
G01 X65.1018 Y9.8521 
G01 X65.6395 Y10.4256 
G01 X66.4560 Y10.4256 
G01 X66.4973 Y10.4669 
G01 X66.9310 Y10.4669 
G01 X66.9641 Y10.4806 
G01 X66.9894 Y10.5059 
G01 X67.0031 Y10.5390 
G01 X67.0031 Y10.9727 
G01 X67.0444 Y11.0140 
G01 X67.0444 Y11.8460 
G01 X67.0031 Y11.8873 
G01 X67.0031 Y12.3210 
G01 X66.9894 Y12.3541 
G01 X66.9641 Y12.3794 
G01 X66.9310 Y12.3931 
G01 X66.4973 Y12.3931 
G01 X66.4560 Y12.4344 
G01 X65.6240 Y12.4344 
G01 X65.5827 Y12.3931 
G01 X65.1490 Y12.3931 
G01 X65.1159 Y12.3794 
G01 X65.0906 Y12.3541 
G01 X65.0769 Y12.3210 
G01 X65.0769 Y11.8873 
G01 X65.0356 Y11.8460 
G01 X65.0356 Y11.0140 
G01 X65.0734 Y10.9762 
G01 X64.5355 Y10.4024 
G01 X61.2917 Y10.4024 
G01 X53.3946 Y18.4575 
G01 X53.3724 Y18.4819 
G01 X53.3352 Y18.5058 
G01 X53.3075 Y18.5237 
G01 X53.2971 Y18.5283 
G01 X53.2654 Y18.5372 
G01 X53.2340 Y18.5472 
G01 X53.2227 Y18.5491 
G01 X53.1898 Y18.5494 
G01 X52.1855 Y18.5979 
G01 X52.1855 Y18.6579 
G01 X52.1718 Y18.6910 
G01 X52.1465 Y18.7163 
G01 X52.1134 Y18.7300 
G01 X50.7826 Y18.7300 
G01 X50.7495 Y18.7163 
G01 X50.7242 Y18.6910 
G01 X50.7105 Y18.6579 
G01 X50.7105 Y18.0221 
G01 X50.7242 Y17.9890 
G01 X50.7495 Y17.9637 
G01 X50.7816 Y17.9504 
G01 X50.6089 Y17.9545 
G01 X50.5598 Y17.9881 
G01 X50.5598 Y27.5330 
G01 X51.5054 Y27.5459 
G01 X51.5197 Y27.5500 
G01 X52.1134 Y27.5500 
G01 X52.1465 Y27.5637 
G01 X52.1718 Y27.5890 
G01 X52.1855 Y27.6221 
G01 X52.1855 Y28.2579 
G01 X52.1718 Y28.2910 
G01 X52.1465 Y28.3163 
G01 X52.1134 Y28.3300 
G01 X51.5162 Y28.3300 
G01 X51.4946 Y28.3355 
G01 X51.0935 Y28.3300 
G01 X50.7826 Y28.3300 
G01 X50.7720 Y28.3256 
G01 X50.5598 Y28.3227 
G01 X50.5598 Y31.5521 
G01 X50.7817 Y31.5504 
G01 X50.8305 Y31.5500 
G01 X51.4969 Y31.5448 
G01 X51.5169 Y31.5500 
G01 X52.1134 Y31.5500 
G01 X52.1465 Y31.5637 
G01 X52.1718 Y31.5890 
G01 X52.1855 Y31.6221 
G01 X52.1855 Y32.2579 
G01 X52.1718 Y32.2910 
G01 X52.1465 Y32.3163 
G01 X52.1134 Y32.3300 
G01 X51.5189 Y32.3300 
G01 X51.5031 Y32.3344 
G01 X50.5598 Y32.3417 
G01 X50.5598 Y34.2888 
G01 X50.5601 Y34.3398 
G01 X50.5598 Y36.3383 
G01 X51.5031 Y36.3456 
G01 X51.5189 Y36.3500 
G01 X52.1134 Y36.3500 
G01 X52.1465 Y36.3637 
G01 X52.1718 Y36.3890 
G01 X52.1855 Y36.4221 
G01 X52.1855 Y37.0579 
G01 X52.1718 Y37.0910 
G01 X52.1465 Y37.1163 
G01 X52.1134 Y37.1300 
G01 X51.5169 Y37.1300 
G01 X51.4969 Y37.1352 
G01 X50.8306 Y37.1300 
G01 X50.7826 Y37.1300 
G01 X50.5598 Y37.1279 
G01 X50.5598 Y37.9173 
G01 X50.7676 Y37.9238 
G01 X50.7495 Y37.9163 
G01 X50.7242 Y37.8910 
G01 X50.7105 Y37.8579 
G01 X50.7105 Y37.2221 
G01 X50.7242 Y37.1890 
G01 X50.7495 Y37.1637 
G01 X50.7826 Y37.1500 
G01 X52.1134 Y37.1500 
G01 X52.1465 Y37.1637 
G01 X52.1718 Y37.1890 
G01 X52.1855 Y37.2221 
G01 X52.9975 Y37.2092 
G01 X53.7814 Y36.6090 
G01 X53.7950 Y36.5954 
G01 X53.8119 Y36.5856 
G01 X53.8274 Y36.5737 
G01 X53.8452 Y36.5664 
G01 X53.8618 Y36.5568 
G01 X53.8807 Y36.5517 
G01 X53.8987 Y36.5443 
G01 X53.9178 Y36.5418 
G01 X53.9364 Y36.5368 
G01 X53.9559 Y36.5368 
G01 X53.9753 Y36.5343 
G01 X53.9944 Y36.5368 
G01 X60.3774 Y36.5368 
G01 X60.4001 Y36.5141 
G01 X60.4901 Y36.4621 
G01 X60.5905 Y36.4352 
G01 X62.4956 Y36.4352 
G01 X62.4956 Y36.4140 
G01 X62.5369 Y36.3727 
G01 X62.5369 Y35.9390 
G01 X62.5506 Y35.9059 
G01 X62.5759 Y35.8806 
G01 X62.6090 Y35.8669 
G01 X63.0427 Y35.8669 
G01 X63.0840 Y35.8256 
G01 X63.9160 Y35.8256 
G01 X63.9573 Y35.8669 
G01 X64.3910 Y35.8669 
G01 X64.4241 Y35.8806 
G01 X64.4494 Y35.9059 
G01 X64.4631 Y35.9390 
G01 X64.4631 Y36.3727 
G01 X64.5044 Y36.4140 
G01 X64.5044 Y37.2460 
G01 X64.4631 Y37.2873 
G01 X64.4631 Y37.7210 
G01 X64.4494 Y37.7541 
G01 X64.4241 Y37.7794 
G01 X64.3910 Y37.7931 
G01 X63.9573 Y37.7931 
G01 X63.9160 Y37.8344 
G01 X63.0840 Y37.8344 
G01 X63.0427 Y37.7931 
G01 X62.6090 Y37.7931 
G01 X62.5759 Y37.7794 
G01 X62.5506 Y37.7541 
G01 X62.5369 Y37.7210 
G01 X62.5369 Y37.2873 
G01 X62.4956 Y37.2460 
G01 X62.4956 Y37.2248 
G01 X60.5905 Y37.2248 
G01 X60.4901 Y37.1979 
G01 X60.4001 Y37.1459 
G01 X60.3774 Y37.1232 
G01 X54.0744 Y37.1232 
G01 X53.2965 Y37.7188 
G01 X53.2857 Y37.7302 
G01 X53.2659 Y37.7422 
G01 X53.2476 Y37.7563 
G01 X53.2331 Y37.7622 
G01 X53.2197 Y37.7704 
G01 X53.1976 Y37.7769 
G01 X53.1763 Y37.7857 
G01 X53.1607 Y37.7878 
G01 X53.1457 Y37.7922 
G01 X53.1226 Y37.7927 
G01 X53.0997 Y37.7957 
G01 X53.0842 Y37.7937 
G01 X52.1855 Y37.8154 
G01 X52.1855 Y37.8579 
G01 X52.1718 Y37.8910 
G01 X52.1465 Y37.9163 
G01 X52.1134 Y37.9300 
G01 X50.9664 Y37.9300 
G01 X51.5123 Y37.9470 
G01 X52.1134 Y37.9500 
G01 X52.1465 Y37.9637 
G01 X52.1718 Y37.9890 
G01 X52.1855 Y38.0221 
G01 X52.1855 Y38.6579 
G01 X52.1718 Y38.6910 
G01 X52.1465 Y38.7163 
G01 X52.1134 Y38.7300 
G01 X51.5142 Y38.7300 
G01 X51.4876 Y38.7362 
G01 X51.2879 Y38.7300 
G01 X50.7826 Y38.7300 
G01 X50.7495 Y38.7163 
G01 X50.4360 Y38.7034 
G01 X50.1232 Y39.5434 
G01 X50.1232 Y40.5261 
G01 X50.1095 Y40.5592 
G01 X50.0842 Y40.5845 
G01 X50.0511 Y40.5982 
G01 X49.0089 Y40.5982 
G01 X48.9758 Y40.5845 
G01 X48.9505 Y40.5592 
G01 X48.9368 Y40.5261 
G01 X48.9368 Y39.4839 
G01 X48.9505 Y39.4508 
G01 X48.9758 Y39.4255 
G01 X49.0089 Y39.4118 
G01 X49.3296 Y39.4118 
G01 X49.7702 Y38.2289 
G01 X49.7702 Y36.7804 
G01 X49.7702 Y36.7283 
G01 X49.7702 Y34.6870 
G01 X41.3281 Y34.7345 
G01 X41.2763 Y34.7348 
G01 X41.2252 Y34.7351 
G01 X39.9400 Y34.7348 
G01 X39.9221 Y34.7300 
G01 X39.3266 Y34.7300 
G01 X39.2935 Y34.7163 
G01 X39.2682 Y34.6910 
G01 X39.2545 Y34.6579 
G01 X39.2545 Y34.0221 
G01 X39.2682 Y33.9890 
G01 X39.2935 Y33.9637 
G01 X39.3266 Y33.9500 
G01 X39.9221 Y33.9500 
G01 X39.9400 Y33.9452 
G01 X40.8802 Y33.9452 
G01 X40.8802 Y29.9262 
G01 X40.6615 Y29.9283 
G01 X40.4865 Y29.9300 
G01 X39.9439 Y29.9353 
G01 X39.9233 Y29.9300 
G01 X39.3266 Y29.9300 
G01 X39.2935 Y29.9163 
G01 X39.2682 Y29.8910 
G01 X39.2545 Y29.8579 
G01 X39.2545 Y29.2221 
G01 X39.2682 Y29.1890 
G00 Z1.0000 
G00 X39.2682 Y35.5890 
G01 Z-0.0800 F50.00 
G01 X39.2935 Y35.5637 F100.00 
G01 X39.3266 Y35.5500 
G01 X40.6574 Y35.5500 
G01 X40.6905 Y35.5637 
G01 X40.7158 Y35.5890 
G01 X40.7295 Y35.6221 
G01 X41.8693 Y35.5855 
G01 X41.9077 Y35.5842 
G01 X41.9390 Y35.5832 
G01 X41.9536 Y35.5850 
G01 X41.9837 Y35.5936 
G01 X42.0142 Y35.6007 
G01 X42.0278 Y35.6063 
G01 X42.0547 Y35.6224 
G01 X42.0823 Y35.6371 
G01 X42.0940 Y35.6460 
G01 X42.1158 Y35.6685 
G01 X42.1386 Y35.6899 
G01 X42.1477 Y35.7015 
G01 X42.1628 Y35.7289 
G01 X42.1794 Y35.7555 
G01 X44.9801 Y40.8068 
G01 X58.6435 Y40.8068 
G01 X59.7756 Y40.3535 
G01 X59.8522 Y40.3443 
G01 X59.9287 Y40.3553 
G01 X59.9996 Y40.3857 
G01 X60.0148 Y40.3976 
G01 X64.5352 Y40.3976 
G01 X64.5414 Y40.3875 
G01 X64.6173 Y40.3164 
G01 X64.7089 Y40.2674 
G01 X64.8102 Y40.2437 
G01 X64.9141 Y40.2471 
G01 X65.0135 Y40.2772 
G01 X65.1018 Y40.3321 
G01 X65.6395 Y40.9056 
G01 X66.4560 Y40.9056 
G01 X66.4973 Y40.9469 
G01 X66.9310 Y40.9469 
G01 X66.9641 Y40.9606 
G01 X66.9894 Y40.9859 
G01 X67.0031 Y41.0190 
G01 X67.0031 Y41.4527 
G01 X67.0444 Y41.4940 
G01 X67.0444 Y42.3260 
G01 X67.0031 Y42.3673 
G01 X67.0031 Y42.8010 
G01 X66.9894 Y42.8341 
G01 X66.9641 Y42.8594 
G01 X66.9310 Y42.8731 
G01 X66.4973 Y42.8731 
G01 X66.4560 Y42.9144 
G01 X65.6240 Y42.9144 
G01 X65.5827 Y42.8731 
G01 X65.1490 Y42.8731 
G01 X65.1159 Y42.8594 
G01 X65.0906 Y42.8341 
G01 X65.0769 Y42.8010 
G01 X65.0769 Y42.3673 
G01 X65.0356 Y42.3260 
G01 X65.0356 Y41.4940 
G01 X65.0734 Y41.4562 
G01 X64.5355 Y40.8824 
G01 X60.0142 Y40.8824 
G01 X59.9936 Y40.8978 
G01 X58.8284 Y41.3644 
G01 X58.8132 Y41.3732 
G01 X58.7928 Y41.3787 
G01 X58.7732 Y41.3865 
G01 X58.7556 Y41.3886 
G01 X58.7386 Y41.3932 
G01 X58.7175 Y41.3932 
G01 X58.6965 Y41.3957 
G01 X58.6790 Y41.3932 
G01 X44.8436 Y41.3932 
G01 X44.8051 Y41.3932 
G01 X44.7689 Y41.3932 
G01 X44.7292 Y41.3826 
G01 X44.6943 Y41.3732 
G01 X44.6587 Y41.3527 
G01 X44.6275 Y41.3346 
G01 X44.5984 Y41.3056 
G01 X44.5729 Y41.2800 
G01 X44.5523 Y41.2445 
G01 X44.5343 Y41.2132 
G01 X41.7405 Y36.1764 
G01 X40.7295 Y36.2093 
G01 X40.7295 Y36.2579 
G01 X40.7158 Y36.2910 
G01 X40.6905 Y36.3163 
G01 X40.6574 Y36.3300 
G01 X39.3266 Y36.3300 
G01 X39.2935 Y36.3163 
G01 X39.2682 Y36.2910 
G01 X39.2545 Y36.2579 
G01 X39.2545 Y35.6221 
G01 X39.2682 Y35.5890 
G00 Z1.0000 
G00 X39.2682 Y37.1890 
G01 Z-0.0800 F50.00 
G01 X39.2935 Y37.1637 F100.00 
G01 X39.3266 Y37.1500 
G01 X40.6574 Y37.1500 
G01 X40.6905 Y37.1637 
G01 X40.7158 Y37.1890 
G01 X40.7295 Y37.2221 
G01 X40.7295 Y37.2564 
G01 X41.8791 Y37.2714 
G01 X41.9177 Y37.2719 
G01 X41.9524 Y37.2723 
G01 X41.9933 Y37.2839 
G01 X42.0267 Y37.2933 
G01 X42.0632 Y37.3150 
G01 X42.0931 Y37.3327 
G01 X42.1227 Y37.3631 
G01 X42.1469 Y37.3880 
G01 X42.1677 Y37.4250 
G01 X42.1847 Y37.4554 
G01 X44.3671 Y41.6068 
G01 X60.2186 Y41.6068 
G01 X60.2413 Y41.5841 
G01 X60.3314 Y41.5321 
G01 X60.4318 Y41.5052 
G01 X60.5357 Y41.5052 
G01 X60.5730 Y41.5152 
G01 X62.4956 Y41.5152 
G01 X62.4956 Y41.4940 
G01 X62.5369 Y41.4527 
G01 X62.5369 Y41.0190 
G01 X62.5506 Y40.9859 
G01 X62.5759 Y40.9606 
G01 X62.6090 Y40.9469 
G01 X63.0427 Y40.9469 
G01 X63.0840 Y40.9056 
G01 X63.9160 Y40.9056 
G01 X63.9573 Y40.9469 
G01 X64.3910 Y40.9469 
G01 X64.4241 Y40.9606 
G01 X64.4494 Y40.9859 
G01 X64.4631 Y41.0190 
G01 X64.4631 Y41.4527 
G01 X64.5044 Y41.4940 
G01 X64.5044 Y42.3260 
G01 X64.4631 Y42.3673 
G01 X64.4631 Y42.8010 
G01 X64.4494 Y42.8341 
G01 X64.4241 Y42.8594 
G01 X64.3910 Y42.8731 
G01 X63.9573 Y42.8731 
G01 X63.9160 Y42.9144 
G01 X63.0840 Y42.9144 
G01 X63.0427 Y42.8731 
G01 X62.6090 Y42.8731 
G01 X62.5759 Y42.8594 
G01 X62.5506 Y42.8341 
G01 X62.5369 Y42.8010 
G01 X62.5369 Y42.3673 
G01 X62.4956 Y42.3260 
G01 X62.4956 Y42.3048 
G01 X60.4318 Y42.3048 
G01 X60.3314 Y42.2779 
G01 X60.2413 Y42.2259 
G01 X60.2086 Y42.1932 
G01 X44.2227 Y42.1932 
G01 X44.1842 Y42.1932 
G01 X44.1514 Y42.1932 
G01 X44.1399 Y42.1915 
G01 X44.1085 Y42.1817 
G01 X44.0768 Y42.1732 
G01 X44.0662 Y42.1685 
G01 X44.0384 Y42.1510 
G01 X44.0100 Y42.1346 
G01 X43.9786 Y42.1033 
G01 X43.9554 Y42.0800 
G01 X43.9332 Y42.0416 
G01 X43.9168 Y42.0132 
G01 X41.7317 Y37.8559 
G01 X40.7295 Y37.8428 
G01 X40.7295 Y37.8579 
G01 X40.7158 Y37.8910 
G01 X40.6905 Y37.9163 
G01 X40.6574 Y37.9300 
G01 X39.3266 Y37.9300 
G01 X39.2935 Y37.9163 
G01 X39.2682 Y37.8910 
G01 X39.2545 Y37.8579 
G01 X39.2545 Y37.2221 
G01 X39.2682 Y37.1890 
G00 Z1.0000 
G00 X50.7495 Y36.3163 
G01 Z-0.0800 F50.00 
G01 X50.7242 Y36.2910 F100.00 
G01 X50.7105 Y36.2579 
G01 X50.7105 Y35.6221 
G01 X50.7242 Y35.5890 
G01 X50.7495 Y35.5637 
G01 X50.7826 Y35.5500 
G01 X52.1134 Y35.5500 
G01 X52.1465 Y35.5637 
G01 X52.1718 Y35.5890 
G01 X52.1855 Y35.6221 
G01 X53.1606 Y35.6076 
G01 X53.1991 Y35.6067 
G01 X53.2319 Y35.6060 
G01 X53.2434 Y35.6075 
G01 X53.2750 Y35.6165 
G01 X53.3069 Y35.6243 
G01 X53.9411 Y35.8068 
G01 X59.4475 Y35.8068 
G01 X60.8945 Y35.2716 
G01 X60.9714 Y35.2645 
G01 X61.0475 Y35.2775 
G01 X61.1176 Y35.3098 
G01 X64.4541 Y35.3176 
G01 X64.5276 Y35.2441 
G01 X64.6176 Y35.1921 
G01 X64.7180 Y35.1652 
G01 X64.8220 Y35.1652 
G01 X64.9224 Y35.1921 
G01 X65.0124 Y35.2441 
G01 X65.6089 Y35.8406 
G01 X65.6240 Y35.8256 
G01 X66.4560 Y35.8256 
G01 X66.4973 Y35.8669 
G01 X66.9310 Y35.8669 
G01 X66.9641 Y35.8806 
G01 X66.9894 Y35.9059 
G01 X67.0031 Y35.9390 
G01 X67.0031 Y36.3727 
G01 X67.0444 Y36.4140 
G01 X67.0444 Y37.2460 
G01 X67.0031 Y37.2873 
G01 X67.0031 Y37.7210 
G01 X66.9894 Y37.7541 
G01 X66.9641 Y37.7794 
G01 X66.9310 Y37.7931 
G01 X66.4973 Y37.7931 
G01 X66.4560 Y37.8344 
G01 X65.6240 Y37.8344 
G01 X65.5827 Y37.7931 
G01 X65.1490 Y37.7931 
G01 X65.1159 Y37.7794 
G01 X65.0906 Y37.7541 
G01 X65.0769 Y37.7210 
G01 X65.0769 Y37.2873 
G01 X65.0356 Y37.2460 
G01 X65.0356 Y36.4140 
G01 X65.0506 Y36.3989 
G01 X64.4541 Y35.8024 
G01 X61.1250 Y35.8024 
G01 X61.0979 Y35.8216 
G01 X59.6250 Y36.3664 
G01 X59.6132 Y36.3732 
G01 X59.5890 Y36.3797 
G01 X59.5655 Y36.3884 
G01 X59.5518 Y36.3896 
G01 X59.5386 Y36.3932 
G01 X59.5136 Y36.3932 
G01 X59.4886 Y36.3955 
G01 X59.4751 Y36.3932 
G01 X53.9361 Y36.3932 
G01 X53.8976 Y36.3932 
G01 X53.8614 Y36.3932 
G01 X53.8218 Y36.3826 
G01 X53.7868 Y36.3732 
G01 X53.1622 Y36.1941 
G01 X52.1855 Y36.2164 
G01 X52.1855 Y36.2579 
G01 X52.1718 Y36.2910 
G01 X52.1465 Y36.3163 
G01 X52.1134 Y36.3300 
G01 X50.7826 Y36.3300 
G01 X50.7495 Y36.3163 
G00 Z1.0000 
G00 X50.7495 Y35.5163 
G01 Z-0.0800 F50.00 
G01 X50.7242 Y35.4910 F100.00 
G01 X50.7105 Y35.4579 
G01 X50.7105 Y34.8221 
G01 X50.7242 Y34.7890 
G01 X50.7495 Y34.7637 
G01 X50.7826 Y34.7500 
G01 X52.1134 Y34.7500 
G01 X52.1465 Y34.7637 
G01 X52.1718 Y34.7890 
G01 X52.1855 Y34.8221 
G01 X53.2706 Y34.8074 
G01 X53.2859 Y34.8046 
G01 X53.3090 Y34.8065 
G01 X53.3323 Y34.8060 
G01 X53.3473 Y34.8097 
G01 X53.3628 Y34.8110 
G01 X53.3847 Y34.8189 
G01 X53.4072 Y34.8244 
G01 X53.4209 Y34.8319 
G01 X54.0261 Y35.0493 
G01 X58.8100 Y35.0493 
G01 X60.5890 Y34.1491 
G01 X60.5921 Y34.1376 
G01 X60.6441 Y34.0476 
G01 X60.7176 Y33.9741 
G01 X60.8076 Y33.9221 
G01 X60.9080 Y33.8952 
G01 X62.4956 Y33.8952 
G01 X62.4956 Y33.8740 
G01 X62.5369 Y33.8327 
G01 X62.5369 Y33.3990 
G01 X62.5506 Y33.3659 
G01 X62.5759 Y33.3406 
G01 X62.6090 Y33.3269 
G01 X63.0427 Y33.3269 
G01 X63.0840 Y33.2856 
G01 X63.9160 Y33.2856 
G01 X63.9573 Y33.3269 
G01 X64.3910 Y33.3269 
G01 X64.4241 Y33.3406 
G01 X64.4494 Y33.3659 
G01 X64.4631 Y33.3990 
G01 X64.4631 Y33.8327 
G01 X64.5044 Y33.8740 
G01 X64.5044 Y34.7060 
G01 X64.4631 Y34.7473 
G01 X64.4631 Y35.1810 
G01 X64.4494 Y35.2141 
G01 X64.4241 Y35.2394 
G01 X64.3910 Y35.2531 
G01 X63.9573 Y35.2531 
G01 X63.9160 Y35.2944 
G01 X63.0840 Y35.2944 
G01 X63.0427 Y35.2531 
G01 X62.6090 Y35.2531 
G01 X62.5759 Y35.2394 
G01 X62.5506 Y35.2141 
G01 X62.5369 Y35.1810 
G01 X62.5369 Y34.7473 
G01 X62.4956 Y34.7060 
G01 X62.4956 Y34.6848 
G01 X60.9080 Y34.6848 
G01 X60.8565 Y34.6710 
G01 X59.0196 Y35.6005 
G01 X58.9932 Y35.6157 
G01 X58.9779 Y35.6215 
G01 X58.9481 Y35.6278 
G01 X58.9186 Y35.6357 
G01 X58.9024 Y35.6374 
G01 X58.8719 Y35.6357 
G01 X54.0013 Y35.6357 
G01 X53.9891 Y35.6379 
G01 X53.9628 Y35.6357 
G01 X53.9364 Y35.6357 
G01 X53.9245 Y35.6325 
G01 X53.9122 Y35.6315 
G01 X53.8873 Y35.6225 
G01 X53.8618 Y35.6157 
G01 X53.8511 Y35.6095 
G01 X53.2520 Y35.3943 
G01 X52.1855 Y35.4173 
G01 X52.1855 Y35.4579 
G01 X52.1718 Y35.4910 
G01 X52.1465 Y35.5163 
G01 X52.1134 Y35.5300 
G01 X50.7826 Y35.5300 
G01 X50.7495 Y35.5163 
G00 Z1.0000 
G00 X50.7495 Y34.7163 
G01 Z-0.0800 F50.00 
G01 X50.7242 Y34.6910 F100.00 
G01 X50.7105 Y34.6579 
G01 X50.7105 Y34.0221 
G01 X50.7242 Y33.9890 
G01 X50.7495 Y33.9637 
G01 X50.7826 Y33.9500 
G01 X51.3760 Y33.9500 
G01 X51.3898 Y33.9461 
G01 X54.0168 Y33.9045 
G01 X54.0168 Y33.7689 
G01 X54.0305 Y33.7358 
G01 X54.0558 Y33.7105 
G01 X54.0889 Y33.6968 
G01 X55.1311 Y33.6968 
G01 X55.1642 Y33.7105 
G01 X55.1895 Y33.7358 
G01 X55.2032 Y33.7689 
G01 X55.2032 Y34.8111 
G01 X55.1895 Y34.8442 
G01 X55.1642 Y34.8695 
G01 X55.1311 Y34.8832 
G01 X54.0889 Y34.8832 
G01 X54.0558 Y34.8695 
G01 X54.0305 Y34.8442 
G01 X54.0168 Y34.8111 
G01 X54.0168 Y34.6942 
G01 X52.1276 Y34.7241 
G01 X52.1134 Y34.7300 
G01 X51.7546 Y34.7300 
G01 X51.4023 Y34.7356 
G01 X51.3801 Y34.7300 
G01 X50.7826 Y34.7300 
G01 X50.7495 Y34.7163 
G00 Z1.0000 
G00 X50.7495 Y33.9163 
G01 Z-0.0800 F50.00 
G01 X50.7242 Y33.8910 F100.00 
G01 X50.7105 Y33.8579 
G01 X50.7105 Y33.2221 
G01 X50.7242 Y33.1890 
G01 X50.7495 Y33.1637 
G01 X50.7826 Y33.1500 
G01 X52.1134 Y33.1500 
G01 X52.1465 Y33.1637 
G01 X52.1718 Y33.1890 
G01 X52.1855 Y33.2221 
G01 X52.1855 Y33.2459 
G01 X53.3625 Y33.2444 
G01 X53.8401 Y32.7824 
G01 X53.9076 Y32.7449 
G01 X53.9825 Y32.7262 
G01 X54.0597 Y32.7275 
G01 X54.1339 Y32.7487 
G01 X54.1821 Y32.7776 
G01 X64.5352 Y32.7776 
G01 X64.5414 Y32.7675 
G01 X64.6173 Y32.6964 
G01 X64.7089 Y32.6474 
G01 X64.8102 Y32.6237 
G01 X64.9141 Y32.6271 
G01 X65.0135 Y32.6572 
G01 X65.1018 Y32.7121 
G01 X65.6395 Y33.2856 
G01 X66.4560 Y33.2856 
G01 X66.4973 Y33.3269 
G01 X66.9310 Y33.3269 
G01 X66.9641 Y33.3406 
G01 X66.9894 Y33.3659 
G01 X67.0031 Y33.3990 
G01 X67.0031 Y33.8327 
G01 X67.0444 Y33.8740 
G01 X67.0444 Y34.7060 
G01 X67.0031 Y34.7473 
G01 X67.0031 Y35.1810 
G01 X66.9894 Y35.2141 
G01 X66.9641 Y35.2394 
G01 X66.9310 Y35.2531 
G01 X66.4973 Y35.2531 
G01 X66.4560 Y35.2944 
G01 X65.6240 Y35.2944 
G01 X65.5827 Y35.2531 
G01 X65.1490 Y35.2531 
G01 X65.1159 Y35.2394 
G01 X65.0906 Y35.2141 
G01 X65.0769 Y35.1810 
G01 X65.0769 Y34.7473 
G01 X65.0356 Y34.7060 
G01 X65.0356 Y33.8740 
G01 X65.0734 Y33.8362 
G01 X64.5355 Y33.2624 
G01 X54.1874 Y33.2624 
G01 X53.6870 Y33.7464 
G01 X53.6616 Y33.7719 
G01 X53.6259 Y33.7925 
G01 X53.5948 Y33.8106 
G01 X53.5550 Y33.8213 
G01 X53.5202 Y33.8306 
G01 X53.4790 Y33.8307 
G01 X52.1855 Y33.8323 
G01 X52.1855 Y33.8579 
G01 X52.1718 Y33.8910 
G01 X52.1465 Y33.9163 
G01 X52.1134 Y33.9300 
G01 X50.7826 Y33.9300 
G01 X50.7495 Y33.9163 
G00 Z1.0000 
G00 X50.7495 Y33.1163 
G01 Z-0.0800 F50.00 
G01 X50.7242 Y33.0910 F100.00 
G01 X50.7105 Y33.0579 
G01 X50.7105 Y32.4221 
G01 X50.7242 Y32.3890 
G01 X50.7495 Y32.3637 
G01 X50.7826 Y32.3500 
G01 X52.1134 Y32.3500 
G01 X52.1465 Y32.3637 
G01 X52.1718 Y32.3890 
G01 X52.1855 Y32.4221 
G01 X52.1855 Y32.4485 
G01 X52.9710 Y32.4503 
G01 X53.4994 Y31.9860 
G01 X53.5200 Y31.9654 
G01 X53.5354 Y31.9543 
G01 X53.5616 Y31.9414 
G01 X53.5868 Y31.9268 
G01 X53.6047 Y31.9201 
G01 X53.6332 Y31.9143 
G01 X53.6614 Y31.9068 
G01 X53.6804 Y31.9049 
G01 X53.7095 Y31.9068 
G01 X59.5497 Y31.9068 
G01 X60.5253 Y31.5618 
G01 X60.5566 Y31.5076 
G01 X60.6301 Y31.4341 
G01 X60.7201 Y31.3821 
G01 X60.8205 Y31.3552 
G01 X62.4956 Y31.3552 
G01 X62.4956 Y31.3340 
G01 X62.5369 Y31.2927 
G01 X62.5369 Y30.8590 
G01 X62.5506 Y30.8259 
G01 X62.5759 Y30.8006 
G01 X62.6090 Y30.7869 
G01 X63.0427 Y30.7869 
G01 X63.0840 Y30.7456 
G01 X63.9160 Y30.7456 
G01 X63.9573 Y30.7869 
G01 X64.3910 Y30.7869 
G01 X64.4241 Y30.8006 
G01 X64.4494 Y30.8259 
G01 X64.4631 Y30.8590 
G01 X64.4631 Y31.2927 
G01 X64.5044 Y31.3340 
G01 X64.5044 Y32.1660 
G01 X64.4631 Y32.2073 
G01 X64.4631 Y32.6410 
G01 X64.4494 Y32.6741 
G01 X64.4241 Y32.6994 
G01 X64.3910 Y32.7131 
G01 X63.9573 Y32.7131 
G01 X63.9160 Y32.7544 
G01 X63.0840 Y32.7544 
G01 X63.0427 Y32.7131 
G01 X62.6090 Y32.7131 
G01 X62.5759 Y32.6994 
G01 X62.5506 Y32.6741 
G01 X62.5369 Y32.6410 
G01 X62.5369 Y32.2073 
G01 X62.4956 Y32.1660 
G01 X62.4956 Y32.1448 
G01 X60.8205 Y32.1448 
G01 X60.7201 Y32.1179 
G01 X59.7232 Y32.4674 
G01 X59.7132 Y32.4732 
G01 X59.6869 Y32.4802 
G01 X59.6614 Y32.4893 
G01 X59.6498 Y32.4902 
G01 X59.6386 Y32.4932 
G01 X59.6115 Y32.4932 
G01 X59.5844 Y32.4953 
G01 X59.5730 Y32.4932 
G01 X53.8105 Y32.4932 
G01 X53.2816 Y32.9580 
G01 X53.2607 Y32.9788 
G01 X53.2458 Y32.9895 
G01 X53.2194 Y33.0025 
G01 X53.1938 Y33.0172 
G01 X53.1766 Y33.0237 
G01 X53.1477 Y33.0295 
G01 X53.1192 Y33.0370 
G01 X53.1009 Y33.0388 
G01 X53.0714 Y33.0369 
G01 X52.1855 Y33.0349 
G01 X52.1855 Y33.0579 
G01 X52.1718 Y33.0910 
G01 X52.1465 Y33.1163 
G01 X52.1134 Y33.1300 
G01 X50.7826 Y33.1300 
G01 X50.7495 Y33.1163 
G00 Z1.0000 
G00 X50.7495 Y31.5163 
G01 Z-0.0800 F50.00 
G01 X50.7242 Y31.4910 F100.00 
G01 X50.7105 Y31.4579 
G01 X50.7105 Y30.8221 
G01 X50.7242 Y30.7890 
G01 X50.7495 Y30.7637 
G01 X50.7826 Y30.7500 
G01 X52.1134 Y30.7500 
G01 X52.1465 Y30.7637 
G01 X52.1718 Y30.7890 
G01 X52.1855 Y30.8221 
G01 X52.1855 Y30.8351 
G01 X52.9838 Y30.8224 
G01 X53.0223 Y30.8218 
G01 X53.0564 Y30.8212 
G01 X53.0982 Y30.8317 
G01 X53.1313 Y30.8400 
G01 X53.1690 Y30.8610 
G01 X53.1988 Y30.8776 
G01 X53.5808 Y31.1068 
G01 X58.9235 Y31.1068 
G01 X60.5329 Y30.2053 
G01 X60.6077 Y30.1863 
G01 X60.6849 Y30.1873 
